; generated by PrusaSlicer 2.9.0 on 2025-01-23 at 18:42:44 UTC


;
;
; 

; external perimeters extrusion width = 0.60mm
; perimeters extrusion width = 0.50mm
; infill extrusion width = 0.50mm
; solid infill extrusion width = 0.50mm
; top infill extrusion width = 0.45mm
; first layer extrusion width = 0.42mm

M73 P0 R7
M73 Q0 S7
M201 X1000 Y1000 Z200 E5000 ; sets maximum accelerations, mm/sec^2
M203 X200 Y200 Z12 E120 ; sets maximum feedrates, mm / sec
M204 S1250 T1250 ; sets acceleration (S) and retract acceleration (R), mm/sec^2
M205 X8.00 Y8.00 Z0.40 E4.50 ; sets the jerk limits, mm/sec
M205 S0 T0 ; sets the minimum extruding and travel feed rate, mm/sec

; printing object InfillTest.stl id:0 copy 0
; stop printing object InfillTest.stl id:0 copy 0

;TYPE:Custom
M862.3 P "MK3S" ; printer model check
M862.1 P0.4 ; nozzle diameter check
M115 U3.14.1 ; tell printer latest fw version
G90 ; use absolute coordinates
M83 ; extruder relative mode
M104 S215 ; set extruder temp
M140 S60 ; set bed temp
M190 S60 ; wait for bed temp
M109 S215 ; wait for extruder temp
G28 W ; home all without mesh bed level
G80 X52.5097 Y82.0033 W44.5542 H42.5445 ; mesh bed levelling

G1 Z0.2 F720
G1 Y-3 F1000 ; go outside print area
G92 E0
G1 X60 E9 F1000 ; intro line
G1 X100 E12.5 F1000 ; intro line

G92 E0
M221 S95

; Don't change E values below. Excessive value can damage the printer.

M907 E538 ; set extruder motor current
G21 ; set units to millimeters
G90 ; use absolute coordinates
M83 ; use relative distances for extrusion

M900 K0.05 ; Filament gcode LA 1.5
M900 K30 ; Filament gcode LA 1.0




M107
;LAYER_CHANGE
;Z:0.2
;HEIGHT:0.2
G1 E-.8 F2100
M73 P1 R7
M73 Q1 S7
G1 Z.6 F720
G1 X59.912 Y86.904 F10800
G1 Z.2 F720
G1 E.8 F2100
M204 S800
;TYPE:Skirt/Brim
;WIDTH:0.42
G1 F1200
G1 X61.951 Y85.606 E.07579
G1 X64.549 Y84.307 E.09107
G1 X66.811 Y83.454 E.0758
G1 X69.62 Y82.714 E.09108
G1 X72.008 Y82.342 E.07578
G1 X74.909 Y82.193 E.09108
G1 X77.51 Y82.336 E.08168
G1 X80.138 Y82.752 E.08343
G1 X82.709 Y83.436 E.08342
G1 X85.197 Y84.382 E.08346
G1 X87.574 Y85.578 E.08343
M73 Q2 S7
G1 X89.815 Y87.012 E.08342
G1 X91.799 Y88.582 E.07933
M73 P2 R7
G1 X93.709 Y90.435 E.08344
G1 X95.837 Y93.003 E.10457
G1 X96.188 Y93.643 E.02289
G1 X96.754 Y95.27 E.05401
G1 X96.875 Y95.988 E.02283
G1 X96.875 Y104.898 E.27937
G1 X96.801 Y105.465 E.01793
G1 X96.453 Y106.762 E.0421
G1 X96.235 Y107.289 E.01788
G1 X87.8 Y121.898 E.52892
G1 X86.999 Y122.699 E.03552
G1 X84.632 Y124.066 E.0857
G1 X83.538 Y124.359 E.03551
G1 X66.036 Y124.359 E.54876
G1 X64.941 Y124.066 E.03554
G1 X62.574 Y122.699 E.0857
G1 X61.773 Y121.898 E.03552
G1 X53.339 Y107.289 E.52891
G1 X53.12 Y106.762 E.01789
M73 Q3 S7
G1 X52.773 Y105.465 E.0421
G1 X52.698 Y104.898 E.01793
M73 P3 R7
G1 X52.698 Y95.988 E.27937
G1 X52.82 Y95.27 E.02284
G1 X53.385 Y93.643 E.054
G1 X53.736 Y93.003 E.02289
G1 X55.865 Y90.435 E.10459
G1 X56.837 Y89.445 E.0435
G1 X58.682 Y87.825 E.07698
G1 X59.864 Y86.94 E.0463
M204 S1000
;WIPE_START
G1 F8640
G1 X59.912 Y86.904 E-.01385
G1 X61.951 Y85.606 E-.55811
G1 X62.834 Y85.164 E-.22804
;WIPE_END
G1 Z.6 F720
G1 X61.197 Y89.027 F10800
G1 Z.2 F720
G1 E.8 F2100
M204 S800
G1 F1200
M73 P3 R6
G1 X63.268 Y87.704 E.07705
G1 X64.343 Y87.131 E.0382
G1 X66.56 Y86.163 E.07585
G1 X68.899 Y85.421 E.07694
M73 Q3 S6
G1 X71.164 Y84.949 E.07254
G1 X72.403 Y84.789 E.03917
G1 X75.372 Y84.68 E.09315
G1 X77.261 Y84.798 E.05934
G1 X79.637 Y85.176 E.07543
G1 X81.959 Y85.795 E.07535
G1 X84.21 Y86.652 E.07552
G1 X86.337 Y87.722 E.07465
G1 X88.355 Y89.01 E.07506
G1 X90.23 Y90.499 E.07507
G1 X91.94 Y92.168 E.07492
G1 X93.665 Y94.272 E.08531
G1 X94.38 Y96.308 E.06766
G1 X94.393 Y104.521 E.25751
G1 X94.219 Y105.581 E.03368
G1 X86.2 Y119.722 E.50971
G1 X85.422 Y120.63 E.03749
M73 P4 R6
M73 Q4 S6
G1 X84.471 Y121.312 E.03669
G1 X82.531 Y121.884 E.06342
G1 X67.123 Y121.884 E.48311
G1 X66.11 Y121.719 E.03218
G1 X64.574 Y120.971 E.05357
G1 X63.402 Y119.769 E.05264
G1 X55.57 Y106.156 E.49243
G1 X55.18 Y104.549 E.05185
G1 X55.183 Y96.521 E.25171
G1 X55.263 Y95.854 E.02106
G1 X55.949 Y94.22 E.05556
G1 X56.843 Y93.068 E.04572
G1 X58.437 Y91.341 E.07369
G1 X59.371 Y90.475 E.03994
G1 X61.149 Y89.063 E.07119
M204 S1000
G1 X61.149 Y89.063 F10800
G1 X61.383 Y89.359
M204 S800
G1 F1200
G1 X61.412 Y89.335 E.00118
G1 X63.45 Y88.034 E.07581
G1 X65.607 Y86.957 E.07559
G1 X67.736 Y86.152 E.07137
G1 X68.991 Y85.787 E.04098
G1 X71.227 Y85.321 E.07161
G1 X72.447 Y85.163 E.03857
G1 X74.725 Y85.044 E.07152
G1 X77.216 Y85.173 E.07821
M73 Q5 S6
G1 X79.554 Y85.544 E.07422
G1 X81.838 Y86.152 E.07411
M73 P5 R6
G1 X84.054 Y86.995 E.07434
G1 X86.147 Y88.047 E.07345
G1 X88.132 Y89.315 E.07385
G1 X89.977 Y90.779 E.07385
G1 X91.659 Y92.42 E.07368
G1 X93.348 Y94.479 E.0835
G1 X94.003 Y96.34 E.06186
G1 X94.016 Y104.506 E.25604
G1 X93.853 Y105.486 E.03115
G1 X85.88 Y119.52 E.50608
G1 X85.183 Y120.337 E.03367
G1 X84.277 Y120.987 E.03496
G1 X82.504 Y121.507 E.05793
G1 X67.139 Y121.507 E.48176
G1 X66.198 Y121.352 E.0299
G1 X64.82 Y120.683 E.04803
G1 X63.716 Y119.56 E.04938
G1 X55.911 Y105.991 E.49081
G1 X55.557 Y104.527 E.04723
M73 Q6 S6
G1 X55.56 Y96.532 E.25068
G1 X55.634 Y95.926 E.01914
M73 P6 R6
G1 X56.262 Y94.432 E.05081
G1 X57.13 Y93.312 E.04443
G1 X58.704 Y91.607 E.07276
G1 X59.616 Y90.761 E.039
G1 X61.336 Y89.396 E.06885
M204 S1000
G1 X61.336 Y89.396 F10800
G1 X61.571 Y89.691
M204 S800
G1 F1200
G1 X61.636 Y89.639 E.00261
G1 X63.631 Y88.365 E.07422
G1 X65.753 Y87.304 E.07439
G1 X67.855 Y86.51 E.07045
G1 X69.082 Y86.153 E.04007
G1 X71.29 Y85.693 E.07072
G1 X72.49 Y85.538 E.03794
G1 X75.354 Y85.434 E.08986
G1 X77.171 Y85.547 E.05708
G1 X79.471 Y85.912 E.07302
G1 X81.718 Y86.51 E.07291
G1 X83.897 Y87.338 E.07309
G1 X85.956 Y88.373 E.07226
G1 X87.909 Y89.619 E.07264
G1 X89.725 Y91.059 E.07267
G1 X91.379 Y92.672 E.07244
G1 X93.03 Y94.685 E.08163
G1 X93.636 Y96.433 E.05801
G1 X93.639 Y104.49 E.25262
G1 X93.486 Y105.39 E.02862
G1 X85.562 Y119.317 E.5024
G1 X84.912 Y120.073 E.03126
G1 X84.085 Y120.662 E.03183
G1 X82.477 Y121.13 E.05251
G1 X67.155 Y121.13 E.48041
M73 Q7 S6
G1 X66.288 Y120.985 E.02756
M73 P7 R6
G1 X65.016 Y120.359 E.04445
G1 X64.032 Y119.352 E.04415
G1 X56.251 Y105.827 E.48924
G1 X55.934 Y104.505 E.04263
G1 X55.938 Y96.544 E.24961
G1 X56.005 Y95.998 E.01725
G1 X56.575 Y94.643 E.04609
G1 X57.417 Y93.557 E.04309
G1 X58.971 Y91.873 E.07185
G1 X59.862 Y91.047 E.03809
G1 X61.524 Y89.728 E.06653
M204 S1000
G1 X61.524 Y89.728 F10800
G1 X61.758 Y90.023
M204 S800
G1 F1200
G1 X61.859 Y89.943 E.00404
G1 X63.813 Y88.695 E.0727
G1 X65.9 Y87.652 E.07315
G1 X67.975 Y86.867 E.06956
G1 X69.173 Y86.519 E.03912
G1 X71.353 Y86.065 E.06982
G1 X72.533 Y85.913 E.0373
G1 X74.735 Y85.798 E.06914
G1 X77.127 Y85.922 E.0751
G1 X79.388 Y86.28 E.07178
G1 X81.598 Y86.867 E.0717
G1 X83.741 Y87.681 E.07188
G1 X85.766 Y88.698 E.07105
G1 X87.686 Y89.923 E.07141
G1 X89.472 Y91.339 E.07146
G1 X91.099 Y92.924 E.07122
G1 X92.712 Y94.89 E.07973
G1 X93.269 Y96.525 E.05416
M73 Q8 S6
G1 X93.262 Y104.473 E.2492
G1 X93.121 Y105.293 E.02609
M73 P8 R6
G1 X85.244 Y119.114 E.49879
G1 X84.643 Y119.808 E.02879
G1 X83.894 Y120.335 E.02871
G1 X82.451 Y120.753 E.0471
G1 X67.171 Y120.753 E.47909
G1 X66.378 Y120.618 E.02522
G1 X65.261 Y120.072 E.03898
G1 X64.346 Y119.142 E.04091
G1 X56.592 Y105.663 E.48756
G1 X56.311 Y104.483 E.03803
G1 X56.315 Y96.557 E.24851
G1 X56.376 Y96.071 E.01536
G1 X56.888 Y94.855 E.04137
G1 X57.705 Y93.801 E.04181
G1 X59.238 Y92.14 E.07087
G1 X60.107 Y91.334 E.03716
G1 X61.711 Y90.061 E.06421
M204 S1000
G1 X61.711 Y90.061 F10800
G1 X61.945 Y90.356
M204 S800
G1 F1200
G1 X62.082 Y90.248 E.00547
G1 X63.995 Y89.025 E.07119
G1 X66.046 Y87.999 E.07191
G1 X68.094 Y87.225 E.06865
M73 Q9 S6
G1 X69.264 Y86.884 E.03821
G1 X71.416 Y86.437 E.06891
M73 P9 R6
G1 X72.577 Y86.287 E.0367
G1 X75.336 Y86.188 E.08656
G1 X77.082 Y86.296 E.05485
G1 X79.305 Y86.647 E.07056
G1 X81.478 Y87.225 E.0705
G1 X83.585 Y88.024 E.07065
G1 X85.576 Y89.024 E.06986
G1 X87.464 Y90.228 E.07021
G1 X89.219 Y91.619 E.07021
G1 X90.818 Y93.177 E.07
G1 X92.395 Y95.096 E.07788
G1 X92.892 Y96.556 E.04836
G1 X92.885 Y104.456 E.2477
G1 X92.755 Y105.196 E.02356
G1 X84.926 Y118.911 E.49515
G1 X84.375 Y119.542 E.02627
G1 X83.705 Y120.007 E.02557
G1 X82.425 Y120.376 E.04177
G1 X67.187 Y120.376 E.47778
G1 X66.471 Y120.251 E.02279
G1 X65.458 Y119.749 E.03545
G1 X64.661 Y118.934 E.03574
G1 X56.932 Y105.499 E.48598
G1 X56.688 Y104.462 E.0334
M73 P10 R6
M73 Q10 S6
G1 X56.692 Y96.569 E.24748
G1 X56.747 Y96.146 E.01337
G1 X57.201 Y95.066 E.03673
G1 X57.992 Y94.045 E.0405
G1 X59.505 Y92.406 E.06994
G1 X60.353 Y91.62 E.03625
G1 X61.898 Y90.393 E.06186
M204 S1000
G1 X61.898 Y90.393 F10800
G1 X62.132 Y90.688
M204 S800
G1 F1200
G1 X62.305 Y90.552 E.0069
G1 X64.177 Y89.356 E.06965
G1 X66.192 Y88.347 E.07066
G1 X68.214 Y87.583 E.06777
G1 X69.355 Y87.25 E.03727
G1 X71.479 Y86.809 E.06802
G1 X72.62 Y86.662 E.03607
G1 X74.746 Y86.552 E.06675
G1 X77.038 Y86.671 E.07196
G1 X79.223 Y87.015 E.06935
G1 X81.358 Y87.582 E.06926
G1 X83.429 Y88.368 E.06945
G1 X85.394 Y89.354 E.06893
G1 X87.241 Y90.532 E.06869
G1 X88.967 Y91.899 E.06903
G1 X90.538 Y93.429 E.06876
G1 X92.077 Y95.302 E.07601
G1 X92.515 Y96.586 E.04254
G1 X92.508 Y104.439 E.24623
G1 X92.39 Y105.097 E.02096
G1 X84.607 Y118.708 E.49161
G1 X84.14 Y119.246 E.02234
G1 X83.516 Y119.68 E.02383
G1 X82.399 Y119.999 E.03642
G1 X67.204 Y119.999 E.47643
M73 Q11 S6
G1 X66.565 Y119.885 E.02035
M73 P11 R6
G1 X65.657 Y119.427 E.03189
G1 X64.977 Y118.726 E.03062
G1 X57.273 Y105.335 E.48439
G1 X57.065 Y104.441 E.02878
G1 X57.117 Y96.221 E.25774
G1 X57.515 Y95.277 E.03212
G1 X58.279 Y94.29 E.03913
G1 X59.772 Y92.672 E.06903
G1 X60.598 Y91.906 E.03532
G1 X62.085 Y90.726 E.05952
M204 S1000
G1 X62.085 Y90.726 F10800
G1 X62.32 Y91.021
M204 S800
G1 F1200
G1 X62.528 Y90.856 E.00832
G1 X63.428 Y90.248 E.03405
G1 X65.338 Y89.163 E.06887
G1 X67.375 Y88.274 E.06969
G1 X68.879 Y87.78 E.04964
G1 X70.435 Y87.383 E.05035
G1 X72.653 Y87.038 E.07038
G1 X75.318 Y86.942 E.08361
G1 X76.994 Y87.045 E.05265
G1 X79.14 Y87.383 E.06812
G1 X81.238 Y87.94 E.06806
G1 X83.273 Y88.711 E.06823
G1 X85.203 Y89.68 E.06771
G1 X87.019 Y90.837 E.06751
G1 X88.714 Y92.179 E.06779
G1 X90.258 Y93.681 E.06754
G1 X91.76 Y95.508 E.07416
G1 X92.138 Y96.617 E.03674
G1 X92.131 Y104.421 E.24469
G1 X92.025 Y104.997 E.01836
M73 P12 R6
M73 Q12 S6
G1 X84.29 Y118.503 E.488
G1 X83.873 Y118.979 E.01984
G1 X83.329 Y119.351 E.02066
G1 X82.373 Y119.622 E.03116
G1 X67.222 Y119.622 E.47505
G1 X66.659 Y119.519 E.01795
G1 X65.903 Y119.14 E.02652
G1 X65.291 Y118.517 E.02738
G1 X57.614 Y105.172 E.48272
G1 X57.443 Y104.42 E.02418
G1 X57.487 Y96.297 E.25469
G1 X57.828 Y95.489 E.0275
G1 X58.574 Y94.525 E.03822
G1 X60.039 Y92.939 E.0677
G1 X60.851 Y92.186 E.03472
G1 X62.273 Y91.058 E.05691
M204 S1000
G1 X62.273 Y91.058 F10800
G1 X62.507 Y91.353
M204 S800
G1 F1200
G1 X62.75 Y91.16 E.00973
G1 X64.558 Y90.007 E.06723
G1 X66.494 Y89.038 E.06788
G1 X68.453 Y88.298 E.06566
G1 X69.537 Y87.982 E.0354
G1 X71.595 Y87.554 E.06591
G1 X72.687 Y87.413 E.03452
G1 X74.756 Y87.306 E.06496
G1 X76.95 Y87.42 E.06888
G1 X79.058 Y87.751 E.0669
M73 Q13 S6
G1 X81.118 Y88.297 E.06682
M73 P13 R6
G1 X83.117 Y89.054 E.06702
G1 X85.013 Y90.005 E.06651
G1 X86.796 Y91.141 E.06629
G1 X88.462 Y92.459 E.06661
G1 X89.978 Y93.934 E.06632
G1 X91.443 Y95.713 E.07226
G1 X91.761 Y96.648 E.03097
G1 X91.754 Y104.402 E.24312
G1 X91.66 Y104.895 E.01574
G1 X83.973 Y118.299 E.48448
G1 X83.608 Y118.71 E.01723
G1 X83.145 Y119.021 E.01749
G1 X82.347 Y119.245 E.02599
G1 X67.24 Y119.245 E.47367
G1 X66.757 Y119.154 E.01541
G1 X66.104 Y118.819 E.02301
G1 X65.607 Y118.309 E.02233
G1 X57.956 Y105.009 E.48109
G1 X57.82 Y104.4 E.01957
G1 X57.857 Y96.375 E.25162
G1 X58.141 Y95.7 E.02296
G1 X58.869 Y94.76 E.03728
M73 Q14 S6
G1 X60.306 Y93.205 E.06639
G1 X61.104 Y92.466 E.0341
M73 P14 R6
G1 X62.46 Y91.391 E.05426
M204 S1000
G1 X62.46 Y91.391 F10800
G1 X62.694 Y91.686
M204 S800
G1 F1200
G1 X62.973 Y91.464 E.01118
G1 X63.842 Y90.878 E.03286
G1 X65.684 Y89.833 E.0664
G1 X67.631 Y88.983 E.06661
G1 X69.09 Y88.504 E.04815
G1 X70.598 Y88.119 E.0488
G1 X72.72 Y87.789 E.06733
G1 X75.3 Y87.696 E.08095
G1 X76.906 Y87.794 E.05045
G1 X78.976 Y88.119 E.0657
G1 X80.999 Y88.655 E.06562
G1 X82.961 Y89.398 E.06578
G1 X84.823 Y90.331 E.0653
G1 X86.582 Y91.451 E.06538
G1 X88.217 Y92.746 E.0654
G1 X89.704 Y94.194 E.06508
G1 X91.125 Y95.919 E.07007
G1 X91.384 Y96.679 E.02518
G1 X91.377 Y104.383 E.24155
G1 X91.297 Y104.792 E.01307
G1 X83.656 Y118.093 E.48096
G1 X83.345 Y118.439 E.01459
G1 X82.964 Y118.689 E.01429
G1 X82.322 Y118.868 E.0209
G1 X67.259 Y118.868 E.47229
G1 X66.855 Y118.789 E.01291
G1 X66.35 Y118.532 E.01777
G1 X65.921 Y118.099 E.01911
G1 X58.297 Y104.847 E.47936
G1 X58.197 Y104.381 E.01494
M73 P15 R6
M73 Q15 S6
G1 X58.226 Y96.455 E.24852
G1 X58.454 Y95.912 E.01847
G1 X59.156 Y95.005 E.03596
G1 X60.573 Y93.471 E.06548
G1 X61.357 Y92.746 E.03348
G1 X62.647 Y91.723 E.05162
M204 S1000
G1 X62.647 Y91.723 F10800
G1 X62.881 Y92.018
M204 S800
G1 F1200
G1 X63.196 Y91.769 E.01259
G1 X64.049 Y91.193 E.03227
G1 X65.857 Y90.168 E.06516
G1 X67.76 Y89.338 E.0651
G1 X69.72 Y88.714 E.06449
G1 X71.711 Y88.299 E.06377
G1 X72.754 Y88.164 E.03298
G1 X74.766 Y88.061 E.06317
G1 X76.862 Y88.169 E.06581
G1 X78.893 Y88.487 E.06446
G1 X80.879 Y89.013 E.06442
G1 X82.805 Y89.741 E.06456
G1 X84.633 Y90.657 E.06411
G1 X86.359 Y91.756 E.06416
G1 X87.964 Y93.026 E.06417
G1 X89.431 Y94.453 E.06417
G1 X90.808 Y96.125 E.06791
G1 X91.007 Y96.71 E.01937
G1 X91 Y104.363 E.23995
G1 X90.934 Y104.686 E.01034
G1 X83.34 Y117.886 E.47748
G1 X82.786 Y118.356 E.02278
G1 X82.297 Y118.49 E.0159
G1 X67.278 Y118.49 E.47091
G1 X66.958 Y118.425 E.01024
M73 P16 R6
M73 Q16 S6
G1 X66.552 Y118.213 E.01436
G1 X66.236 Y117.89 E.01417
G1 X58.64 Y104.686 E.47762
G1 X58.574 Y104.363 E.01034
G1 X58.594 Y96.539 E.24532
G1 X58.768 Y96.122 E.01417
G1 X59.443 Y95.249 E.0346
G1 X60.84 Y93.738 E.06452
G1 X61.609 Y93.026 E.03286
G1 X62.834 Y92.056 E.04899
M204 S1000
G1 X62.834 Y92.056 F10800
G1 X63.067 Y92.351
M204 S800
G1 F1200
G1 X63.419 Y92.073 E.01406
G1 X64.255 Y91.509 E.03162
G1 X66.03 Y90.503 E.06397
G1 X67.888 Y89.692 E.06356
G1 X69.301 Y89.228 E.04663
G1 X70.762 Y88.855 E.04728
G1 X72.788 Y88.54 E.06429
G1 X75.281 Y88.45 E.07822
G1 X76.818 Y88.543 E.04828
G1 X78.811 Y88.855 E.06325
G1 X80.76 Y89.37 E.06321
G1 X82.649 Y90.085 E.06333
G1 X84.451 Y90.987 E.06318
G1 X86.145 Y92.066 E.06297
G1 X87.719 Y93.312 E.06294
G1 X89.158 Y94.713 E.06297
G1 X90.49 Y96.331 E.06571
G1 X90.63 Y96.74 E.01355
G1 X90.572 Y104.577 E.24573
G1 X83.023 Y117.681 E.47417
G1 X82.607 Y118.022 E.01687
M73 P17 R6
M73 Q17 S6
G1 X82.272 Y118.113 E.01088
G1 X67.299 Y118.113 E.46947
G1 X67.062 Y118.062 E.0076
M73 P17 R5
G1 X66.55 Y117.679 E.02005
G1 X59.002 Y104.577 E.4741
M73 Q17 S5
G1 X58.96 Y96.629 E.24921
G1 X59.082 Y96.333 E.01004
G1 X59.731 Y95.493 E.03328
G1 X61.107 Y94.005 E.06355
G1 X61.862 Y93.306 E.03226
G1 X63.02 Y92.388 E.04633
M204 S1000
G1 X63.02 Y92.388 F10800
G1 X63.238 Y92.695
M204 S800
G1 F1200
G1 X64.462 Y91.824 E.0471
G1 X65.319 Y91.309 E.03135
G1 X67.097 Y90.42 E.06233
G1 X68.931 Y89.729 E.06145
G1 X70.844 Y89.224 E.06204
G1 X72.821 Y88.916 E.06274
G1 X74.776 Y88.815 E.06138
G1 X76.774 Y88.918 E.06273
G1 X78.729 Y89.224 E.06204
G1 X80.64 Y89.728 E.06197
G1 X81.575 Y90.054 E.03105
G1 X83.388 Y90.847 E.06205
G1 X84.261 Y91.313 E.03103
G1 X85.922 Y92.37 E.06173
G1 X87.467 Y93.592 E.06176
G1 X88.884 Y94.973 E.06204
G1 X89.556 Y95.737 E.0319
G1 X90.173 Y96.537 E.03168
G1 X90.252 Y96.771 E.00774
G1 X90.212 Y104.462 E.24115
G1 X82.708 Y117.472 E.47091
M73 P18 R5
M73 Q18 S5
G1 X82.248 Y117.736 E.01663
G1 X67.323 Y117.736 E.46796
G1 X67.002 Y117.607 E.01085
G1 X59.362 Y104.462 E.47671
G1 X59.331 Y96.714 E.24294
G1 X60.018 Y95.737 E.03745
G1 X61.373 Y94.271 E.06259
G1 X62.859 Y92.965 E.06203
G1 X63.19 Y92.73 E.01273
M204 S1000
G1 X63.19 Y92.73 F10800
G1 X63.439 Y93.062
M204 S800
G1 F1200
G1 X64.668 Y92.14 E.04817
G1 X66.367 Y91.178 E.06122
G1 X68.145 Y90.401 E.06084
G1 X70.926 Y89.592 E.09081
