; generated by PrusaSlicer 2.9.0 on 2024-12-28 at 17:49:01 UTC


;
;
; 

; external perimeters extrusion width = 0.45mm
; perimeters extrusion width = 0.45mm
; infill extrusion width = 0.45mm
; solid infill extrusion width = 0.45mm
; top infill extrusion width = 0.40mm
; first layer extrusion width = 0.42mm

M73 P0 R17
M73 Q0 S17
M201 X1000 Y1000 Z200 E8000 ; sets maximum accelerations, mm/sec^2
M203 X200 Y200 Z12 E120 ; sets maximum feedrates, mm / sec
M204 S1250 T1250 ; sets acceleration (S) and retract acceleration (R), mm/sec^2
M205 X8.00 Y8.00 Z0.40 E4.50 ; sets the jerk limits, mm/sec
M205 S0 T0 ; sets the minimum extruding and travel feed rate, mm/sec

; printing object InfillTest v1.stl id:0 copy 0
; stop printing object InfillTest v1.stl id:0 copy 0

;TYPE:Custom
M862.3 P "MK3SMMU3" ; printer model check
M862.1 P0.4 ; nozzle diameter check
M115 U3.14.1 ; tell printer latest fw version
G90 ; use absolute coordinates
M83 ; extruder relative mode
M104 S215 ; set extruder temp
M140 S60 ; set bed temp
M190 S60 ; wait for bed temp
M109 S215 ; wait for extruder temp
G28 W ; home all without mesh bed level
G80 X102.723 Y82.7229 W44.5542 H44.5542 ; mesh bed levelling

; Send the filament type to the MMU unit.
; E stands for extruder number, F stands for filament type (0: default; 1:flex; 2: PVA)
M403 E0 F0
M403 E1 F0
M403 E2 F0
M403 E3 F0
M403 E4 F0


;go outside print area
G1 Y-3 F1000
G1 Z0.4 F1000
; select extruder
T0
; initial load
G1 X55 E29 F1073
G1 X5 E29 F1800
G1 X55 E8 F2000
G1 Z0.3 F1000
G92 E0
G1 X240 E25 F2200
G1 Y-2 F1000
M73 P1 R17
M73 Q1 S17
G1 X55 E25 F1400
G1 Z0.2 F1000
G1 X5 E4 F1000
G92 E0


M221 S95
G92 E0

; Don't change E values below. Excessive value can damage the printer.
M907 E430 ; set extruder motor current
G21 ; set units to millimeters
G90 ; use absolute coordinates
M83 ; use relative distances for extrusion

M900 K0.05 ; Filament gcode LA 1.5
M900 K30 ; Filament gcode LA 1.0




M107
;LAYER_CHANGE
;Z:0.2
;HEIGHT:0.2
G1 E-.8 F2100
M73 P2 R16
M73 Q2 S17
G1 Z.6 F720
G1 X103.552 Y86.54 F10800
G1 Z.2 F720
G1 E.8 F2100
M204 S800
;TYPE:Skirt/Brim
;WIDTH:0.42
G1 F1200
G1 X106.54 Y83.552 E.13249
G1 X108.088 Y82.911 E.05253
G1 X141.912 Y82.911 E1.06053
G1 X143.46 Y83.552 E.05253
G1 X146.448 Y86.54 E.13249
G1 X147.089 Y88.088 E.05253
G1 X147.089 Y121.912 E1.06053
G1 X146.448 Y123.46 E.05253
M73 Q2 S16
G1 X143.46 Y126.448 E.13249
G1 X141.912 Y127.089 E.05253
G1 X108.088 Y127.089 E1.06053
G1 X106.54 Y126.448 E.05253
G1 X103.552 Y123.46 E.13249
G1 X102.911 Y121.912 E.05253
G1 X102.911 Y88.088 E1.06053
G1 X103.53 Y86.595 E.05068
M73 P3 R16
M73 Q3 S16
M204 S1000
;WIPE_START
G1 F8640
G1 X103.552 Y86.54 E-.01368
G1 X105.96 Y84.132 E-.78632
;WIPE_END
G1 Z.6 F720
G1 X105.887 Y88.109 F10800
G1 Z.2 F720
G1 E.8 F2100
M204 S800
G1 F1200
G1 X106.625 Y86.959 E.04284
G1 X107.804 Y85.998 E.04769
G1 X109.754 Y85.386 E.06408
G1 X140.189 Y85.39 E.95427
G1 X141.21 Y85.584 E.03259
G1 X142.188 Y86 E.03332
G1 X143.312 Y86.896 E.04507
G1 X144.205 Y88.234 E.05044
G1 X144.613 Y89.779 E.0501
G1 X144.613 Y120.22 E.95446
G1 X144.233 Y121.705 E.04806
G1 X143.375 Y123.041 E.04978
G1 X142.196 Y124.002 E.04769
G1 X140.246 Y124.613 E.06407
G1 X109.78 Y124.613 E.95524
G1 X108.295 Y124.233 E.04806
G1 X106.959 Y123.375 E.04978
G1 X105.998 Y122.196 E.04769
G1 X105.387 Y120.246 E.06407
G1 X105.387 Y89.78 E.95524
G1 X105.767 Y88.295 E.04806
G1 X105.854 Y88.159 E.00506
M204 S1000
G1 X105.854 Y88.159 F10800
G1 X106.164 Y88.359
M204 S800
G1 F1200
G1 X106.899 Y87.22 E.0425
G1 X107.998 Y86.323 E.04448
G1 X109.783 Y85.764 E.05865
G1 X140.171 Y85.767 E.95279
G1 X141.117 Y85.95 E.03021
M73 P4 R16
M73 Q4 S16
G1 X142.015 Y86.336 E.03065
G1 X143.053 Y87.171 E.04177
G1 X143.849 Y88.362 E.04492
G1 X144.236 Y89.804 E.04681
G1 X144.236 Y120.195 E.95289
G1 X143.876 Y121.58 E.04487
G1 X143.101 Y122.78 E.04479
G1 X142.552 Y123.289 E.02347
G1 X142.002 Y123.677 E.0211
G1 X140.218 Y124.236 E.05862
G1 X109.805 Y124.236 E.95358
G1 X108.42 Y123.876 E.04487
G1 X107.22 Y123.101 E.04479
G1 X106.711 Y122.552 E.02347
G1 X106.323 Y122.002 E.0211
G1 X105.764 Y120.218 E.05862
G1 X105.764 Y89.805 E.95358
G1 X106.124 Y88.42 E.04487
G1 X106.131 Y88.409 E.00041
M204 S1000
G1 X106.131 Y88.409 F10800
G1 X106.458 Y88.597
M204 S800
G1 F1200
G1 X107.173 Y87.48 E.04158
G1 X108.19 Y86.648 E.0412
G1 X109.811 Y86.141 E.05325
G1 X140.152 Y86.144 E.95132
G1 X141.024 Y86.316 E.02787
G1 X141.84 Y86.671 E.0279
G1 X142.793 Y87.445 E.03849
G1 X143.517 Y88.543 E.04124
G1 X143.859 Y89.828 E.04169
G1 X143.859 Y120.172 E.95141
G1 X143.542 Y121.403 E.03986
G1 X142.827 Y122.52 E.04158
G1 X141.81 Y123.352 E.0412
G1 X140.189 Y123.859 E.05325
G1 X109.828 Y123.859 E.95195
G1 X108.597 Y123.542 E.03986
M73 P5 R16
M73 Q5 S16
G1 X107.48 Y122.827 E.04158
G1 X106.648 Y121.81 E.0412
G1 X106.141 Y120.189 E.05325
G1 X106.141 Y89.828 E.95195
G1 X106.443 Y88.656 E.03795
M204 S1000
G1 X106.443 Y88.656 F10800
G1 X106.807 Y88.751
M204 S800
G1 F1200
G1 X106.815 Y88.723 E.00091
G1 X107.446 Y87.74 E.03662
G1 X108.382 Y86.974 E.03792
G1 X109.84 Y86.518 E.0479
G1 X140.133 Y86.521 E.94982
G1 X140.929 Y86.681 E.02546
G1 X141.664 Y87.005 E.02519
G1 X142.53 Y87.717 E.03515
G1 X143.185 Y88.723 E.03764
G1 X143.482 Y89.852 E.0366
G1 X143.482 Y120.147 E.94988
G1 X143.185 Y121.277 E.03663
G1 X142.554 Y122.26 E.03662
G1 X142.059 Y122.718 E.02114
G1 X141.618 Y123.026 E.01687
G1 X140.16 Y123.482 E.0479
G1 X109.853 Y123.482 E.95025
G1 X108.723 Y123.185 E.03663
G1 X107.74 Y122.554 E.03662
G1 X107.282 Y122.059 E.02114
G1 X106.974 Y121.618 E.01687
G1 X106.518 Y120.16 E.0479
G1 X106.518 Y89.853 E.95025
G1 X106.792 Y88.809 E.03384
M204 S1000
G1 X106.792 Y88.809 F10800
G1 X107.149 Y88.902
M204 S800
G1 F1200
G1 X107.149 Y88.899 E.00009
G1 X107.721 Y88 E.03341
G1 X108.573 Y87.3 E.03457
G1 X109.868 Y86.895 E.04254
G1 X140.115 Y86.898 E.94837
G1 X140.796 Y87.035 E.02178
M73 P6 R16
M73 Q6 S16
G1 X141.487 Y87.339 E.02367
G1 X142.267 Y87.988 E.03181
G1 X142.829 Y88.85 E.03226
G1 X143.105 Y89.878 E.03337
G1 X143.105 Y120.123 E.94831
G1 X142.851 Y121.101 E.03168
G1 X142.279 Y122 E.03341
G1 X141.427 Y122.7 E.03457
G1 X140.132 Y123.105 E.04254
G1 X109.877 Y123.105 E.94862
G1 X108.899 Y122.851 E.03168
G1 X108 Y122.279 E.03341
G1 X107.3 Y121.427 E.03457
G1 X106.895 Y120.132 E.04254
G1 X106.895 Y89.877 E.94862
G1 X107.133 Y88.96 E.0297
M204 S1000
G1 X107.133 Y88.96 F10800
G1 X107.497 Y89.057
M204 S800
G1 F1200
G1 X107.506 Y89.025 E.00104
G1 X107.995 Y88.26 E.02847
G1 X108.763 Y87.627 E.03121
G1 X109.897 Y87.272 E.03726
G1 X140.095 Y87.276 E.94684
G1 X140.699 Y87.4 E.01933
G1 X141.308 Y87.672 E.02091
G1 X142.001 Y88.257 E.02844
G1 X142.495 Y89.028 E.02871
G1 X142.728 Y89.902 E.02836
G1 X142.728 Y120.098 E.94677
G1 X142.494 Y120.975 E.02846
G1 X142.005 Y121.74 E.02847
G1 X141.567 Y122.146 E.01873
G1 X141.237 Y122.373 E.01256
G1 X140.103 Y122.728 E.03726
G1 X109.902 Y122.728 E.94693
G1 X109.025 Y122.494 E.02846
M73 P7 R16
M73 Q7 S16
G1 X108.26 Y122.005 E.02847
G1 X107.854 Y121.567 E.01873
G1 X107.627 Y121.237 E.01256
G1 X107.272 Y120.103 E.03726
G1 X107.272 Y89.902 E.94693
G1 X107.482 Y89.115 E.02554
M204 S1000
G1 X107.482 Y89.115 F10800
G1 X107.845 Y89.215
M204 S800
G1 F1200
G1 X107.861 Y89.154 E.00198
G1 X108.268 Y88.521 E.0236
G1 X108.952 Y87.954 E.02786
G1 X109.926 Y87.649 E.032
G1 X140.075 Y87.653 E.9453
G1 X140.599 Y87.764 E.01679
G1 X141.127 Y88.004 E.01819
G1 X141.734 Y88.525 E.02508
G1 X142.139 Y89.156 E.02351
G1 X142.351 Y89.928 E.0251
G1 X142.351 Y120.072 E.94514
G1 X142.139 Y120.846 E.02516
G1 X141.732 Y121.479 E.0236
G1 X141.048 Y122.046 E.02786
G1 X140.074 Y122.351 E.032
G1 X109.928 Y122.351 E.94521
G1 X109.154 Y122.139 E.02516
G1 X108.521 Y121.732 E.0236
G1 X107.954 Y121.048 E.02786
G1 X107.649 Y120.074 E.032
G1 X107.649 Y89.928 E.94521
G1 X107.829 Y89.273 E.0213
M204 S1000
G1 X107.829 Y89.273 F10800
G1 X108.19 Y89.375
M204 S800
G1 F1200
G1 X108.216 Y89.285 E.00294
G1 X108.541 Y88.782 E.01878
G1 X109.14 Y88.282 E.02446
G1 X109.955 Y88.026 E.02678
G1 X140.053 Y88.03 E.9437
G1 X140.497 Y88.127 E.01425
M73 P8 R15
M73 Q8 S16
G1 X140.943 Y88.334 E.01542
G1 X141.466 Y88.791 E.02178
G1 X141.785 Y89.286 E.01846
G1 X141.974 Y89.955 E.0218
G1 X141.974 Y120.045 E.94345
G1 X141.784 Y120.715 E.02184
G1 X141.459 Y121.218 E.01878
G1 X140.86 Y121.718 E.02446
G1 X140.045 Y121.974 E.02678
G1 X109.955 Y121.974 E.94345
G1 X109.285 Y121.784 E.02184
M73 Q8 S15
G1 X108.782 Y121.459 E.01878
G1 X108.282 Y120.86 E.02446
G1 X108.026 Y120.045 E.02678
G1 X108.026 Y89.955 E.94345
G1 X108.174 Y89.433 E.01701
M204 S1000
G1 X108.174 Y89.433 F10800
G1 X108.534 Y89.539
M204 S800
G1 F1200
G1 X108.569 Y89.419 E.00392
G1 X108.814 Y89.043 E.01407
G1 X109.325 Y88.612 E.02096
G1 X109.984 Y88.403 E.02168
G1 X140.031 Y88.407 E.9421
G1 X140.756 Y88.662 E.0241
G1 X141.196 Y89.054 E.01848
G1 X141.431 Y89.42 E.01364
G1 X141.597 Y89.983 E.0184
G1 X141.597 Y120.017 E.94169
G1 X141.431 Y120.581 E.01843
G1 X141.186 Y120.957 E.01407
G1 X140.675 Y121.388 E.02096
G1 X140.016 Y121.597 E.02168
G1 X109.983 Y121.597 E.94166
G1 X109.419 Y121.431 E.01843
M73 P9 R15
G1 X109.043 Y121.186 E.01407
G1 X108.612 Y120.675 E.02096
G1 X108.403 Y120.016 E.02168
G1 X108.403 Y89.983 E.94166
G1 X108.517 Y89.596 E.01265
M73 Q9 S15
M204 S1000
G1 X108.517 Y89.596 F10800
G1 X108.875 Y89.707
M204 S800
G1 F1200
G1 X108.921 Y89.557 E.00492
G1 X109.087 Y89.304 E.00949
G1 X109.507 Y88.943 E.01736
G1 X110.013 Y88.78 E.01667
G1 X140.009 Y88.784 E.9405
G1 X140.568 Y88.991 E.01869
G1 X140.923 Y89.315 E.01507
G1 X141.22 Y90.012 E.02376
G1 X141.22 Y119.988 E.93988
G1 X141.079 Y120.443 E.01494
G1 X140.913 Y120.696 E.00949
G1 X140.493 Y121.057 E.01736
G1 X139.987 Y121.22 E.01667
G1 X110.012 Y121.22 E.93985
G1 X109.557 Y121.079 E.01494
G1 X109.304 Y120.913 E.00949
G1 X108.943 Y120.493 E.01736
G1 X108.78 Y119.987 E.01667
G1 X108.78 Y90.012 E.93985
G1 X108.857 Y89.764 E.00814
M204 S1000
G1 X108.857 Y89.764 F10800
G1 X109.212 Y89.914
M204 S800
G1 F1200
G1 X109.36 Y89.566 E.01186
G1 X109.683 Y89.276 E.01361
G1 X110.044 Y89.157 E.01192
G1 X139.987 Y89.161 E.93884
G1 X140.378 Y89.318 E.01321
G1 X140.647 Y89.573 E.01162
G1 X140.843 Y90.044 E.016
G1 X140.843 Y119.956 E.93787
G1 X140.64 Y120.434 E.01628
M73 P10 R15
M73 Q10 S15
G1 X140.317 Y120.724 E.01361
G1 X139.956 Y120.843 E.01192
G1 X110.044 Y120.843 E.93787
G1 X109.566 Y120.64 E.01628
G1 X109.276 Y120.317 E.01361
G1 X109.157 Y119.956 E.01192
G1 X109.157 Y90.044 E.93787
G1 X109.189 Y89.97 E.00253
M204 S1000
G1 X109.189 Y89.97 F10800
G1 X109.534 Y90.079
M204 S800
G1 F1200
G1 X109.632 Y89.828 E.00845
G1 X109.866 Y89.611 E.01001
G1 X110.079 Y89.534 E.0071
G1 X139.935 Y89.534 E.93611
G1 X140.366 Y89.825 E.01631
G1 X140.466 Y90.079 E.00856
G1 X140.466 Y119.921 E.93567
G1 X140.368 Y120.172 E.00845
G1 X140.134 Y120.389 E.01001
G1 X139.921 Y120.466 E.0071
G1 X110.079 Y120.466 E.93567
G1 X109.828 Y120.368 E.00845
G1 X109.611 Y120.134 E.01001
G1 X109.534 Y119.921 E.0071
G1 X109.534 Y90.139 E.93379
M204 S1000
G1 X109.534 Y90.139 F10800
G1 X109.94 Y90.14
M204 S800
G1 F1200
G1 X109.94 Y90.052 E.00276
G1 X110.121 Y89.911 E.00719
G1 X139.948 Y89.94 E.93521
G1 X140.089 Y90.121 E.00719
M73 P11 R15
M73 Q11 S15
G1 X140.06 Y119.948 E.93521
G1 X139.879 Y120.089 E.00719
G1 X110.052 Y120.06 E.93521
G1 X109.911 Y119.879 E.00719
G1 X109.94 Y90.2 E.93056
M204 S1000
;WIPE_START
G1 F8640
G1 X109.94 Y90.14 E-.01385
G1 X109.94 Y90.052 E-.02032
G1 X110.121 Y89.911 E-.05298
G1 X113.208 Y89.914 E-.71285
;WIPE_END
G1 Z.6 F720
; printing object InfillTest v1.stl id:0 copy 0
G1 X139.213 Y119.213 F10800
G1 Z.2 F720
G1 E.8 F2100
M204 S800
;TYPE:Perimeter
;WIDTH:0.419999
G1 F1200
G1 X110.787 Y119.213 E.89128
G1 X110.787 Y90.787 E.89128
G1 X139.213 Y90.787 E.89128
G1 X139.213 Y105 E.44564
M73 P12 R15
M73 Q12 S15
G1 X139.213 Y119.153 E.44376
M204 S1000
G1 X139.59 Y119.59 F10800
M204 S800
;TYPE:External perimeter
G1 F1200
G1 X110.41 Y119.59 E.91492
G1 X110.41 Y90.41 E.91492
G1 X139.59 Y90.41 E.91492
G1 X139.59 Y105 E.45746
G1 X139.59 Y119.53 E.45558
M204 S1000
;WIPE_START
G1 F8640
G1 X139.59 Y119.59 E-.01385
G1 X136.185 Y119.59 E-.78615
;WIPE_END
G1 Z.6 F720
G1 X138.874 Y118.705 F10800
G1 Z.2 F720
G1 E.8 F2100
M204 S800
;TYPE:Solid infill
;WIDTH:0.42
G1 F1200
G1 X138.707 Y118.874 E.00745
M204 S1000
G1 X138.707 Y118.874 F10800
G1 X138.166 Y118.874
M204 S800
G1 F1200
G1 X138.874 Y118.17 E.03131
M204 S1000
G1 X138.874 Y118.17 F10800
G1 X138.874 Y117.617
M204 S800
G1 F1200
G1 X138.015 Y118.513 E.03892
G1 X137.614 Y118.874 E.01692
M204 S1000
G1 X137.614 Y118.874 F10800
G1 X137.061 Y118.874
M204 S800
G1 F1200
G1 X138.121 Y117.874 E.04569
G1 X138.874 Y117.043 E.03516
M204 S1000
G1 X138.874 Y117.043 F10800
G1 X138.874 Y116.46
M204 S800
G1 F1200
G1 X138.093 Y117.357 E.03729
G1 X137.14 Y118.301 E.04206
G1 X136.468 Y118.874 E.02769
M204 S1000
G1 X136.468 Y118.874 F10800
G1 X135.879 Y118.874
M204 S800
G1 F1200
G1 X137.018 Y117.9 E.04699
G1 X137.951 Y116.956 E.04162
G1 X138.874 Y115.858 E.04497
M204 S1000
G1 X138.874 Y115.858 F10800
G1 X138.874 Y115.218
M204 S800
G1 F1200
G1 X138.557 Y115.657 E.01698
G1 X137.71 Y116.661 E.04119
G1 X136.789 Y117.597 E.04117
G1 X135.8 Y118.461 E.04118
G1 X135.248 Y118.874 E.02162
M204 S1000
G1 X135.248 Y118.874 F10800
G1 X134.612 Y118.874
M204 S800
G1 F1200
G1 X135.484 Y118.231 E.03397
G1 X136.467 Y117.382 E.04073
G1 X137.382 Y116.46 E.04073
G1 X138.224 Y115.471 E.04073
G1 X138.874 Y114.575 E.03471
M204 S1000
G1 X138.874 Y114.575 F10800
G1 X138.874 Y113.88
M204 S800
G1 F1200
G1 X138.585 Y114.34 E.01703
G1 X137.821 Y115.372 E.04026
G1 X136.979 Y116.341 E.04025
G1 X136.063 Y117.242 E.04029
G1 X135.08 Y118.069 E.04028
G1 X133.943 Y118.874 E.04368
M204 S1000
G1 X133.943 Y118.874 F10800
G1 X133.217 Y118.874
M204 S800
G1 F1200
G1 X133.553 Y118.68 E.01216
G1 X134.6 Y117.961 E.03982
G1 X135.587 Y117.162 E.03982
G1 X136.508 Y116.288 E.03981
G1 X137.357 Y115.344 E.03981
G1 X138.129 Y114.336 E.03981
G1 X138.874 Y113.171 E.04336
M204 S1000
G1 X138.874 Y113.171 F10800
M73 P13 R15
G1 X138.874 Y112.392
M204 S800
G1 F1200
G1 X138.327 Y113.355 E.03473
G1 X137.623 Y114.393 E.03933
G1 X136.839 Y115.371 E.0393
G1 X135.979 Y116.285 E.03935
G1 X135.048 Y117.127 E.03936
M73 Q13 S15
G1 X134.054 Y117.892 E.03933
G1 X133.001 Y118.576 E.03937
G1 X132.452 Y118.874 E.01959
M204 S1000
G1 X132.452 Y118.874 F10800
G1 X131.628 Y118.874
M204 S800
G1 F1200
G1 X132.391 Y118.491 E.02677
G1 X133.452 Y117.848 E.0389
G1 X134.456 Y117.121 E.03887
G1 X135.399 Y116.316 E.03888
G1 X136.274 Y115.438 E.03887
G1 X137.074 Y114.492 E.03885
G1 X137.796 Y113.485 E.03885
G1 X138.435 Y112.423 E.03886
G1 X138.874 Y111.539 E.03095
M204 S1000
G1 X138.874 Y111.539 F10800
G1 X138.874 Y110.592
M204 S800
G1 F1200
G1 X138.467 Y111.535 E.0322
G1 X137.892 Y112.616 E.03839
G1 X137.232 Y113.646 E.03836
G1 X136.489 Y114.618 E.03836
G1 X135.669 Y115.527 E.03838
G1 X134.778 Y116.366 E.03837
G1 X133.821 Y117.13 E.0384
G1 X132.805 Y117.813 E.03838
G1 X131.736 Y118.412 E.03842
G1 X130.725 Y118.874 E.03485
M204 S1000
;WIPE_START
G1 F8640
G1 X131.736 Y118.412 E-.25666
G1 X132.805 Y117.813 E-.28294
G1 X133.741 Y117.184 E-.2604
;WIPE_END
G1 Z.6 F720
G1 X129.644 Y118.874 F10800
G1 Z.2 F720
G1 E.8 F2100
M204 S800
G1 F1200
G1 X129.928 Y118.784 E.00934
G1 X131.047 Y118.325 E.03792
G1 X132.125 Y117.776 E.03793
G1 X133.153 Y117.14 E.0379
G1 X134.125 Y116.421 E.03791
G1 X135.034 Y115.624 E.0379
G1 X135.874 Y114.755 E.0379
G1 X136.639 Y113.82 E.03788
G1 X137.325 Y112.825 E.03789
G1 X137.925 Y111.776 E.03789
G1 X138.437 Y110.682 E.03787
G1 X138.874 Y109.486 E.03992
M204 S1000
;WIPE_START
G1 F8640
G1 X138.437 Y110.682 E-.29402
G1 X137.925 Y111.776 E-.2789
G1 X137.436 Y112.629 E-.22708
;WIPE_END
G1 Z.6 F720
G1 X138.874 Y107.974 F10800
G1 Z.2 F720
G1 E.8 F2100
M204 S800
G1 F1200
G1 X138.709 Y108.715 E.0238
G1 X138.354 Y109.853 E.03738
G1 X137.905 Y110.957 E.03737
G1 X137.365 Y112.02 E.03738
G1 X136.737 Y113.034 E.0374
G1 X136.027 Y113.992 E.03739
G1 X135.239 Y114.887 E.03739
G1 X134.379 Y115.714 E.03741
G1 X133.452 Y116.465 E.03741
G1 X132.465 Y117.137 E.03744
