; generated by PrusaSlicer 2.9.0 on 2025-01-23 at 18:38:35 UTC


;
;
; 

; external perimeters extrusion width = 0.60mm
; perimeters extrusion width = 0.50mm
; infill extrusion width = 0.50mm
; solid infill extrusion width = 0.50mm
; top infill extrusion width = 0.45mm
; first layer extrusion width = 0.42mm

M73 P0 R7
M73 Q0 S7
M201 X1000 Y1000 Z200 E5000 ; sets maximum accelerations, mm/sec^2
M203 X200 Y200 Z12 E120 ; sets maximum feedrates, mm / sec
M204 S1250 T1250 ; sets acceleration (S) and retract acceleration (R), mm/sec^2
M205 X8.00 Y8.00 Z0.40 E4.50 ; sets the jerk limits, mm/sec
M205 S0 T0 ; sets the minimum extruding and travel feed rate, mm/sec

; printing object InfillTest.stl id:0 copy 0
; stop printing object InfillTest.stl id:0 copy 0

;TYPE:Custom
M862.3 P "MK3S" ; printer model check
M862.1 P0.4 ; nozzle diameter check
M115 U3.14.1 ; tell printer latest fw version
G90 ; use absolute coordinates
M83 ; extruder relative mode
M104 S215 ; set extruder temp
M140 S60 ; set bed temp
M190 S60 ; wait for bed temp
M109 S215 ; wait for extruder temp
G28 W ; home all without mesh bed level
G80 X155.981 Y84.046 W44.5542 H42.5445 ; mesh bed levelling

G1 Z0.2 F720
G1 Y-3 F1000 ; go outside print area
G92 E0
G1 X60 E9 F1000 ; intro line
G1 X100 E12.5 F1000 ; intro line

G92 E0
M221 S95

; Don't change E values below. Excessive value can damage the printer.

M907 E538 ; set extruder motor current
G21 ; set units to millimeters
G90 ; use absolute coordinates
M83 ; use relative distances for extrusion

M900 K0.05 ; Filament gcode LA 1.5
M900 K30 ; Filament gcode LA 1.0




M107
;LAYER_CHANGE
;Z:0.2
;HEIGHT:0.2
G1 E-.8 F2100
M73 P1 R7
M73 Q1 S7
G1 Z.6 F720
G1 X157.207 Y95.046 F10800
G1 Z.2 F720
G1 E.8 F2100
M204 S800
;TYPE:Skirt/Brim
;WIDTH:0.42
G1 F1200
G1 X159.336 Y92.478 E.10459
G1 X160.308 Y91.488 E.0435
G1 X162.153 Y89.868 E.07698
G1 X163.383 Y88.946 E.0482
G1 X165.422 Y87.649 E.07577
G1 X168.02 Y86.35 E.09107
G1 X170.282 Y85.497 E.0758
G1 X173.091 Y84.757 E.09108
G1 X175.479 Y84.385 E.07578
G1 X178.38 Y84.235 E.09108
G1 X180.981 Y84.378 E.08168
G1 X183.609 Y84.795 E.08343
G1 X186.181 Y85.479 E.08345
G1 X188.668 Y86.424 E.08342
G1 X191.045 Y87.62 E.08343
G1 X193.287 Y89.055 E.08346
M73 Q2 S7
G1 X195.27 Y90.625 E.0793
G1 X197.18 Y92.478 E.08344
G1 X199.309 Y95.046 E.10459
M73 P2 R7
G1 X199.659 Y95.685 E.02284
G1 X200.225 Y97.312 E.05401
G1 X200.346 Y98.031 E.02286
G1 X200.346 Y106.941 E.27937
G1 X200.272 Y107.507 E.0179
G1 X199.924 Y108.804 E.0421
G1 X199.706 Y109.332 E.01791
G1 X191.271 Y123.941 E.52892
G1 X190.47 Y124.742 E.03552
G1 X188.103 Y126.109 E.0857
G1 X187.009 Y126.402 E.03551
G1 X169.507 Y126.402 E.54876
G1 X168.413 Y126.109 E.03551
G1 X166.046 Y124.742 E.0857
G1 X165.245 Y123.941 E.03552
G1 X156.81 Y109.332 E.52892
G1 X156.592 Y108.804 E.01791
G1 X156.244 Y107.507 E.0421
G1 X156.169 Y106.941 E.0179
G1 X156.169 Y98.031 E.27937
G1 X156.291 Y97.312 E.02287
M73 Q3 S7
G1 X156.857 Y95.685 E.05401
G1 X157.178 Y95.099 E.02095
M73 P3 R7
M204 S1000
;WIPE_START
G1 F8640
G1 X157.207 Y95.046 E-.01395
G1 X159.336 Y92.478 E-.77024
G1 X159.384 Y92.429 E-.01581
;WIPE_END
G1 Z.6 F720
G1 X159.42 Y96.263 F10800
G1 Z.2 F720
G1 E.8 F2100
M204 S800
G1 F1200
G1 X160.314 Y95.111 E.04572
G1 X161.908 Y93.384 E.07369
G1 X162.842 Y92.518 E.03994
G1 X164.66 Y91.074 E.0728
G1 X166.739 Y89.747 E.07733
G1 X167.815 Y89.174 E.03822
G1 X170.031 Y88.206 E.07582
G1 X172.371 Y87.464 E.07697
G1 X174.635 Y86.992 E.07251
G1 X175.875 Y86.832 E.0392
G1 X178.843 Y86.723 E.09312
G1 X180.732 Y86.841 E.05934
G1 X183.108 Y87.219 E.07543
G1 X185.43 Y87.838 E.07535
G1 X187.681 Y88.694 E.07551
G1 X189.808 Y89.765 E.07467
G1 X191.826 Y91.053 E.07506
G1 X193.701 Y92.542 E.07507
G1 X195.411 Y94.211 E.07492
G1 X197.136 Y96.315 E.08531
G1 X197.851 Y98.351 E.06766
G1 X197.864 Y106.564 E.25751
G1 X197.69 Y107.624 E.03368
G1 X189.671 Y121.764 E.50968
G1 X188.893 Y122.672 E.03749
G1 X187.942 Y123.355 E.03671
G1 X186.002 Y123.927 E.06342
G1 X170.594 Y123.927 E.48311
G1 X169.581 Y123.762 E.03218
M73 P4 R7
M73 Q4 S7
G1 X168.045 Y123.014 E.05357
G1 X166.873 Y121.812 E.05264
G1 X159.041 Y108.199 E.49243
G1 X158.651 Y106.592 E.05185
G1 X158.655 Y98.563 E.25174
G1 X158.735 Y97.897 E.02103
G1 X159.397 Y96.318 E.05368
M204 S1000
G1 X159.733 Y96.474 F10800
M204 S800
G1 F1200
G1 X160.601 Y95.355 E.0444
G1 X162.175 Y93.65 E.07276
G1 X163.087 Y92.804 E.039
G1 X164.884 Y91.378 E.07193
G1 X166.921 Y90.077 E.07578
G1 X169.078 Y88.999 E.07561
G1 X171.207 Y88.195 E.07135
G1 X172.462 Y87.829 E.04099
G1 X174.698 Y87.364 E.07161
G1 X175.918 Y87.206 E.03857
G1 X178.196 Y87.087 E.07152
G1 X180.687 Y87.215 E.07821
G1 X183.025 Y87.586 E.07422
G1 X185.31 Y88.195 E.07415
G1 X187.525 Y89.037 E.0743
G1 X189.618 Y90.09 E.07346
G1 X191.603 Y91.357 E.07384
G1 X193.449 Y92.822 E.07389
G1 X195.131 Y94.463 E.07368
G1 X196.819 Y96.522 E.08348
G1 X197.474 Y98.383 E.06186
G1 X197.487 Y106.549 E.25604
G1 X197.324 Y107.529 E.03115
M73 Q5 S7
G1 X189.352 Y121.563 E.50606
G1 X188.654 Y122.38 E.03369
M73 P5 R7
G1 X187.749 Y123.03 E.03494
G1 X185.975 Y123.55 E.05796
G1 X170.61 Y123.55 E.48176
G1 X169.669 Y123.395 E.0299
G1 X168.291 Y122.726 E.04803
G1 X167.188 Y121.603 E.04935
G1 X159.382 Y108.034 E.49082
G1 X159.028 Y106.57 E.04723
G1 X159.032 Y98.575 E.25068
G1 X159.106 Y97.969 E.01914
G1 X159.71 Y96.53 E.04893
M204 S1000
G1 X159.71 Y96.53 F10800
G1 X160.046 Y96.686
M204 S800
G1 F1200
G1 X160.889 Y95.6 E.04311
G1 X162.442 Y93.916 E.07183
G1 X163.333 Y93.09 E.03809
G1 X165.107 Y91.682 E.07101
G1 X167.103 Y90.407 E.07426
G1 X169.224 Y89.347 E.07435
G1 X171.326 Y88.553 E.07045
G1 X172.553 Y88.195 E.04008
G1 X174.761 Y87.736 E.07071
G1 X175.961 Y87.581 E.03794
G1 X178.826 Y87.477 E.08989
G1 X180.642 Y87.59 E.05705
M73 Q6 S7
G1 X182.942 Y87.954 E.07301
G1 X185.189 Y88.553 E.07291
G1 X187.368 Y89.381 E.07309
M73 P6 R7
G1 X189.428 Y90.416 E.07228
G1 X191.38 Y91.662 E.07261
G1 X193.196 Y93.101 E.07265
G1 X194.85 Y94.715 E.07246
G1 X196.501 Y96.727 E.08161
G1 X197.107 Y98.476 E.05804
G1 X197.11 Y106.533 E.25262
G1 X196.958 Y107.433 E.02862
G1 X189.033 Y121.36 E.50242
G1 X188.384 Y122.116 E.03124
G1 X187.556 Y122.704 E.03184
G1 X185.949 Y123.173 E.05249
G1 X170.626 Y123.173 E.48044
G1 X169.759 Y123.027 E.02757
G1 X168.487 Y122.402 E.04444
G1 X167.503 Y121.395 E.04415
G1 X159.722 Y107.87 E.48924
G1 X159.405 Y106.548 E.04263
G1 X159.409 Y98.587 E.24961
G1 X159.477 Y98.041 E.01725
M73 Q7 S7
G1 X160.023 Y96.741 E.04421
M204 S1000
G1 X160.023 Y96.741 F10800
G1 X160.359 Y96.897
M204 S800
G1 F1200
G1 X161.176 Y95.844 E.04179
G1 X162.71 Y94.182 E.07091
G1 X163.578 Y93.376 E.03714
M73 P7 R7
G1 X165.33 Y91.986 E.07012
G1 X167.285 Y90.738 E.07272
G1 X169.371 Y89.694 E.07314
G1 X171.446 Y88.91 E.06955
G1 X172.644 Y88.561 E.03912
G1 X174.824 Y88.108 E.06981
G1 X176.005 Y87.955 E.03734
G1 X178.206 Y87.841 E.0691
G1 X180.598 Y87.964 E.0751
G1 X182.859 Y88.322 E.07178
G1 X185.069 Y88.91 E.0717
G1 X187.212 Y89.724 E.07188
G1 X189.237 Y90.741 E.07105
G1 X191.158 Y91.966 E.07144
G1 X192.943 Y93.381 E.07142
G1 X194.57 Y94.967 E.07124
G1 X196.184 Y96.933 E.07975
G1 X196.74 Y98.568 E.05415
G1 X196.733 Y106.516 E.2492
G1 X196.592 Y107.336 E.02609
G1 X188.715 Y121.157 E.49879
G1 X188.114 Y121.851 E.02879
G1 X187.366 Y122.378 E.02869
G1 X185.922 Y122.796 E.04713
G1 X170.642 Y122.796 E.47909
G1 X169.849 Y122.66 E.02523
G1 X168.733 Y122.115 E.03894
G1 X167.817 Y121.185 E.04093
G1 X160.063 Y107.706 E.48756
G1 X159.783 Y106.526 E.03803
M73 P8 R7
M73 Q8 S7
G1 X159.786 Y98.599 E.24855
G1 X159.847 Y98.114 E.01533
G1 X160.336 Y96.953 E.0395
M204 S1000
G1 X160.336 Y96.953 F10800
G1 X160.673 Y97.109
M204 S800
G1 F1200
G1 X161.463 Y96.088 E.04048
G1 X162.977 Y94.449 E.06996
G1 X163.824 Y93.663 E.03623
G1 X165.553 Y92.29 E.06923
G1 X167.466 Y91.068 E.07117
G1 X169.517 Y90.042 E.07191
G1 X171.565 Y89.268 E.06865
G1 X172.736 Y88.927 E.03824
G1 X174.887 Y88.479 E.06889
G1 X176.048 Y88.33 E.0367
G1 X178.808 Y88.231 E.08659
G1 X180.554 Y88.339 E.05485
G1 X182.777 Y88.69 E.07056
G1 X184.949 Y89.268 E.07047
G1 X187.056 Y90.067 E.07065
G1 X189.047 Y91.067 E.06986
G1 X190.935 Y92.27 E.07019
G1 X192.691 Y93.661 E.07024
G1 X194.289 Y95.219 E.06998
G1 X195.866 Y97.139 E.0779
G1 X196.363 Y98.598 E.04833
G1 X196.356 Y106.499 E.24773
G1 X196.226 Y107.239 E.02356
G1 X188.397 Y120.953 E.49513
G1 X187.846 Y121.585 E.02629
G1 X187.177 Y122.05 E.02555
G1 X185.896 Y122.419 E.0418
M73 Q9 S7
G1 X170.659 Y122.419 E.47775
G1 X169.942 Y122.294 E.02282
M73 P9 R7
G1 X168.929 Y121.791 E.03546
G1 X168.133 Y120.977 E.0357
G1 X160.403 Y107.542 E.48599
G1 X160.16 Y106.504 E.03343
G1 X160.163 Y98.612 E.24745
G1 X160.218 Y98.188 E.01341
G1 X160.649 Y97.164 E.03483
M204 S1000
G1 X160.649 Y97.164 F10800
G1 X160.986 Y97.32
M204 S800
G1 F1200
G1 X161.751 Y96.332 E.03918
G1 X163.244 Y94.715 E.06901
G1 X164.07 Y93.949 E.03532
G1 X165.776 Y92.594 E.06831
G1 X167.648 Y91.398 E.06965
G1 X169.663 Y90.39 E.07064
G1 X171.685 Y89.625 E.06778
G1 X172.826 Y89.293 E.03726
G1 X174.95 Y88.851 E.06802
G1 X176.091 Y88.705 E.03607
G1 X178.217 Y88.595 E.06675
G1 X180.509 Y88.713 E.07196
G1 X182.694 Y89.058 E.06936
G1 X184.829 Y89.625 E.06926
G1 X186.9 Y90.41 E.06944
G1 X188.865 Y91.397 E.06895
G1 X190.712 Y92.575 E.06869
G1 X192.438 Y93.942 E.06903
G1 X194.009 Y95.472 E.06876
G1 X195.549 Y97.345 E.07603
G1 X195.986 Y98.629 E.04253
G1 X195.979 Y106.481 E.24619
G1 X195.861 Y107.14 E.02099
M73 Q10 S7
G1 X188.079 Y120.75 E.49156
G1 X187.611 Y121.289 E.02238
M73 P10 R7
G1 X186.987 Y121.723 E.02383
G1 X185.87 Y122.042 E.03642
G1 X170.676 Y122.042 E.4764
G1 X170.036 Y121.928 E.02038
G1 X169.128 Y121.47 E.03189
G1 X168.448 Y120.769 E.03062
G1 X160.744 Y107.378 E.48439
G1 X160.537 Y106.483 E.0288
G1 X160.588 Y98.263 E.25774
G1 X160.963 Y97.376 E.03019
M204 S1000
G1 X160.963 Y97.376 F10800
G1 X161.299 Y97.532
M204 S800
G1 F1200
G1 X162.045 Y96.568 E.03822
G1 X163.51 Y94.981 E.06772
G1 X164.322 Y94.229 E.0347
G1 X165.999 Y92.899 E.06711
G1 X166.899 Y92.29 E.03407
G1 X168.809 Y91.206 E.06886
G1 X170.846 Y90.317 E.06969
G1 X172.35 Y89.822 E.04965
G1 X173.906 Y89.426 E.05034
G1 X176.124 Y89.08 E.07038
G1 X178.79 Y88.985 E.08364
G1 X180.465 Y89.088 E.05262
G1 X182.612 Y89.426 E.06815
G1 X184.709 Y89.983 E.06803
G1 X186.744 Y90.754 E.06823
G1 X188.674 Y91.722 E.0677
G1 X190.49 Y92.879 E.06751
M73 Q11 S7
G1 X192.186 Y94.222 E.06783
G1 X193.729 Y95.724 E.06752
G1 X195.231 Y97.55 E.07413
M73 P11 R7
G1 X195.609 Y98.66 E.03677
G1 X195.602 Y106.464 E.24469
M73 P11 R6
G1 X195.496 Y107.04 E.01836
M73 Q11 S6
G1 X187.761 Y120.546 E.488
G1 X187.344 Y121.022 E.01984
G1 X186.8 Y121.394 E.02066
G1 X185.844 Y121.664 E.03115
G1 X170.693 Y121.664 E.47505
G1 X170.13 Y121.562 E.01794
G1 X169.375 Y121.183 E.02649
G1 X168.762 Y120.559 E.02743
G1 X161.085 Y107.214 E.48272
G1 X160.914 Y106.463 E.02415
G1 X160.958 Y98.34 E.25469
G1 X161.276 Y97.587 E.02563
M204 S1000
G1 X161.276 Y97.587 F10800
G1 X161.612 Y97.743
M204 S800
G1 F1200
G1 X162.34 Y96.803 E.03728
G1 X163.777 Y95.248 E.06639
G1 X164.575 Y94.509 E.0341
G1 X166.222 Y93.203 E.06591
G1 X168.029 Y92.049 E.06723
G1 X169.965 Y91.081 E.06787
G1 X171.924 Y90.341 E.06566
G1 X173.009 Y90.025 E.03543
G1 X175.067 Y89.596 E.06591
G1 X176.158 Y89.456 E.03449
M73 Q12 S6
G1 X178.227 Y89.349 E.06496
G1 X180.421 Y89.462 E.06888
M73 P12 R6
G1 X182.529 Y89.794 E.06691
G1 X184.59 Y90.34 E.06685
G1 X186.588 Y91.097 E.06699
G1 X188.484 Y92.048 E.06651
G1 X190.268 Y93.184 E.06631
G1 X191.933 Y94.502 E.06658
G1 X193.449 Y95.977 E.06632
G1 X194.914 Y97.756 E.07226
G1 X195.232 Y98.691 E.03097
G1 X195.225 Y106.445 E.24312
G1 X195.132 Y106.938 E.01573
G1 X187.444 Y120.341 E.48447
G1 X187.079 Y120.753 E.01726
G1 X186.616 Y121.064 E.01749
G1 X185.818 Y121.287 E.02598
G1 X170.711 Y121.287 E.47367
G1 X170.228 Y121.196 E.01541
G1 X169.575 Y120.862 E.023
G1 X169.078 Y120.351 E.02235
G1 X161.427 Y107.052 E.48106
G1 X161.291 Y106.443 E.01957
G1 X161.328 Y98.418 E.25162
G1 X161.589 Y97.798 E.02109
M204 S1000
G1 X161.589 Y97.798 F10800
G1 X161.926 Y97.954
M204 S800
G1 F1200
G1 X162.627 Y97.048 E.03592
G1 X164.044 Y95.514 E.06548
M73 Q13 S6
G1 X164.828 Y94.788 E.0335
G1 X166.444 Y93.507 E.06466
G1 X167.313 Y92.921 E.03286
M73 P13 R6
G1 X169.156 Y91.876 E.06643
G1 X171.103 Y91.026 E.06661
G1 X172.561 Y90.546 E.04813
G1 X174.07 Y90.162 E.04882
G1 X176.191 Y89.832 E.0673
G1 X178.771 Y89.739 E.08095
G1 X180.377 Y89.837 E.05045
G1 X182.447 Y90.162 E.0657
G1 X184.47 Y90.698 E.06562
G1 X186.432 Y91.44 E.06577
G1 X188.294 Y92.374 E.06531
G1 X190.053 Y93.494 E.06538
G1 X191.688 Y94.788 E.06538
G1 X193.176 Y96.236 E.0651
G1 X194.596 Y97.962 E.07008
G1 X194.855 Y98.722 E.02518
G1 X194.848 Y106.426 E.24155
G1 X194.768 Y106.835 E.01307
G1 X187.127 Y120.136 E.48096
G1 X186.816 Y120.482 E.01459
G1 X186.435 Y120.732 E.01429
G1 X185.793 Y120.91 E.02089
G1 X170.73 Y120.91 E.47229
G1 X170.326 Y120.832 E.0129
G1 X169.821 Y120.575 E.01777
G1 X169.392 Y120.141 E.01913
G1 X161.768 Y106.89 E.47934
G1 X161.668 Y106.423 E.01497
M73 Q14 S6
G1 X161.697 Y98.498 E.24848
G1 X161.902 Y98.01 E.0166
M73 P14 R6
M204 S1000
G1 X161.902 Y98.01 F10800
G1 X162.239 Y98.165
M204 S800
G1 F1200
G1 X162.914 Y97.292 E.0346
G1 X164.311 Y95.781 E.06452
G1 X165.08 Y95.068 E.03288
G1 X166.667 Y93.811 E.06348
G1 X167.52 Y93.236 E.03225
G1 X169.329 Y92.211 E.06519
G1 X171.231 Y91.381 E.06507
G1 X173.191 Y90.757 E.06449
G1 X175.183 Y90.342 E.0638
G1 X176.225 Y90.207 E.03294
G1 X178.237 Y90.103 E.06317
G1 X180.333 Y90.211 E.06581
G1 X182.365 Y90.53 E.06449
G1 X184.35 Y91.055 E.06438
G1 X186.276 Y91.784 E.06457
G1 X188.104 Y92.699 E.06409
G1 X189.831 Y93.798 E.06418
G1 X191.436 Y95.068 E.06417
G1 X192.902 Y96.496 E.06417
G1 X194.279 Y98.168 E.06791
G1 X194.478 Y98.752 E.01934
G1 X194.471 Y106.406 E.23999
G1 X194.405 Y106.729 E.01034
G1 X186.811 Y119.929 E.47748
G1 X186.257 Y120.398 E.02276
G1 X185.768 Y120.533 E.01591
G1 X170.75 Y120.533 E.47088
G1 X170.429 Y120.468 E.01027
G1 X170.023 Y120.255 E.01438
G1 X169.707 Y119.933 E.01415
G1 X162.111 Y106.729 E.47762
G1 X162.045 Y106.405 E.01037
M73 P15 R6
M73 Q15 S6
G1 X162.065 Y98.582 E.24529
G1 X162.216 Y98.221 E.01227
M204 S1000
G1 X162.216 Y98.221 F10800
G1 X162.553 Y98.375
M204 S800
G1 F1200
G1 X163.202 Y97.536 E.03326
G1 X164.578 Y96.047 E.06357
G1 X165.333 Y95.349 E.03224
G1 X166.89 Y94.116 E.06227
G1 X167.726 Y93.552 E.03162
G1 X169.502 Y92.546 E.064
G1 X171.36 Y91.735 E.06356
G1 X172.773 Y91.27 E.04664
G1 X174.234 Y90.898 E.04727
G1 X176.259 Y90.583 E.06426
G1 X178.753 Y90.493 E.07825
G1 X180.289 Y90.586 E.04825
G1 X182.282 Y90.898 E.06325
G1 X184.231 Y91.413 E.06321
G1 X186.121 Y92.127 E.06335
G1 X187.922 Y93.03 E.06317
G1 X189.616 Y94.108 E.06296
G1 X191.19 Y95.355 E.06296
G1 X192.629 Y96.756 E.06297
G1 X193.961 Y98.374 E.06571
G1 X194.101 Y98.783 E.01355
G1 X194.043 Y106.62 E.24573
G1 X186.494 Y119.724 E.47417
G1 X186.078 Y120.065 E.01687
G1 X185.743 Y120.156 E.01088
G1 X170.771 Y120.156 E.46944
G1 X170.534 Y120.105 E.0076
G1 X170.021 Y119.722 E.02007
M73 Q16 S6
G1 X162.473 Y106.62 E.4741
G1 X162.431 Y98.671 E.24924
M73 P16 R6
G1 X162.53 Y98.431 E.00814
M204 S1000
G1 X162.53 Y98.431 F10800
G1 X162.866 Y98.667
M204 S800
G1 F1200
G1 X163.489 Y97.78 E.03399
G1 X164.844 Y96.314 E.06259
G1 X166.331 Y95.007 E.06207
G1 X167.933 Y93.867 E.06165
G1 X168.79 Y93.352 E.03135
G1 X170.569 Y92.463 E.06236
G1 X172.402 Y91.772 E.06142
G1 X174.315 Y91.266 E.06204
G1 X176.293 Y90.958 E.06277
G1 X178.247 Y90.858 E.06135
G1 X180.245 Y90.961 E.06273
G1 X182.2 Y91.266 E.06204
G1 X184.111 Y91.771 E.06197
G1 X185.046 Y92.096 E.03104
G1 X186.859 Y92.89 E.06206
G1 X187.732 Y93.356 E.03103
G1 X189.393 Y94.413 E.06173
G1 X190.938 Y95.635 E.06176
G1 X192.355 Y97.016 E.06204
G1 X193.027 Y97.78 E.0319
G1 X193.644 Y98.579 E.03165
G1 X193.724 Y98.814 E.00778
G1 X193.683 Y106.505 E.24115
G1 X186.179 Y119.515 E.47091
G1 X185.719 Y119.779 E.01663
G1 X170.794 Y119.779 E.46796
G1 X170.473 Y119.65 E.01085
M73 Q17 S6
G1 X162.833 Y106.505 E.47671
M73 P17 R6
G1 X162.802 Y98.757 E.24294
G1 X162.831 Y98.716 E.00157
M204 S1000
