; generated by PrusaSlicer 2.9.0 on 2025-01-25 at 19:30:24 UTC


;
;
; 

; external perimeters extrusion width = 0.60mm
; perimeters extrusion width = 0.50mm
; infill extrusion width = 0.50mm
; solid infill extrusion width = 0.50mm
; top infill extrusion width = 0.45mm
; first layer extrusion width = 0.42mm

M73 P0 R66
M73 Q0 S66
M201 X1000 Y1000 Z200 E5000 ; sets maximum accelerations, mm/sec^2
M203 X200 Y200 Z12 E120 ; sets maximum feedrates, mm / sec
M204 S1250 T1250 ; sets acceleration (S) and retract acceleration (R), mm/sec^2
M205 X8.00 Y8.00 Z0.40 E4.50 ; sets the jerk limits, mm/sec
M205 S0 T0 ; sets the minimum extruding and travel feed rate, mm/sec

; printing object Ultimate fidget tighter tolerances.STL id:0 copy 0
; stop printing object Ultimate fidget tighter tolerances.STL id:0 copy 0

;TYPE:Custom
M862.3 P "MK3S" ; printer model check
M862.1 P0.4 ; nozzle diameter check
M115 U3.14.1 ; tell printer latest fw version
G90 ; use absolute coordinates
M83 ; extruder relative mode
M104 S215 ; set extruder temp
M140 S60 ; set bed temp
M190 S60 ; wait for bed temp
M109 S215 ; wait for extruder temp
G28 W ; home all without mesh bed level
G80 X66.4357 Y50.1203 W51.7676 H100.948 ; mesh bed levelling

G1 Z0.2 F720
G1 Y-3 F1000 ; go outside print area
G92 E0
G1 X60 E9 F1000 ; intro line
G1 X100 E12.5 F1000 ; intro line

G92 E0
M221 S95

; Don't change E values below. Excessive value can damage the printer.

M907 E538 ; set extruder motor current
G21 ; set units to millimeters
G90 ; use absolute coordinates
M83 ; use relative distances for extrusion

M900 K0.05 ; Filament gcode LA 1.5
M900 K30 ; Filament gcode LA 1.0




M107
;LAYER_CHANGE
;Z:0.2
;HEIGHT:0.2
G1 E-.8 F2100
G1 Z.6 F720
G1 X72.584 Y59.582 F10800
G1 Z.2 F720
G1 E.8 F2100
M204 S800
;TYPE:Skirt/Brim
;WIDTH:0.42
G1 F1200
G1 X73.111 Y58.939 E.02607
G1 X74.776 Y57.232 E.07477
G1 X76.672 Y55.622 E.07799
G1 X78.63 Y54.259 E.0748
G1 X80.706 Y53.083 E.07481
G1 X82.881 Y52.105 E.07477
G1 X85.139 Y51.332 E.07483
G1 X87.69 Y50.729 E.08219
G1 X90.054 Y50.409 E.0748
G1 X92.54 Y50.311 E.07801
G1 X94.585 Y50.409 E.06419
G1 X96.848 Y50.713 E.07159
G1 X99.597 Y51.363 E.08857
G1 X101.758 Y52.105 E.07164
G1 X103.722 Y52.977 E.06738
G1 X105.808 Y54.134 E.07479
G1 X107.696 Y55.419 E.07161
G1 X109.863 Y57.232 E.08859
G1 X111.462 Y58.862 E.07159
G1 X112.827 Y60.522 E.06738
G1 X114.175 Y62.491 E.07482
G1 X115.287 Y64.485 E.07159
G1 X116.413 Y67.076 E.08858
G1 X117.112 Y69.251 E.07163
G1 X117.631 Y71.579 E.07478
G1 X117.913 Y73.71 E.0674
G1 X118.013 Y75.988 E.07149
G1 X117.614 Y125.864 E1.56388
G1 X117.469 Y128.32 E.07714
G1 X117.1 Y130.686 E.07508
G1 X116.508 Y133.006 E.07507
G1 X115.7 Y135.261 E.07511
G1 X114.682 Y137.429 E.0751
G1 X113.463 Y139.49 E.07508
G1 X112.055 Y141.428 E.07511
G1 X110.397 Y143.296 E.07831
G1 X108.723 Y144.861 E.07185
G1 X106.828 Y146.326 E.0751
G1 X104.804 Y147.605 E.07507
G1 X102.107 Y148.912 E.09397
G1 X100.438 Y149.562 E.05616
M73 P0 R65
G1 X98.471 Y150.139 E.06427
G1 X96.123 Y150.611 E.07509
G1 X93.638 Y150.866 E.07832
G1 X91.346 Y150.88 E.07187
G1 X88.516 Y150.611 E.08913
G1 X86.269 Y150.166 E.07182
G1 X83.973 Y149.483 E.07511
G1 X81.972 Y148.687 E.06752
G1 X79.927 Y147.654 E.07184
G1 X77.53 Y146.124 E.08916
G1 X75.916 Y144.861 E.06426
G1 X74.242 Y143.296 E.07185
G1 X72.371 Y141.156 E.08913
G1 X71.044 Y139.288 E.07184
G1 X69.957 Y137.429 E.06752
G1 X68.939 Y135.261 E.0751
G1 X68.163 Y133.105 E.07185
G1 X67.474 Y130.347 E.08913
G1 X67.145 Y128.079 E.07186
G1 X67.026 Y125.916 E.06792
G1 X66.624 Y76.106 E1.56181
G1 X66.726 Y73.71 E.07519
G1 X67.05 Y71.346 E.07481
G1 X67.59 Y69.023 E.07478
G1 X68.383 Y66.665 E.078
G1 X69.305 Y64.576 E.0716
G1 X70.519 Y62.405 E.07799
G1 X71.812 Y60.522 E.07162
G1 X72.545 Y59.628 E.03625
M204 S1000
;WIPE_START
G1 F8640
G1 X72.584 Y59.582 E-.01393
G1 X73.111 Y58.939 E-.19197
G1 X74.776 Y57.232 E-.5506
G1 X74.92 Y57.11 E-.0435
;WIPE_END
G1 Z.6 F720
G1 X74.467 Y61.194 F10800
G1 Z.2 F720
G1 E.8 F2100
M204 S800
G1 F1200
G1 X75.024 Y60.511 E.02763
G1 X76.519 Y58.989 E.06689
G1 X78.223 Y57.553 E.06987
G1 X80.045 Y56.293 E.06946
G1 X81.983 Y55.211 E.06959
G1 X84.009 Y54.322 E.06937
G1 X86.052 Y53.646 E.06747
G1 X88.157 Y53.16 E.06774
G1 X90.284 Y52.873 E.06729
G1 X92.894 Y52.805 E.08186
G1 X94.601 Y52.897 E.0536
G1 X96.729 Y53.207 E.06743
G1 X98.711 Y53.681 E.0639
G1 X100.636 Y54.324 E.06364
G1 X102.831 Y55.299 E.07531
G1 X104.708 Y56.365 E.06768
G1 X106.474 Y57.597 E.06751
G1 X108.075 Y58.947 E.06566
G1 X109.55 Y60.439 E.06578
G1 X110.874 Y62.044 E.06524
G1 X112.059 Y63.776 E.0658
G1 X113.107 Y65.658 E.06754
G1 X113.978 Y67.632 E.06765
G1 X114.683 Y69.755 E.07014
G1 X115.159 Y71.817 E.06635
G1 X115.445 Y73.912 E.0663
G1 X115.521 Y77.541 E.11381
G1 X113.482 Y85.256 E.2502
G1 X112.818 Y88.58 E.10628
G1 X112.312 Y91.933 E.10632
G1 X111.965 Y95.305 E.10629
G1 X111.778 Y98.69 E.1063
G1 X111.751 Y102.08 E.10629
G1 X111.883 Y105.468 E.10631
G1 X112.176 Y108.845 E.10628
G1 X112.628 Y112.206 E.10633
G1 X113.238 Y115.541 E.1063
G1 X114.005 Y118.845 E.10635
G1 X115.055 Y122.578 E.12159
G1 X115.14 Y125.786 E.10062
G1 X115.018 Y127.955 E.06811
G1 X114.69 Y130.11 E.06835
G1 X114.159 Y132.224 E.06834
G1 X113.427 Y134.277 E.06834
G1 X112.503 Y136.252 E.06837
G1 X111.395 Y138.129 E.06834
G1 X110.113 Y139.892 E.06835
G1 X108.679 Y141.515 E.06791
G1 X107.1 Y142.991 E.06777
G1 X105.39 Y144.31 E.06771
G1 X103.571 Y145.458 E.06744
G1 X101.19 Y146.613 E.08297
G1 X99.631 Y147.222 E.05248
G1 X97.79 Y147.759 E.06013
G1 X95.68 Y148.176 E.06744
G1 X93.531 Y148.392 E.06772
G1 X91.367 Y148.405 E.06785
G1 X88.964 Y148.177 E.07568
G1 X86.903 Y147.772 E.06586
G1 X84.887 Y147.18 E.06588
G1 X82.933 Y146.405 E.06591
G1 X81.067 Y145.457 E.06562
G1 X79.039 Y144.162 E.07544
G1 X77.389 Y142.863 E.06584
G1 X75.865 Y141.416 E.06589
G1 X74.48 Y139.836 E.06588
G1 X73.254 Y138.146 E.06546
G1 X72.036 Y136.061 E.07571
G1 X71.151 Y134.127 E.06669
G1 X70.451 Y132.125 E.0665
G1 X69.952 Y130.127 E.06457
G1 X69.633 Y128.071 E.06524
G1 X69.5 Y125.831 E.07036
G1 X69.486 Y123.293 E.07958
G1 X71.401 Y115.54 E.2504
G1 X72.011 Y112.206 E.10627
G1 X72.463 Y108.845 E.10633
G1 X72.756 Y105.468 E.10628
G1 X72.888 Y102.08 E.10631
G1 X72.861 Y98.69 E.10629
G1 X72.639 Y94.965 E.117
G1 X72.327 Y91.933 E.09557
G1 X71.821 Y88.581 E.10629
G1 X71.157 Y85.256 E.10631
G1 X70.337 Y81.964 E.10637
G1 X69.231 Y78.262 E.12114
G1 X69.1 Y76.054 E.06935
G1 X69.193 Y73.915 E.06713
G1 X69.487 Y71.779 E.0676
G1 X69.977 Y69.68 E.06758
G1 X70.662 Y67.631 E.06774
G1 X71.527 Y65.666 E.06732
G1 X72.51 Y63.889 E.06367
G1 X73.65 Y62.198 E.06394
G1 X74.43 Y61.241 E.03871
M204 S1000
G1 X74.43 Y61.241 F10800
G1 X74.722 Y61.479
M204 S800
G1 F1200
G1 X75.311 Y60.756 E.02924
G1 X76.781 Y59.26 E.06576
G1 X78.445 Y57.858 E.06822
G1 X80.237 Y56.618 E.06833
G1 X82.143 Y55.553 E.06846
G1 X84.136 Y54.677 E.06826
G1 X86.145 Y54.011 E.06636
G1 X88.216 Y53.533 E.06664
G1 X90.31 Y53.25 E.06625
G1 X92.204 Y53.162 E.05945
G1 X94.556 Y53.271 E.07382
G1 X96.65 Y53.575 E.06634
G1 X98.6 Y54.041 E.06286
G1 X100.508 Y54.679 E.06308
G1 X102.653 Y55.632 E.07359
G1 X104.5 Y56.68 E.06658
G1 X106.238 Y57.891 E.06642
G1 X107.813 Y59.219 E.06459
G1 X109.265 Y60.686 E.06472
G1 X110.578 Y62.277 E.06468
G1 X111.743 Y63.982 E.06475
G1 X112.773 Y65.833 E.06642
G1 X113.629 Y67.775 E.06654
G1 X114.322 Y69.865 E.06904
G1 X114.79 Y71.893 E.06526
G1 X115.07 Y73.954 E.06521
G1 X115.144 Y77.512 E.11158
G1 X113.944 Y81.844 E.14094
G1 X113.114 Y85.173 E.10757
G1 X112.447 Y88.515 E.10685
G1 X111.938 Y91.885 E.10686
G1 X111.589 Y95.275 E.10685
G1 X111.401 Y98.678 E.10686
G1 X111.374 Y102.086 E.10686
G1 X111.507 Y105.492 E.10687
G1 X111.801 Y108.887 E.10685
G1 X112.255 Y112.265 E.10687
G1 X112.868 Y115.617 E.10684
G1 X113.64 Y118.939 E.10693
G1 X114.685 Y122.657 E.12109
G1 X114.763 Y125.773 E.09773
G1 X114.644 Y127.907 E.06701
G1 X114.323 Y130.027 E.06723
G1 X113.8 Y132.106 E.06722
G1 X113.082 Y134.126 E.06722
G1 X112.174 Y136.068 E.06722
G1 X111.085 Y137.915 E.06723
G1 X109.825 Y139.649 E.06721
G1 X108.414 Y141.246 E.06682
G1 X106.863 Y142.698 E.06662
G1 X105.181 Y143.996 E.06662
G1 X103.392 Y145.126 E.06635
G1 X101.051 Y146.263 E.0816
G1 X99.517 Y146.862 E.05163
G1 X97.693 Y147.395 E.05958
G1 X95.616 Y147.804 E.06637
G1 X93.502 Y148.016 E.06662
G1 X91.375 Y148.028 E.06669
G1 X89.027 Y147.805 E.07395
M73 P1 R65
G1 X87.001 Y147.408 E.06473
M73 Q1 S66
G1 X85.018 Y146.826 E.0648
G1 X83.096 Y146.064 E.06483
G1 X81.246 Y145.125 E.06505
G1 X79.265 Y143.86 E.0737
G1 X77.642 Y142.583 E.06475
G1 X76.143 Y141.161 E.06478
G1 X74.781 Y139.607 E.06479
G1 X73.565 Y137.932 E.0649
G1 X72.375 Y135.896 E.07394
G1 X71.504 Y133.994 E.06559
G1 X70.809 Y132.008 E.06597
G1 X70.32 Y130.044 E.06346
G1 X70.007 Y128.022 E.06415
G1 X69.877 Y125.823 E.06907
G1 X69.864 Y123.316 E.07861
G1 X70.995 Y118.959 E.14114
G1 X71.771 Y115.617 E.10757
G1 X72.384 Y112.265 E.10684
G1 X72.838 Y108.887 E.10687
G1 X73.132 Y105.492 E.10685
G1 X73.265 Y102.086 E.10687
G1 X73.238 Y98.678 E.10686
G1 X73.014 Y94.926 E.11785
G1 X72.701 Y91.885 E.09585
M73 Q1 S65
G1 X72.192 Y88.516 E.10683
G1 X71.525 Y85.173 E.10688
G1 X70.7 Y81.864 E.10693
G1 X69.598 Y78.175 E.12072
G1 X69.477 Y76.061 E.06639
G1 X69.568 Y73.957 E.06603
G1 X69.856 Y71.856 E.06649
G1 X70.338 Y69.791 E.06649
G1 X71.01 Y67.774 E.06666
G1 X71.862 Y65.841 E.06623
G1 X72.836 Y64.079 E.06313
G1 X73.957 Y62.416 E.06288
G1 X74.684 Y61.525 E.03606
M204 S1000
G1 X74.684 Y61.525 F10800
G1 X74.975 Y61.763
M204 S800
G1 F1200
G1 X75.597 Y61.001 E.03084
G1 X77.044 Y59.531 E.06467
G1 X78.681 Y58.152 E.06711
G1 X80.444 Y56.934 E.06719
G1 X82.304 Y55.895 E.0668
G1 X84.263 Y55.032 E.06712
G1 X86.239 Y54.377 E.06527
G1 X88.276 Y53.905 E.06556
G1 X90.336 Y53.626 E.06518
G1 X92.866 Y53.559 E.07935
G1 X94.51 Y53.645 E.05162
G1 X96.571 Y53.944 E.0653
G1 X98.504 Y54.406 E.06231
G1 X100.38 Y55.034 E.06203
G1 X102.475 Y55.965 E.07188
G1 X104.292 Y56.994 E.06547
G1 X106.002 Y58.185 E.06534
G1 X107.551 Y59.49 E.06351
G1 X108.991 Y60.945 E.06419
G1 X110.282 Y62.51 E.06361
G1 X111.426 Y64.187 E.06365
G1 X112.439 Y66.009 E.06536
G1 X113.28 Y67.919 E.06544
G1 X113.961 Y69.975 E.06791
G1 X114.42 Y71.969 E.06416
G1 X114.696 Y73.996 E.06414
G1 X114.768 Y77.483 E.10936
G1 X113.579 Y81.748 E.13883
G1 X112.746 Y85.091 E.10802
G1 X112.075 Y88.45 E.1074
G1 X111.564 Y91.838 E.10743
G1 X111.213 Y95.246 E.10742
G1 X111.024 Y98.666 E.1074
G1 X110.996 Y102.092 E.10742
G1 X111.131 Y105.515 E.10741
G1 X111.426 Y108.928 E.10741
G1 X111.883 Y112.324 E.10744
G1 X112.499 Y115.694 E.10741
G1 X113.274 Y119.033 E.10748
G1 X114.316 Y122.736 E.12061
G1 X114.386 Y125.774 E.09528
G1 X114.268 Y127.877 E.06604
G1 X113.951 Y129.961 E.06609
G1 X113.437 Y132.005 E.06608
G1 X112.73 Y133.991 E.0661
G1 X111.845 Y135.884 E.06552
G1 X110.774 Y137.701 E.06613
G1 X109.536 Y139.406 E.06607
G1 X108.15 Y140.977 E.06569
G1 X106.625 Y142.405 E.06551
G1 X104.972 Y143.682 E.06549
G1 X103.212 Y144.795 E.06529
G1 X100.912 Y145.912 E.08017
G1 X99.403 Y146.502 E.0508
G1 X97.595 Y147.03 E.05906
G1 X95.552 Y147.432 E.06529
G1 X93.474 Y147.64 E.06548
G1 X91.382 Y147.65 E.06559
G1 X89.091 Y147.433 E.07215
G1 X87.099 Y147.044 E.06364
G1 X85.149 Y146.473 E.06371
G1 X83.243 Y145.717 E.06429
G1 X81.425 Y144.793 E.06394
G1 X79.491 Y143.558 E.07195
G1 X77.896 Y142.303 E.06363
G1 X76.409 Y140.893 E.06425
G1 X75.07 Y139.365 E.0637
G1 X73.876 Y137.718 E.06378
G1 X72.714 Y135.73 E.0722
G1 X71.85 Y133.845 E.06502
G1 X71.168 Y131.892 E.06486
G1 X70.688 Y129.961 E.06239
G1 X70.381 Y127.973 E.06307
G1 X70.254 Y125.816 E.06775
G1 X70.241 Y123.339 E.07767
G1 X71.361 Y119.05 E.13899
G1 X72.14 Y115.694 E.10802
G1 X72.756 Y112.324 E.10741
G1 X73.213 Y108.928 E.10744
G1 X73.508 Y105.515 E.10741
G1 X73.643 Y102.092 E.10741
G1 X73.615 Y98.666 E.10742
G1 X73.389 Y94.888 E.11867
G1 X73.075 Y91.838 E.09614
G1 X72.564 Y88.45 E.10743
G1 X71.893 Y85.091 E.1074
G1 X71.064 Y81.764 E.10751
G1 X69.966 Y78.089 E.12026
G1 X69.854 Y76.068 E.06346
G1 X69.943 Y74 E.0649
G1 X70.225 Y71.933 E.06541
G1 X70.698 Y69.902 E.06538
G1 X71.359 Y67.918 E.06557
G1 X72.196 Y66.016 E.06515
G1 X73.154 Y64.283 E.06209
G1 X74.265 Y62.634 E.06234
G1 X74.938 Y61.81 E.03336
M204 S1000
G1 X74.938 Y61.81 F10800
G1 X75.229 Y62.048
M204 S800
G1 F1200
G1 X75.884 Y61.247 E.03244
G1 X77.306 Y59.801 E.06359
G1 X78.917 Y58.446 E.066
G1 X80.636 Y57.258 E.06552
G1 X82.464 Y56.236 E.06567
G1 X84.391 Y55.387 E.06602
G1 X86.333 Y54.742 E.06416
G1 X88.335 Y54.278 E.06444
G1 X90.362 Y54.002 E.06414
G1 X92.224 Y53.916 E.05844
G1 X94.465 Y54.02 E.07034
G1 X96.491 Y54.313 E.06418
G1 X98.392 Y54.767 E.06128
G1 X100.252 Y55.389 E.06149
G1 X102.298 Y56.297 E.07018
G1 X104.083 Y57.309 E.06434
G1 X105.766 Y58.479 E.06427
G1 X107.289 Y59.762 E.06244
G1 X108.705 Y61.191 E.06308
G1 X109.975 Y62.73 E.06256
G1 X111.11 Y64.392 E.0631
G1 X112.106 Y66.184 E.06428
G1 X112.931 Y68.063 E.06434
G1 X113.6 Y70.085 E.06678
G1 X114.051 Y72.045 E.06306
G1 X114.321 Y74.038 E.06306
G1 X114.391 Y77.454 E.10713
G1 X113.214 Y81.651 E.13667
G1 X112.378 Y85.008 E.10847
G1 X111.704 Y88.385 E.10797
G1 X111.19 Y91.79 E.10797
G1 X110.837 Y95.216 E.10799
G1 X110.647 Y98.654 E.10796
G1 X110.619 Y102.098 E.10799
G1 X110.754 Y105.539 E.10797
G1 X111.051 Y108.97 E.10798
G1 X111.51 Y112.383 E.10798
G1 X112.13 Y115.77 E.10796
G1 X112.909 Y119.127 E.10805
G1 X113.946 Y122.815 E.12012
G1 X114.008 Y125.774 E.0928
G1 X113.892 Y127.847 E.0651
G1 X113.58 Y129.895 E.06495
G1 X113.078 Y131.887 E.06441
G1 X112.384 Y133.84 E.06499
G1 X111.515 Y135.701 E.0644
G1 X110.464 Y137.487 E.06498
G1 X109.247 Y139.164 E.06497
G1 X107.885 Y140.708 E.06455
G1 X106.387 Y142.112 E.06437
G1 X104.763 Y143.368 E.06437
G1 X103.032 Y144.463 E.06422
G1 X100.773 Y145.562 E.07877
G1 X99.29 Y146.143 E.04994
G1 X97.498 Y146.666 E.05853
G1 X95.488 Y147.06 E.06422
G1 X93.445 Y147.264 E.06438
G1 X91.39 Y147.273 E.06443
G1 X89.154 Y147.061 E.07042
G1 X87.196 Y146.679 E.06255
G1 X85.263 Y146.113 E.06315
G1 X83.39 Y145.37 E.06318
G1 X81.604 Y144.461 E.06283
G1 X79.717 Y143.256 E.0702
G1 X78.149 Y142.024 E.06252
G1 X76.686 Y140.638 E.06319
G1 X75.37 Y139.137 E.06259
G1 X74.187 Y137.504 E.06323
G1 X73.053 Y135.564 E.07046
G1 X72.203 Y133.713 E.06386
G1 X71.527 Y131.776 E.06433
G1 X71.056 Y129.879 E.06129
G1 X70.755 Y127.925 E.06199
G1 X70.631 Y125.809 E.06646
G1 X70.618 Y123.362 E.07673
G1 X71.727 Y119.14 E.13687
G1 X72.509 Y115.77 E.10847
G1 X73.129 Y112.383 E.10796
G1 X73.588 Y108.97 E.10798
G1 X73.885 Y105.539 E.10798
G1 X74.02 Y102.098 E.10797
G1 X73.992 Y98.654 E.10799
G1 X73.764 Y94.849 E.11952
G1 X73.449 Y91.79 E.09642
G1 X72.935 Y88.385 E.10797
G1 X72.261 Y85.008 E.10797
G1 X71.428 Y81.665 E.10802
G1 X70.334 Y78.003 E.11983
G1 X70.231 Y76.075 E.06054
G1 X70.318 Y74.042 E.0638
G1 X70.595 Y72.01 E.0643
G1 X71.059 Y70.012 E.06431
G1 X71.708 Y68.062 E.06444
G1 X72.53 Y66.191 E.06408
G1 X73.48 Y64.472 E.06158
G1 X74.573 Y62.852 E.06127
G1 X75.191 Y62.095 E.03064
M204 S1000
G1 X75.191 Y62.095 F10800
G1 X75.483 Y62.333
M204 S800
G1 F1200
G1 X76.17 Y61.492 E.03405
G1 X77.569 Y60.072 E.0625
G1 X79.152 Y58.741 E.06485
G1 X80.843 Y57.574 E.06442
G1 X82.64 Y56.57 E.06454
G1 X84.518 Y55.742 E.06435
G1 X86.427 Y55.107 E.06308
G1 X88.395 Y54.65 E.06335
G1 X90.388 Y54.378 E.06307
G1 X92.838 Y54.313 E.07685
G1 X94.42 Y54.394 E.04967
G1 X96.412 Y54.682 E.06311
G1 X98.297 Y55.131 E.06076
G1 X100.123 Y55.743 E.06038
G1 X102.12 Y56.63 E.06851
G1 X103.875 Y57.623 E.06322
G1 X105.53 Y58.773 E.06319
G1 X107.04 Y60.045 E.0619
G1 X108.431 Y61.45 E.06199
G1 X109.679 Y62.963 E.06149
G1 X110.794 Y64.598 E.06205
G1 X111.772 Y66.359 E.06316
G1 X112.583 Y68.206 E.06325
G1 X113.24 Y70.195 E.06568
G1 X113.681 Y72.121 E.06195
G1 X113.946 Y74.08 E.06198
G1 X114.014 Y77.424 E.10487
G1 X112.85 Y81.554 E.13454
G1 X112.01 Y84.926 E.10896
G1 X111.332 Y88.32 E.10852
G1 X110.816 Y91.743 E.10854
G1 X110.461 Y95.186 E.10853
G1 X110.27 Y98.642 E.10853
G1 X110.242 Y102.104 E.10855
G1 X110.378 Y105.563 E.10854
G1 X110.676 Y109.011 E.10851
G1 X111.138 Y112.442 E.10855
G1 X111.76 Y115.847 E.10853
