; generated by PrusaSlicer 2.9.0 on 2025-01-24 at 22:01:33 UTC


;
;
; 

; external perimeters extrusion width = 0.60mm
; perimeters extrusion width = 0.50mm
; infill extrusion width = 0.50mm
; solid infill extrusion width = 0.50mm
; top infill extrusion width = 0.45mm
; first layer extrusion width = 0.42mm

M73 P0 R66
M73 Q0 S66
M201 X1000 Y1000 Z200 E5000 ; sets maximum accelerations, mm/sec^2
M203 X200 Y200 Z12 E120 ; sets maximum feedrates, mm / sec
M204 S1250 T1250 ; sets acceleration (S) and retract acceleration (R), mm/sec^2
M205 X8.00 Y8.00 Z0.40 E4.50 ; sets the jerk limits, mm/sec
M205 S0 T0 ; sets the minimum extruding and travel feed rate, mm/sec

; printing object watchband.stl id:0 copy 0
; stop printing object watchband.stl id:0 copy 0

;TYPE:Custom
M862.3 P "MK3S" ; printer model check
M862.1 P0.4 ; nozzle diameter check
M115 U3.14.1 ; tell printer latest fw version
G90 ; use absolute coordinates
M83 ; extruder relative mode
M104 S215 ; set extruder temp
M140 S60 ; set bed temp
M190 S60 ; wait for bed temp
M109 S215 ; wait for extruder temp
G28 W ; home all without mesh bed level
G80 X33.546 Y64.2454 W62.5542 H93.2493 ; mesh bed levelling

G1 Z0.2 F720
G1 Y-3 F1000 ; go outside print area
G92 E0
G1 X60 E9 F1000 ; intro line
G1 X100 E12.5 F1000 ; intro line

G92 E0
M221 S95

; Don't change E values below. Excessive value can damage the printer.

M907 E538 ; set extruder motor current
G21 ; set units to millimeters
G90 ; use absolute coordinates
M83 ; use relative distances for extrusion

M900 K0.05 ; Filament gcode LA 1.5
M900 K30 ; Filament gcode LA 1.0




M107
;LAYER_CHANGE
;Z:0.2
;HEIGHT:0.2
G1 E-.8 F2100
G1 Z.6 F720
G1 X37.363 Y65.075 F10800
G1 Z.2 F720
G1 E.8 F2100
M204 S800
;TYPE:Skirt/Brim
;WIDTH:0.42
G1 F1200
G1 X38.911 Y64.434 E.05253
G1 X90.736 Y64.434 E1.62494
G1 X92.283 Y65.075 E.0525
G1 X95.271 Y68.062 E.13247
G1 X95.912 Y69.61 E.05253
G1 X95.912 Y152.13 E2.58736
G1 X95.271 Y153.678 E.05253
G1 X92.283 Y156.665 E.13247
G1 X90.736 Y157.306 E.0525
G1 X38.911 Y157.306 E1.62494
G1 X37.363 Y156.665 E.05253
G1 X34.375 Y153.678 E.13247
G1 X33.734 Y152.13 E.05253
G1 X33.734 Y69.61 E2.58736
G1 X34.375 Y68.062 E.05253
G1 X37.321 Y65.117 E.13061
M204 S1000
;WIPE_START
G1 F8640
G1 X37.363 Y65.075 E-.01371
G1 X38.911 Y64.434 E-.38687
G1 X40.641 Y64.434 E-.39942
;WIPE_END
G1 Z.6 F720
G1 X65.304 Y70.674 F10800
G1 Z.2 F720
G1 E.8 F2100
M204 S800
G1 F1200
G1 X65.844 Y69.305 E.04614
G1 X66.767 Y68.166 E.04597
G1 X68.01 Y67.338 E.04683
G1 X69.404 Y66.935 E.0455
G1 X89.126 Y66.924 E.61837
G1 X90.113 Y67.131 E.03162
G1 X91.013 Y67.523 E.03078
G1 X92.135 Y68.418 E.045
G1 X93.028 Y69.756 E.05044
G1 X93.437 Y71.301 E.05011
G1 X93.437 Y150.313 E2.47737
G1 X93.342 Y151.066 E.0238
G1 X92.802 Y152.435 E.04614
G1 X91.835 Y153.613 E.04779
G1 X90.579 Y154.428 E.04695
G1 X89.19 Y154.812 E.04518
G1 X69.728 Y154.831 E.61022
G1 X68.974 Y154.736 E.02383
G1 X67.553 Y154.165 E.04802
G1 X66.387 Y153.184 E.04778
G1 X65.588 Y151.916 E.04699
G1 X65.21 Y150.437 E.04786
G1 X65.21 Y71.427 E2.4773
G1 X65.297 Y70.733 E.02193
M204 S1000
G1 X65.297 Y70.733 F10800
G1 X65.671 Y70.781
M204 S800
G1 F1200
G1 X65.675 Y70.746 E.0011
G1 X66.183 Y69.472 E.043
G1 X67.039 Y68.428 E.04233
G1 X68.192 Y67.669 E.04328
G1 X69.481 Y67.305 E.042
G1 X89.069 Y67.297 E.61417
G1 X89.981 Y67.485 E.0292
G1 X90.839 Y67.858 E.02933
G1 X91.876 Y68.693 E.04174
G1 X92.672 Y69.884 E.04492
G1 X93.059 Y71.326 E.04681
G1 X93.059 Y150.301 E2.47621
G1 X92.971 Y150.994 E.0219
G1 X92.463 Y152.267 E.04297
G1 X91.565 Y153.349 E.04409
G1 X90.401 Y154.094 E.04333
G1 X89.116 Y154.441 E.04173
G1 X69.74 Y154.454 E.60752
G1 X69.046 Y154.365 E.02194
M73 P1 R66
M73 Q1 S66
G1 X67.77 Y153.856 E.04307
G1 X66.688 Y152.956 E.04413
G1 X65.945 Y151.792 E.0433
G1 X65.587 Y150.413 E.04467
G1 X65.587 Y71.439 E2.47617
G1 X65.663 Y70.841 E.0189
M73 P1 R65
M204 S1000
G1 X65.663 Y70.841 F10800
G1 X66.037 Y70.889
M204 S800
G1 F1200
G1 X66.046 Y70.817 E.00228
G1 X66.493 Y69.689 E.03804
G1 X67.312 Y68.69 E.0405
G1 X68.372 Y68.002 E.03962
G1 X69.556 Y67.676 E.0385
G1 X89.012 Y67.67 E.61003
G1 X89.885 Y67.85 E.02795
G1 X90.663 Y68.193 E.02666
G1 X91.616 Y68.967 E.03849
G1 X92.34 Y70.066 E.04126
G1 X92.682 Y71.351 E.04169
G1 X92.682 Y150.288 E2.47501
G1 X92.6 Y150.923 E.02008
G1 X92.153 Y152.051 E.03804
G1 X91.334 Y153.05 E.0405
G1 X90.274 Y153.738 E.03962
G1 X89.042 Y154.071 E.04001
G1 X69.752 Y154.077 E.60482
G1 X69.119 Y153.995 E.02001
M73 Q1 S65
G1 X67.94 Y153.518 E.03988
G1 X66.954 Y152.687 E.04043
G1 X66.28 Y151.617 E.03965
G1 X65.964 Y150.389 E.03976
G1 X65.964 Y71.452 E2.47501
G1 X66.029 Y70.949 E.0159
M204 S1000
G1 X66.029 Y70.949 F10800
G1 X66.402 Y70.998
M204 S800
G1 F1200
G1 X66.417 Y70.891 E.00339
G1 X66.831 Y69.857 E.03492
G1 X67.582 Y68.955 E.0368
G1 X68.55 Y68.336 E.03603
G1 X69.629 Y68.046 E.03503
G1 X88.956 Y68.044 E.60598
G1 X89.752 Y68.204 E.02546
G1 X90.487 Y68.527 E.02517
G1 X91.353 Y69.239 E.03515
G1 X92.008 Y70.245 E.03764
G1 X92.305 Y71.375 E.03663
G1 X92.305 Y150.276 E2.47389
G1 X92.229 Y150.849 E.01812
G1 X91.815 Y151.883 E.03492
G1 X91.064 Y152.785 E.0368
G1 X90.097 Y153.404 E.036
G1 X88.97 Y153.7 E.03653
G1 X69.765 Y153.7 E.60216
G1 X69.191 Y153.624 E.01815
G1 X68.158 Y153.209 E.03491
G1 X67.255 Y152.458 E.03683
G1 X66.637 Y151.491 E.03598
G1 X66.341 Y150.365 E.0365
G1 X66.341 Y71.464 E2.47389
G1 X66.395 Y71.057 E.01287
M204 S1000
G1 X66.395 Y71.057 F10800
G1 X66.768 Y71.108
M204 S800
G1 F1200
G1 X66.787 Y70.966 E.00449
G1 X67.169 Y70.028 E.03176
G1 X67.85 Y69.221 E.03311
G1 X68.725 Y68.671 E.0324
G1 X69.7 Y68.417 E.03159
G1 X88.938 Y68.421 E.60319
G1 X89.619 Y68.557 E.02177
G1 X90.31 Y68.862 E.02368
G1 X91.09 Y69.511 E.03181
G1 X91.652 Y70.372 E.03224
G1 X91.928 Y71.4 E.03337
G1 X91.928 Y150.263 E2.47269
G1 X91.859 Y150.774 E.01617
G1 X91.477 Y151.712 E.03176
G1 X90.796 Y152.519 E.03311
G1 X89.921 Y153.069 E.0324
G1 X88.946 Y153.323 E.03159
G1 X69.778 Y153.323 E.601
G1 X69.266 Y153.254 E.0162
G1 X68.329 Y152.872 E.03173
G1 X67.522 Y152.19 E.03313
G1 X66.972 Y151.316 E.03238
G1 X66.718 Y150.341 E.03159
G1 X66.718 Y71.477 E2.47273
G1 X66.76 Y71.167 E.00981
M204 S1000
G1 X66.76 Y71.167 F10800
G1 X67.133 Y71.219
M204 S800
G1 F1200
G1 X67.157 Y71.042 E.0056
G1 X67.505 Y70.201 E.02854
G1 X68.117 Y69.489 E.02944
G1 X68.85 Y69.028 E.02715
G1 X69.725 Y68.794 E.0284
G1 X88.918 Y68.798 E.60178
G1 X89.522 Y68.922 E.01933
G1 X90.131 Y69.195 E.02093
G1 X90.824 Y69.779 E.02842
G1 X91.318 Y70.55 E.02871
G1 X91.551 Y71.424 E.02836
G1 X91.551 Y82.876 E.35907
G1 X91.493 Y83.152 E.00884
G1 X91.551 Y83.429 E.00887
G1 X91.551 Y94.876 E.35891
G1 X91.493 Y95.152 E.00884
M73 P2 R65
M73 Q2 S65
G1 X91.551 Y95.429 E.00887
G1 X91.551 Y106.876 E.35891
G1 X91.493 Y107.152 E.00884
G1 X91.551 Y107.429 E.00887
G1 X91.551 Y118.876 E.35891
G1 X91.493 Y119.152 E.00884
G1 X91.551 Y119.429 E.00887
G1 X91.551 Y130.876 E.35891
G1 X91.493 Y131.152 E.00884
G1 X91.551 Y131.429 E.00887
G1 X91.551 Y150.25 E.59012
G1 X91.489 Y150.698 E.01418
G1 X91.141 Y151.539 E.02854
G1 X90.529 Y152.251 E.02944
G1 X89.796 Y152.712 E.02715
G1 X88.921 Y152.946 E.0284
G1 X69.791 Y152.946 E.59981
G1 X69.343 Y152.884 E.01418
G1 X68.502 Y152.536 E.02854
G1 X67.789 Y151.923 E.02948
G1 X67.328 Y151.191 E.02712
G1 X67.095 Y150.316 E.02839
G1 X67.095 Y131.429 E.59219
G1 X67.153 Y131.152 E.00887
G1 X67.095 Y130.876 E.00884
G1 X67.095 Y119.429 E.35891
G1 X67.153 Y119.152 E.00887
G1 X67.095 Y118.876 E.00884
G1 X67.095 Y107.429 E.35891
G1 X67.153 Y107.152 E.00887
G1 X67.095 Y106.876 E.00884
G1 X67.095 Y95.429 E.35891
G1 X67.153 Y95.152 E.00887
G1 X67.095 Y94.876 E.00884
G1 X67.095 Y83.429 E.35891
G1 X67.153 Y83.152 E.00887
G1 X67.095 Y82.876 E.00884
G1 X67.095 Y71.491 E.35697
G1 X67.124 Y71.278 E.00674
M204 S1000
G1 X67.124 Y71.278 F10800
G1 X67.497 Y71.331
M204 S800
G1 F1200
G1 X67.527 Y71.118 E.00674
G1 X67.813 Y70.421 E.02362
G1 X68.346 Y69.79 E.0259
G1 X68.979 Y69.383 E.0236
G1 X69.751 Y69.171 E.0251
G1 X88.898 Y69.175 E.60034
G1 X89.422 Y69.286 E.01679
G1 X89.95 Y69.526 E.01819
G1 X90.557 Y70.047 E.02508
G1 X90.962 Y70.678 E.02351
G1 X91.174 Y71.45 E.0251
G1 X91.174 Y82.852 E.3575
G1 X91.105 Y83.152 E.00965
G1 X91.174 Y83.452 E.00965
G1 X91.174 Y94.852 E.35744
G1 X91.105 Y95.152 E.00965
G1 X91.174 Y95.452 E.00965
G1 X91.174 Y106.852 E.35744
G1 X91.105 Y107.152 E.00965
G1 X91.174 Y107.452 E.00965
G1 X91.174 Y118.852 E.35744
G1 X91.105 Y119.152 E.00965
G1 X91.174 Y119.452 E.00965
G1 X91.174 Y130.852 E.35744
G1 X91.105 Y131.152 E.00965
G1 X91.174 Y131.452 E.00965
G1 X91.174 Y150.236 E.58896
G1 X91.119 Y150.622 E.01223
G1 X90.833 Y151.319 E.02362
G1 X90.3 Y151.95 E.0259
G1 X89.667 Y152.357 E.0236
G1 X88.895 Y152.569 E.0251
G1 X69.805 Y152.569 E.59855
G1 X69.419 Y152.514 E.01223
G1 X68.722 Y152.228 E.02362
G1 X68.09 Y151.694 E.02594
G1 X67.684 Y151.062 E.02355
G1 X67.472 Y150.29 E.0251
G1 X67.472 Y131.452 E.59065
G1 X67.541 Y131.152 E.00965
G1 X67.472 Y130.852 E.00965
G1 X67.472 Y119.452 E.35744
G1 X67.541 Y119.152 E.00965
G1 X67.472 Y118.852 E.00965
G1 X67.472 Y107.452 E.35744
G1 X67.541 Y107.152 E.00965
G1 X67.472 Y106.852 E.00965
G1 X67.472 Y95.452 E.35744
G1 X67.541 Y95.152 E.00965
G1 X67.472 Y94.852 E.00965
G1 X67.472 Y83.452 E.35744
G1 X67.541 Y83.152 E.00965
G1 X67.472 Y82.852 E.00965
G1 X67.472 Y71.504 E.35581
G1 X67.488 Y71.391 E.00358
M204 S1000
G1 X67.488 Y71.391 F10800
G1 X67.86 Y71.445
M204 S800
G1 F1200
G1 X67.896 Y71.198 E.00783
G1 X68.148 Y70.596 E.02046
G1 X68.613 Y70.057 E.02232
G1 X69.109 Y69.738 E.01849
G1 X69.778 Y69.548 E.02181
G1 X88.876 Y69.552 E.5988
G1 X89.32 Y69.65 E.01426
G1 X89.766 Y69.856 E.0154
G1 X90.289 Y70.313 E.02178
G1 X90.608 Y70.809 E.01849
G1 X90.797 Y71.477 E.02177
G1 X90.797 Y82.827 E.35587
G1 X90.715 Y83.152 E.01051
G1 X90.797 Y83.477 E.01051
G1 X90.797 Y94.827 E.35587
G1 X90.715 Y95.152 E.01051
G1 X90.797 Y95.477 E.01051
G1 X90.797 Y106.827 E.35587
G1 X90.715 Y107.152 E.01051
G1 X90.797 Y107.477 E.01051
G1 X90.797 Y118.827 E.35587
G1 X90.715 Y119.152 E.01051
M73 P2 R64
G1 X90.797 Y119.477 E.01051
G1 X90.797 Y130.827 E.35587
G1 X90.715 Y131.152 E.01051
G1 X90.797 Y131.477 E.01051
G1 X90.797 Y150.222 E.58774
G1 X90.75 Y150.542 E.01014
G1 X90.498 Y151.144 E.02046
G1 X90.033 Y151.683 E.02232
G1 X89.537 Y152.002 E.01849
G1 X88.868 Y152.192 E.02181
G1 X69.819 Y152.192 E.59727
G1 X69.498 Y152.144 E.01018
G1 X68.896 Y151.892 E.02046
G1 X68.358 Y151.427 E.0223
G1 X68.038 Y150.931 E.01851
G1 X67.849 Y150.263 E.02177
G1 X67.849 Y131.477 E.58902
G1 X67.931 Y131.152 E.01051
G1 X67.849 Y130.827 E.01051
G1 X67.849 Y119.477 E.35587
G1 X67.931 Y119.152 E.01051
G1 X67.849 Y118.827 E.01051
G1 X67.849 Y107.477 E.35587
G1 X67.931 Y107.152 E.01051
G1 X67.849 Y106.827 E.01051
G1 X67.849 Y95.477 E.35587
G1 X67.931 Y95.152 E.01051
G1 X67.849 Y94.827 E.01051
G1 X67.849 Y83.477 E.35587
G1 X67.931 Y83.152 E.01051
G1 X67.849 Y82.827 E.01051
G1 X67.849 Y71.518 E.35459
G1 X67.851 Y71.505 E.00041
M204 S1000
G1 X67.851 Y71.505 F10800
G1 X68.264 Y71.506
M204 S800
G1 F1200
G1 X68.265 Y71.28 E.00709
G1 X68.482 Y70.774 E.01726
G1 X68.877 Y70.327 E.0187
G1 X69.243 Y70.091 E.01365
G1 X69.806 Y69.926 E.01839
G1 X88.854 Y69.929 E.59724
G1 X89.579 Y70.185 E.02411
G1 X90.019 Y70.577 E.01848
G1 X90.254 Y70.942 E.01361
G1 X90.42 Y71.505 E.0184
G1 X90.42 Y82.8 E.35415
G1 X90.323 Y83.152 E.01145
G1 X90.42 Y83.504 E.01145
M73 Q2 S64
G1 X90.42 Y94.8 E.35418
G1 X90.323 Y95.152 E.01145
G1 X90.42 Y95.504 E.01145
G1 X90.42 Y106.8 E.35418
G1 X90.323 Y107.152 E.01145
G1 X90.42 Y107.504 E.01145
G1 X90.42 Y118.8 E.35418
G1 X90.323 Y119.152 E.01145
G1 X90.42 Y119.504 E.01145
G1 X90.42 Y130.8 E.35418
G1 X90.323 Y131.152 E.01145
G1 X90.42 Y131.504 E.01145
G1 X90.381 Y150.46 E.59435
G1 X90.164 Y150.966 E.01726
G1 X89.769 Y151.413 E.0187
G1 X89.403 Y151.649 E.01365
G1 X88.84 Y151.814 E.01839
G1 X69.58 Y151.776 E.60388
G1 X69.074 Y151.559 E.01726
G1 X68.628 Y151.163 E.0187
G1 X68.392 Y150.798 E.01363
G1 X68.226 Y150.235 E.0184
G1 X68.226 Y131.504 E.5873
G1 X68.323 Y131.152 E.01145
G1 X68.226 Y130.8 E.01145
G1 X68.226 Y119.504 E.35418
G1 X68.323 Y119.152 E.01145
G1 X68.226 Y118.8 E.01145
G1 X68.226 Y107.504 E.35418
G1 X68.323 Y107.152 E.01145
G1 X68.226 Y106.8 E.01145
G1 X68.226 Y95.504 E.35418
G1 X68.323 Y95.152 E.01145
G1 X68.226 Y94.8 E.01145
G1 X68.226 Y83.504 E.35418
G1 X68.323 Y83.152 E.01145
G1 X68.226 Y82.8 E.01145
G1 X68.264 Y71.566 E.35224
M204 S1000
G1 X68.264 Y71.566 F10800
G1 X68.603 Y71.566
M204 S800
G1 F1200
G1 X68.603 Y71.549 E.00053
G1 X68.813 Y70.956 E.01972
G1 X69.139 Y70.6 E.01514
G1 X69.835 Y70.303 E.02373
G1 X88.832 Y70.306 E.59564
G1 X89.391 Y70.513 E.01869
M73 P3 R64
M73 Q3 S64
G1 X89.746 Y70.838 E.01509
G1 X90.043 Y71.535 E.02376
G1 X90.043 Y82.77 E.35227
G1 X89.928 Y83.152 E.01251
G1 X90.043 Y83.534 E.01251
G1 X90.043 Y94.77 E.3523
G1 X89.928 Y95.152 E.01251
G1 X90.043 Y95.534 E.01251
G1 X90.043 Y106.77 E.3523
G1 X89.928 Y107.152 E.01251
G1 X90.043 Y107.534 E.01251
G1 X90.043 Y118.77 E.3523
G1 X89.928 Y119.152 E.01251
G1 X90.043 Y119.534 E.01251
G1 X90.043 Y130.77 E.3523
G1 X89.928 Y131.152 E.01251
G1 X90.043 Y131.534 E.01251
G1 X90.043 Y150.191 E.58498
G1 X89.833 Y150.784 E.01972
G1 X89.508 Y151.14 E.01511
G1 X88.811 Y151.437 E.02376
G1 X69.85 Y151.437 E.59451
G1 X69.257 Y151.227 E.01972
G1 X68.9 Y150.902 E.01514
G1 X68.603 Y150.205 E.02376
G1 X68.603 Y131.534 E.58542
G1 X68.718 Y131.152 E.01251
G1 X68.603 Y130.77 E.01251
G1 X68.603 Y119.534 E.3523
G1 X68.718 Y119.152 E.01251
G1 X68.603 Y118.77 E.01251
G1 X68.603 Y107.534 E.3523
G1 X68.718 Y107.152 E.01251
G1 X68.603 Y106.77 E.01251
G1 X68.603 Y95.534 E.3523
G1 X68.718 Y95.152 E.01251
G1 X68.603 Y94.77 E.01251
G1 X68.603 Y83.534 E.3523
G1 X68.718 Y83.152 E.01251
G1 X68.603 Y82.77 E.01251
G1 X68.603 Y71.626 E.34941
M204 S1000
G1 X68.603 Y71.626 F10800
G1 X68.999 Y71.627
M204 S800
G1 F1200
G1 X69 Y71.456 E.00536
G1 X69.142 Y71.143 E.01078
G1 X69.396 Y70.876 E.01155
G1 X69.867 Y70.68 E.016
G1 X88.81 Y70.683 E.59394
G1 X89.201 Y70.84 E.01321
G1 X89.47 Y71.095 E.01162
G1 X89.666 Y71.567 E.01602
G1 X89.666 Y82.738 E.35026
G1 X89.53 Y83.152 E.01366
G1 X89.666 Y83.566 E.01366
G1 X89.666 Y94.738 E.35029
G1 X89.53 Y95.152 E.01366
G1 X89.666 Y95.566 E.01366
G1 X89.666 Y106.738 E.35029
G1 X89.53 Y107.152 E.01366
G1 X89.666 Y107.566 E.01366
G1 X89.666 Y118.738 E.35029
G1 X89.53 Y119.152 E.01366
G1 X89.666 Y119.566 E.01366
G1 X89.666 Y130.738 E.35029
G1 X89.53 Y131.152 E.01366
G1 X89.666 Y131.566 E.01366
G1 X89.646 Y150.284 E.58689
G1 X89.504 Y150.597 E.01078
G1 X89.25 Y150.864 E.01155
G1 X88.779 Y151.06 E.016
G1 X69.757 Y151.041 E.59642
G1 X69.444 Y150.899 E.01078
G1 X69.176 Y150.645 E.01158
G1 X68.98 Y150.174 E.016
G1 X68.98 Y131.566 E.58344
G1 X69.116 Y131.152 E.01366
G1 X68.98 Y130.738 E.01366
G1 X68.98 Y119.566 E.35029
G1 X69.116 Y119.152 E.01366
G1 X68.98 Y118.738 E.01366
G1 X68.98 Y107.566 E.35029
G1 X69.116 Y107.152 E.01366
G1 X68.98 Y106.738 E.01366
G1 X68.98 Y95.566 E.35029
G1 X69.116 Y95.152 E.01366
G1 X68.98 Y94.738 E.01366
G1 X68.98 Y83.566 E.35029
G1 X69.116 Y83.152 E.01366
G1 X68.98 Y82.738 E.01366
G1 X68.999 Y71.687 E.3465
M204 S1000
G1 X68.999 Y71.687 F10800
G1 X69.364 Y71.687
M204 S800
G1 F1200
G1 X69.364 Y71.556 E.00411
G1 X69.648 Y71.156 E.01538
G1 X69.902 Y71.057 E.00855
G1 X88.758 Y71.057 E.59122
G1 X89.189 Y71.347 E.01629
G1 X89.289 Y71.602 E.00859
G1 X89.289 Y82.703 E.34806
G1 X89.013 Y83.152 E.01653
G1 X89.289 Y83.602 E.01655
G1 X89.289 Y94.703 E.34806
G1 X89.013 Y95.152 E.01653
G1 X89.289 Y95.602 E.01655
G1 X89.289 Y106.703 E.34806
G1 X89.013 Y107.152 E.01653
G1 X89.289 Y107.602 E.01655
G1 X89.289 Y118.703 E.34806
G1 X89.013 Y119.152 E.01653
G1 X89.289 Y119.602 E.01655
G1 X89.289 Y130.703 E.34806
G1 X89.013 Y131.152 E.01653
G1 X89.289 Y131.602 E.01655
G1 X89.282 Y150.184 E.58263
G1 X88.998 Y150.584 E.01538
G1 X88.744 Y150.683 E.00855
G1 X69.856 Y150.677 E.59222
G1 X69.457 Y150.393 E.01536
G1 X69.357 Y150.138 E.00859
G1 X69.357 Y131.602 E.58118
G1 X69.633 Y131.152 E.01655
G1 X69.357 Y130.703 E.01653
G1 X69.357 Y119.602 E.34806
G1 X69.633 Y119.152 E.01655
