; generated by PrusaSlicer 2.9.0 on 2025-02-01 at 17:04:58 UTC


;
;
; 

; external perimeters extrusion width = 0.60mm
; perimeters extrusion width = 0.50mm
; infill extrusion width = 0.50mm
; solid infill extrusion width = 0.50mm
; top infill extrusion width = 0.45mm
; first layer extrusion width = 0.42mm

; external perimeters extrusion width = 0.60mm
; perimeters extrusion width = 0.50mm
; infill extrusion width = 0.50mm
; solid infill extrusion width = 0.50mm
; top infill extrusion width = 0.45mm
; first layer extrusion width = 0.42mm

; external perimeters extrusion width = 0.60mm
; perimeters extrusion width = 0.50mm
; infill extrusion width = 0.50mm
; solid infill extrusion width = 0.50mm
; top infill extrusion width = 0.45mm
; first layer extrusion width = 0.42mm

M73 P0 R34
M73 C32
M73 Q0 S34
M73 D32
M201 X1000 Y1000 Z200 E5000 ; sets maximum accelerations, mm/sec^2
M203 X200 Y200 Z12 E120 ; sets maximum feedrates, mm / sec
M204 S1250 T1250 ; sets acceleration (S) and retract acceleration (R), mm/sec^2
M205 X8.00 Y8.00 Z0.40 E4.50 ; sets the jerk limits, mm/sec
M205 S0 T0 ; sets the minimum extruding and travel feed rate, mm/sec

; printing object UserTag2Small v1.stl id:1 copy 0
; stop printing object UserTag2Small v1.stl id:1 copy 0
; printing object UserTag1Small v1.stl id:0 copy 0
; stop printing object UserTag1Small v1.stl id:0 copy 0
; printing object UserTag3Small v1.stl id:2 copy 0
; stop printing object UserTag3Small v1.stl id:2 copy 0

;TYPE:Custom
M862.3 P "MK3S" ; printer model check
M862.1 P0.4 ; nozzle diameter check
M115 U3.14.1 ; tell printer latest fw version
G90 ; use absolute coordinates
M83 ; extruder relative mode
M104 S215 ; set extruder temp
M140 S60 ; set bed temp
M190 S60 ; wait for bed temp
M109 S215 ; wait for extruder temp
G28 W ; home all without mesh bed level
G80 X57.3884 Y123.532 W139.113 H46.3006 ; mesh bed levelling

G1 Z0.2 F720
G1 Y-3 F1000 ; go outside print area
G92 E0
G1 X60 E9 F1000 ; intro line
G1 X100 E12.5 F1000 ; intro line

G92 E0
M221 S95

; Don't change E values below. Excessive value can damage the printer.

M907 E538 ; set extruder motor current
G21 ; set units to millimeters
G90 ; use absolute coordinates
M83 ; use relative distances for extrusion

M900 K0.05 ; Filament gcode LA 1.5
M900 K30 ; Filament gcode LA 1.0




M107
;LAYER_CHANGE
;Z:0.2
;HEIGHT:0.2
G1 E-.8 F2100
G1 Z.6 F720
G1 X68.534 Y126.798 F10800
G1 Z.2 F720
G1 E.8 F2100
M204 S800
;TYPE:Skirt/Brim
;WIDTH:0.42
G1 F1200
G1 X70.354 Y125.815 E.06486
G1 X71.664 Y125.251 E.04472
G1 X74.093 Y124.457 E.08013
G1 X75.482 Y124.136 E.0447
G1 X78.015 Y123.788 E.08017
G1 X79.588 Y123.721 E.04937
G1 X175.036 Y125.285 E2.99311
G1 X177.672 Y125.551 E.08307
M73 C31
G1 X179.217 Y125.858 E.04939
G1 X181.619 Y126.568 E.07853
G1 X183.972 Y127.568 E.08016
G1 X185.357 Y128.317 E.04937
G1 X187.444 Y129.703 E.07855
G1 X189.397 Y131.352 E.08014
G1 X190.499 Y132.476 E.04935
G1 X192.085 Y134.416 E.07857
G1 X193.465 Y136.567 E.08013
G1 X194.187 Y137.967 E.04939
G1 X195.131 Y140.287 E.07853
G1 X195.816 Y142.75 E.08016
G1 X196.093 Y144.3 E.04937
G1 X196.311 Y146.796 E.07856
G1 X196.239 Y149.351 E.08014
G1 X196.048 Y150.914 E.04937
G1 X195.546 Y153.268 E.07547
G1 X194.603 Y156.012 E.09097
G1 X193.557 Y158.179 E.07545
G1 X191.991 Y160.621 E.09096
G1 X190.461 Y162.479 E.07547
G1 X188.476 Y164.386 E.08631
G1 X187.317 Y165.301 E.0463
G1 X185.307 Y166.625 E.07547
G1 X182.849 Y167.862 E.08628
G1 X180.206 Y168.796 E.08789
G1 X177.859 Y169.33 E.07547
G1 X176.544 Y169.514 E.04163
G1 X173.825 Y169.644 E.08535
G1 X79.461 Y168.097 E2.95911
G1 X76.785 Y167.898 E.08414
M73 P1 R33
M73 Q1 S34
G1 X74.181 Y167.385 E.08322
M73 D31
G1 X71.749 Y166.599 E.08014
G1 X70.436 Y166.042 E.04472
G1 X68.183 Y164.835 E.08014
G1 X66.991 Y164.052 E.04472
G1 X64.99 Y162.462 E.08014
G1 X63.957 Y161.48 E.04469
G1 X62.272 Y159.558 E.08014
G1 X61.431 Y158.406 E.04472
G1 X60.116 Y156.214 E.08015
G1 X59.494 Y154.931 E.04471
G1 X58.591 Y152.54 E.08014
G1 X58.209 Y151.166 E.04471
G1 X57.748 Y148.652 E.08014
G1 X57.616 Y147.232 E.04472
G1 X57.612 Y144.676 E.08014
G1 X57.736 Y143.256 E.04469
G1 X58.188 Y140.74 E.08015
G1 X58.564 Y139.365 E.0447
G1 X59.458 Y136.97 E.08015
G1 X60.073 Y135.684 E.0447
G1 X61.38 Y133.487 E.08015
G1 X62.215 Y132.332 E.04469
G1 X63.894 Y130.404 E.08016
G1 X64.922 Y129.416 E.04471
G1 X66.917 Y127.818 E.08014
G1 X68.105 Y127.03 E.0447
G1 X68.482 Y126.827 E.01343
M204 S1000
;WIPE_START
G1 F8640
G1 X68.534 Y126.798 E-.01375
G1 X70.354 Y125.815 E-.47762
G1 X71.581 Y125.287 E-.30863
;WIPE_END
G1 Z.6 F720
; printing object UserTag3Small v1.stl id:2 copy 0
G1 X181.633 Y158.165 F10800
G1 Z.2 F720
G1 E.8 F2100
M204 S800
;TYPE:Perimeter
;WIDTH:0.419999
G1 F1200
G1 X181.948 Y158.262 E.01033
G1 X182.643 Y158.706 E.02586
G1 X183.099 Y159.237 E.02195
G1 X183.262 Y159.481 E.0092
G1 X183.502 Y160.094 E.02064
G1 X183.589 Y160.915 E.02589
G1 X183.43 Y161.725 E.02588
G1 X183.039 Y162.452 E.02588
G1 X182.451 Y163.032 E.0259
G1 X181.719 Y163.412 E.02586
G1 X180.916 Y163.559 E.0256
G1 X167.478 Y163.566 E.42134
G1 X166.99 Y163.517 E.01538
G1 X166.361 Y163.323 E.02064
G1 X165.666 Y162.879 E.02586
G1 X165.131 Y162.249 E.02591
G1 X164.807 Y161.49 E.02588
G1 X164.72 Y160.669 E.02589
G1 X164.879 Y159.86 E.02585
G1 X165.27 Y159.132 E.02591
G1 X165.857 Y158.553 E.02585
G1 X166.441 Y158.244 E.02072
G1 X166.75 Y158.123 E.0104
G1 X167.393 Y158.025 E.02039
G1 X174.755 Y158.019 E.23083
G1 X180.831 Y158.019 E.19051
G1 X181.319 Y158.068 E.01538
G1 X181.576 Y158.147 E.00843
M204 S1000
G1 X181.576 Y158.147 F10800
G1 X181.522 Y158.525
M204 S800
;TYPE:External perimeter
G1 F1200
G1 X181.836 Y158.622 E.0103
G1 X182.431 Y159.017 E.02239
G1 X182.911 Y159.619 E.02414
G1 X183.151 Y160.232 E.02064
G1 X183.213 Y160.943 E.02238
G1 X183.062 Y161.641 E.02239
G1 X182.713 Y162.264 E.02239
G1 X182.195 Y162.755 E.02238
G1 X181.555 Y163.073 E.02241
G1 X180.859 Y163.187 E.02211
G1 X167.478 Y163.189 E.41955
G1 X167.017 Y163.13 E.01457
G1 X166.472 Y162.962 E.01788
G1 X165.878 Y162.567 E.02237
G1 X165.426 Y162.014 E.02239
G1 X165.158 Y161.353 E.02236
G1 X165.096 Y160.641 E.02241
G1 X165.247 Y159.943 E.02239
G1 X165.596 Y159.321 E.02236
G1 X166.114 Y158.829 E.0224
G1 X166.807 Y158.495 E.02412
G1 X167.45 Y158.398 E.02039
G1 X174.755 Y158.396 E.22904
G1 X180.831 Y158.396 E.19051
G1 X181.207 Y158.428 E.01183
G1 X181.465 Y158.507 E.00846
M204 S1000
;WIPE_START
G1 F8640
G1 X181.522 Y158.525 E-.0138
G1 X181.836 Y158.622 E-.07588
G1 X182.431 Y159.017 E-.16491
G1 X182.911 Y159.619 E-.17778
G1 X183.151 Y160.232 E-.15201
G1 X183.213 Y160.943 E-.16479
G1 X183.167 Y161.158 E-.05083
;WIPE_END
G1 Z.6 F720
G1 X192.095 Y153.318 F10800
G1 Z.2 F720
G1 E.8 F2100
M204 S800
;TYPE:Perimeter
G1 F1200
G1 X191.722 Y154.36 E.0347
G1 X191.277 Y155.4 E.03547
G1 X190.772 Y156.411 E.03543
G1 X190.206 Y157.39 E.03546
G1 X189.583 Y158.334 E.03546
G1 X188.905 Y159.238 E.03543
G1 X188.174 Y160.101 E.03546
G1 X187.393 Y160.918 E.03544
G1 X186.564 Y161.687 E.03545
G1 X185.691 Y162.405 E.03544
G1 X184.776 Y163.07 E.03547
G1 X183.823 Y163.679 E.03546
G1 X182.836 Y164.229 E.03543
G1 X181.817 Y164.72 E.03547
G1 X180.771 Y165.149 E.03545
G1 X179.701 Y165.514 E.03545
G1 X178.611 Y165.815 E.03546
G1 X177.505 Y166.05 E.03545
G1 X176.387 Y166.218 E.03545
G1 X175.261 Y166.32 E.03545
G1 X174.131 Y166.354 E.03545
G1 X173 Y166.32 E.03548
G1 X171.874 Y166.218 E.03545
G1 X170.756 Y166.05 E.03545
G1 X169.65 Y165.815 E.03545
G1 X168.56 Y165.514 E.03546
G1 X167.49 Y165.149 E.03545
G1 X166.444 Y164.72 E.03545
G1 X165.426 Y164.229 E.03544
G1 X164.438 Y163.679 E.03545
G1 X163.485 Y163.07 E.03546
G1 X162.57 Y162.405 E.03547
G1 X161.697 Y161.687 E.03544
G1 X160.87 Y160.919 E.03539
G1 X160.087 Y160.101 E.0355
G1 X159.356 Y159.238 E.03546
G1 X158.678 Y158.334 E.03543
G1 X158.055 Y157.39 E.03546
G1 X157.489 Y156.411 E.03546
G1 X156.984 Y155.4 E.03543
M73 Q1 S33
G1 X156.539 Y154.36 E.03547
G1 X156.158 Y153.296 E.03544
G1 X155.841 Y152.21 E.03547
G1 X155.589 Y151.108 E.03544
G1 X155.404 Y149.993 E.03544
G1 X155.286 Y148.868 E.03547
G1 X155.235 Y147.739 E.03544
G1 X155.252 Y146.608 E.03547
G1 X155.337 Y145.481 E.03544
G1 X155.488 Y144.36 E.03547
G1 X155.707 Y143.252 E.03541
G1 X156.026 Y142.05 E.03899
G1 X156.341 Y141.081 E.03195
G1 X156.754 Y140.029 E.03544
G1 X157.229 Y139.003 E.03545
G1 X157.765 Y138.007 E.03546
G1 X158.359 Y137.045 E.03545
G1 X159.01 Y136.121 E.03544
G1 X159.715 Y135.237 E.03545
G1 X160.472 Y134.397 E.03545
G1 X161.277 Y133.603 E.03545
G1 X162.128 Y132.859 E.03544
G1 X163.023 Y132.168 E.03545
G1 X163.957 Y131.531 E.03545
G1 X164.928 Y130.951 E.03546
G1 X165.931 Y130.43 E.03544
G1 X166.964 Y129.97 E.03546
G1 X168.023 Y129.573 E.03546
G1 X169.103 Y129.239 E.03544
G1 X170.202 Y128.971 E.03547
G1 X171.314 Y128.77 E.03543
G1 X172.437 Y128.635 E.03546
G1 X173.564 Y128.567 E.0354
G1 X174.807 Y128.574 E.03897
G1 X175.825 Y128.635 E.03198
G1 X176.947 Y128.77 E.03543
G1 X178.06 Y128.971 E.03546
G1 X179.158 Y129.239 E.03544
G1 X180.238 Y129.573 E.03544
G1 X181.297 Y129.97 E.03546
G1 X182.33 Y130.43 E.03546
G1 X183.333 Y130.951 E.03544
G1 X184.304 Y131.531 E.03546
G1 X185.238 Y132.168 E.03545
G1 X186.133 Y132.859 E.03545
G1 X186.984 Y133.603 E.03544
G1 X187.793 Y134.401 E.03563
G1 X188.546 Y135.237 E.03528
G1 X189.251 Y136.121 E.03545
G1 X189.902 Y137.045 E.03544
G1 X190.496 Y138.007 E.03545
G1 X191.032 Y139.003 E.03546
G1 X191.507 Y140.029 E.03545
G1 X191.92 Y141.081 E.03544
G1 X192.27 Y142.157 E.03548
G1 X192.554 Y143.251 E.03544
G1 X192.773 Y144.36 E.03544
G1 X192.925 Y145.481 E.03547
G1 X193.014 Y146.937 E.04574
G1 X193.026 Y147.739 E.02515
G1 X192.975 Y148.868 E.03544
G1 X192.857 Y149.993 E.03547
G1 X192.672 Y151.108 E.03544
G1 X192.42 Y152.21 E.03544
G1 X192.113 Y153.261 E.03433
M204 S1000
G1 X192.113 Y153.261 F10800
G1 X192.458 Y153.424
M204 S800
;TYPE:External perimeter
G1 F1200
G1 X192.073 Y154.498 E.03577
G1 X191.62 Y155.558 E.03614
G1 X191.104 Y156.59 E.03618
G1 X190.527 Y157.588 E.03614
G1 X189.892 Y158.551 E.03617
G1 X189.2 Y159.474 E.03617
G1 X188.455 Y160.353 E.03613
G1 X187.658 Y161.187 E.03617
G1 X186.812 Y161.971 E.03616
G1 X185.921 Y162.704 E.03618
G1 X184.988 Y163.382 E.03616
G1 X184.017 Y164.002 E.03612
G1 X183.009 Y164.564 E.03619
G1 X181.97 Y165.064 E.03615
G1 X180.903 Y165.502 E.03616
G1 X179.812 Y165.874 E.03614
G1 X178.7 Y166.181 E.03617
G1 X177.572 Y166.421 E.03616
G1 X176.432 Y166.593 E.03615
G1 X175.283 Y166.696 E.03617
G1 X174.131 Y166.731 E.03614
G1 X172.978 Y166.696 E.03617
G1 X171.829 Y166.593 E.03617
G1 X170.689 Y166.421 E.03615
G1 X169.561 Y166.181 E.03616
G1 X168.449 Y165.874 E.03617
G1 X167.358 Y165.502 E.03614
G1 X166.291 Y165.064 E.03616
G1 X165.252 Y164.564 E.03615
G1 X164.245 Y164.002 E.03616
G1 X163.273 Y163.382 E.03615
G1 X162.34 Y162.704 E.03616
G1 X161.449 Y161.971 E.03618
G1 X160.605 Y161.188 E.0361
G1 X159.807 Y160.353 E.03621
G1 X159.061 Y159.474 E.03615
G1 X158.369 Y158.551 E.03617
G1 X157.734 Y157.588 E.03617
G1 X157.157 Y156.59 E.03614
G1 X156.641 Y155.558 E.03618
G1 X156.188 Y154.498 E.03614
G1 X155.799 Y153.412 E.03617
G1 X155.476 Y152.305 E.03616
G1 X155.219 Y151.181 E.03615
G1 X155.03 Y150.043 E.03617
G1 X154.91 Y148.896 E.03616
G1 X154.858 Y147.744 E.03616
G1 X154.875 Y146.591 E.03616
G1 X154.961 Y145.441 E.03616
G1 X155.116 Y144.298 E.03617
G1 X155.339 Y143.168 E.03611
G1 X155.664 Y141.944 E.03971
G1 X155.986 Y140.954 E.03264
G1 X156.407 Y139.881 E.03614
G1 X156.892 Y138.834 E.03618
G1 X157.438 Y137.819 E.03614
G1 X158.044 Y136.838 E.03615
G1 X158.708 Y135.895 E.03616
G1 X159.427 Y134.993 E.03617
G1 X160.199 Y134.136 E.03617
G1 X161.02 Y133.327 E.03614
G1 X161.889 Y132.568 E.03618
G1 X162.801 Y131.862 E.03616
G1 X163.754 Y131.213 E.03615
G1 X164.744 Y130.621 E.03617
G1 X165.768 Y130.09 E.03617
G1 X166.821 Y129.621 E.03614
G1 X167.901 Y129.216 E.03617
G1 X169.003 Y128.876 E.03616
G1 X170.123 Y128.602 E.03615
G1 X171.258 Y128.396 E.03617
G1 X172.403 Y128.259 E.03616
G1 X173.553 Y128.19 E.03612
G1 X174.82 Y128.197 E.03973
G1 X175.858 Y128.259 E.0326
G1 X177.003 Y128.396 E.03616
G1 X178.138 Y128.602 E.03617
G1 X179.258 Y128.876 E.03615
G1 X180.36 Y129.216 E.03616
G1 X181.44 Y129.621 E.03617
G1 X182.494 Y130.09 E.03617
G1 X183.517 Y130.621 E.03614
G1 X184.507 Y131.213 E.03617
G1 X185.46 Y131.862 E.03615
G1 X186.372 Y132.568 E.03616
G1 X187.241 Y133.327 E.03618
M73 Q2 S33
G1 X188.066 Y134.14 E.03632
G1 X188.834 Y134.993 E.03599
G1 X189.553 Y135.895 E.03617
G1 X190.217 Y136.838 E.03616
G1 X190.823 Y137.819 E.03615
G1 X191.369 Y138.834 E.03614
G1 X191.854 Y139.881 E.03618
G1 X192.276 Y140.954 E.03615
G1 X192.632 Y142.051 E.03616
G1 X192.922 Y143.167 E.03615
M73 P2 R33
G1 X193.145 Y144.298 E.03614
G1 X193.3 Y145.441 E.03617
G1 X193.391 Y146.931 E.0468
G1 X193.403 Y147.744 E.02549
G1 X193.351 Y148.896 E.03616
G1 X193.231 Y150.043 E.03616
G1 X193.042 Y151.181 E.03617
G1 X192.785 Y152.305 E.03615
G1 X192.475 Y153.366 E.03466
M204 S1000
;WIPE_START
G1 F8640
G1 X192.458 Y153.424 E-.01396
G1 X192.073 Y154.498 E-.26344
G1 X191.62 Y155.558 E-.26617
G1 X191.123 Y156.551 E-.25643
;WIPE_END
G1 Z.6 F720
G1 X185.483 Y132.571 F10800
G1 Z.2 F720
G1 E.8 F2100
M204 S800
;TYPE:Solid infill
;WIDTH:0.421585
G1 F1200
G1 X187.558 Y134.647 E.09242
G1 X188.287 Y135.456 E.03429
G1 X188.979 Y136.324 E.03495
G1 X189.635 Y137.259 E.03596
G1 X184.346 Y131.97 E.23551
G1 X184.121 Y131.817 E.00857
G1 X183.001 Y131.161 E.04087
G1 X190.417 Y138.577 E.33022
G1 X190.728 Y139.155 E.02067
G1 X190.96 Y139.655 E.01736
G1 X181.927 Y130.622 E.40222
G1 X180.985 Y130.215 E.03231
G1 X191.365 Y140.596 E.46222
G1 X191.683 Y141.449 E.02866
G1 X180.128 Y129.894 E.51452
G1 X179.353 Y129.655 E.02554
G1 X191.941 Y142.242 E.5605
G1 X192.13 Y142.967 E.02359
G1 X178.621 Y129.458 E.60153
G1 X177.918 Y129.291 E.02275
G1 X192.289 Y143.662 E.63991
G1 X192.421 Y144.329 E.02141
G1 X177.264 Y129.172 E.67491
G1 X176.63 Y129.073 E.0202
G1 X192.511 Y144.954 E.70715
G1 X192.591 Y145.57 E.01956
G1 X176.021 Y129 E.73783
G1 X175.437 Y128.951 E.01845
G1 X192.634 Y146.149 E.76577
G1 X192.671 Y146.721 E.01805
G1 X174.867 Y128.917 E.79278
G1 X174.325 Y128.91 E.01707
G1 X192.679 Y147.265 E.81729
G1 X192.683 Y147.804 E.01697
G1 X173.786 Y128.908 E.84143
G1 X173.268 Y128.925 E.01632
G1 X192.66 Y148.317 E.86349
G1 X192.637 Y148.829 E.01614
G1 X172.763 Y128.955 E.88495
G1 X172.269 Y128.996 E.01561
G1 X192.587 Y149.315 E.90474
G1 X192.536 Y149.799 E.01532
M73 P3 R33
M73 Q3 S33
G1 X171.791 Y129.054 E.92374
G1 X171.316 Y129.114 E.01507
G1 X192.468 Y150.266 E.94186
G1 X192.391 Y150.725 E.01465
G1 X170.862 Y129.196 E.95865
G1 X170.409 Y129.279 E.0145
G1 X192.308 Y151.178 E.97512
G1 X192.208 Y151.614 E.01408
G1 X169.972 Y129.377 E.99015
G1 X169.541 Y129.482 E.01397
G1 X192.109 Y152.05 E1.00491
G1 X191.992 Y152.468 E.01367
M73 C30
G1 X169.115 Y129.591 E1.01867
G1 X168.706 Y129.717 E.01348
G1 X191.87 Y152.882 E1.03147
G1 X191.744 Y153.291 E.01348
G1 X168.296 Y129.843 E1.0441
G1 X167.899 Y129.982 E.01324
G1 X191.603 Y153.686 E1.05549
G1 X191.462 Y154.08 E.01318
G1 X167.51 Y130.128 E1.06654
G1 X167.12 Y130.274 E.01311
M73 P3 R32
G1 X191.309 Y154.463 E1.07709
G1 X191.149 Y154.838 E.01284
M73 D30
G1 X166.748 Y130.438 E1.08651
G1 X166.378 Y130.603 E.01276
M73 P4 R32
M73 Q4 S33
G1 X190.988 Y155.213 E1.09584
G1 X190.812 Y155.572 E.01259
G1 X166.011 Y130.771 E1.10434
G1 X165.658 Y130.954 E.01252
G1 X190.633 Y155.929 E1.11209
G1 X190.453 Y156.284 E.01253
G1 X165.306 Y131.137 E1.11975
G1 X164.96 Y131.327 E.01243
G1 X190.257 Y156.624 E1.12643
G1 X190.061 Y156.963 E.01233
M73 Q4 S32
G1 X164.625 Y131.527 E1.13262
G1 X164.289 Y131.727 E.01231
G1 X189.86 Y157.298 E1.13863
G1 X189.647 Y157.621 E.01218
G1 X163.964 Y131.937 E1.14364
G1 X163.645 Y132.154 E.01215
G1 X189.434 Y157.943 E1.14834
G1 X189.215 Y158.259 E.01211
G1 X163.327 Y132.371 E1.15274
G1 X163.019 Y132.599 E.01207
G1 X188.986 Y158.565 E1.15624
G1 X188.756 Y158.872 E.01208
M73 P5 R32
M73 Q5 S32
G1 X162.717 Y132.833 E1.15947
G1 X162.415 Y133.066 E.01201
G1 X188.519 Y159.17 E1.16236
G1 X188.273 Y159.459 E.01195
