; generated by PrusaSlicer 2.9.0 on 2025-01-31 at 21:39:53 UTC


;
;
; 

; external perimeters extrusion width = 0.60mm
; perimeters extrusion width = 0.50mm
; infill extrusion width = 0.50mm
; solid infill extrusion width = 0.50mm
; top infill extrusion width = 0.45mm
; first layer extrusion width = 0.42mm

; external perimeters extrusion width = 0.60mm
; perimeters extrusion width = 0.50mm
; infill extrusion width = 0.50mm
; solid infill extrusion width = 0.50mm
; top infill extrusion width = 0.45mm
; first layer extrusion width = 0.42mm

; external perimeters extrusion width = 0.60mm
; perimeters extrusion width = 0.50mm
; infill extrusion width = 0.50mm
; solid infill extrusion width = 0.50mm
; top infill extrusion width = 0.45mm
; first layer extrusion width = 0.42mm

M73 P0 R84
M73 C78
M73 Q0 S85
M73 D79
M201 X1000 Y1000 Z200 E5000 ; sets maximum accelerations, mm/sec^2
M203 X200 Y200 Z12 E120 ; sets maximum feedrates, mm / sec
M204 S1250 T1250 ; sets acceleration (S) and retract acceleration (R), mm/sec^2
M205 X8.00 Y8.00 Z0.40 E4.50 ; sets the jerk limits, mm/sec
M205 S0 T0 ; sets the minimum extruding and travel feed rate, mm/sec

; printing object UserTag1Small v1.stl id:0 copy 0
; stop printing object UserTag1Small v1.stl id:0 copy 0
; printing object UserTag2Small v1.stl id:1 copy 0
; stop printing object UserTag2Small v1.stl id:1 copy 0
; printing object UserTag3Small v1.stl id:2 copy 0
; stop printing object UserTag3Small v1.stl id:2 copy 0

;TYPE:Custom
M862.3 P "MK3S" ; printer model check
M862.1 P0.4 ; nozzle diameter check
M115 U3.14.1 ; tell printer latest fw version
G90 ; use absolute coordinates
M83 ; extruder relative mode
M104 S215 ; set extruder temp
M140 S60 ; set bed temp
M190 S60 ; wait for bed temp
M109 S215 ; wait for extruder temp
G28 W ; home all without mesh bed level
G80 X20.3788 Y31.4587 W208.842 H69.6294 ; mesh bed levelling

G1 Z0.2 F720
G1 Y-3 F1000 ; go outside print area
G92 E0
G1 X60 E9 F1000 ; intro line
G1 X100 E12.5 F1000 ; intro line

G92 E0
M221 S95

; Don't change E values below. Excessive value can damage the printer.

M907 E538 ; set extruder motor current
G21 ; set units to millimeters
G90 ; use absolute coordinates
M83 ; use relative distances for extrusion

M900 K0.05 ; Filament gcode LA 1.5
M900 K30 ; Filament gcode LA 1.0




M107
;LAYER_CHANGE
;Z:0.2
;HEIGHT:0.2
G1 E-.8 F2100
G1 Z.6 F720
G1 X32.233 Y38.985 F10800
G1 Z.2 F720
G1 E.8 F2100
M204 S800
;TYPE:Skirt/Brim
;WIDTH:0.42
G1 F1200
G1 X33.856 Y37.73 E.06433
G1 X35.446 Y36.651 E.06025
G1 X36.983 Y35.732 E.05615
G1 X38.805 Y34.787 E.06435
G1 X40.441 Y34.059 E.05615
G1 X42.238 Y33.38 E.06023
G1 X44.2 Y32.775 E.06438
G1 X45.939 Y32.35 E.05613
G1 X47.829 Y32.003 E.06025
G1 X49.867 Y31.758 E.06436
G1 X51.785 Y31.647 E.06024
G1 X53.652 Y31.649 E.05854
G1 X197.891 Y36.682 E4.52526
G1 X199.733 Y36.792 E.05786
M73 D78
G1 X201.641 Y37.017 E.06024
G1 X203.533 Y37.356 E.06027
G1 X205.4 Y37.808 E.06023
G1 X207.362 Y38.413 E.06438
G1 X209.038 Y39.042 E.05613
G1 X210.795 Y39.82 E.06025
G1 X212.502 Y40.702 E.06024
G1 X214.154 Y41.684 E.06026
G1 X215.85 Y42.84 E.06435
G1 X217.266 Y43.936 E.05614
G1 X218.716 Y45.197 E.06025
G1 X220.18 Y46.64 E.06445
G1 X221.461 Y48.068 E.06015
G1 X222.656 Y49.573 E.06025
G1 X223.758 Y51.146 E.06022
G1 X224.7 Y52.669 E.05615
G1 X225.672 Y54.477 E.06436
G1 X226.425 Y56.101 E.05613
G1 X227.131 Y57.889 E.06027
G1 X227.765 Y59.841 E.06435
G1 X228.245 Y61.701 E.06023
G1 X228.612 Y63.587 E.06024
G1 X228.852 Y65.362 E.05616
G1 X229 Y67.278 E.06025
G1 X228.981 Y70.444 E.09927
G1 X228.736 Y73.16 E.0855
G1 X228.442 Y74.926 E.05613
G1 X228.019 Y76.8 E.06024
G1 X227.484 Y78.646 E.06026
G1 X226.791 Y80.578 E.06436
G1 X226.032 Y82.343 E.06024
G1 X225.231 Y83.945 E.05616
G1 X224.274 Y85.611 E.06024
G1 X223.219 Y87.217 E.06025
G1 X221.988 Y88.859 E.06435
G1 X220.83 Y90.225 E.05615
G1 X219.505 Y91.616 E.06023
G1 X218.099 Y92.926 E.06025
G1 X216.617 Y94.15 E.06027
G1 X214.957 Y95.356 E.06433
G1 X213.448 Y96.32 E.05614
G1 X211.771 Y97.259 E.06026
G1 X210.042 Y98.096 E.06023
G1 X208.265 Y98.829 E.06027
G1 X206.323 Y99.492 E.06434
G1 X204.597 Y99.969 E.05615
G1 X202.718 Y100.372 E.06025
G1 X200.689 Y100.678 E.06434
G1 X198.775 Y100.846 E.06024
G1 X196.985 Y100.9 E.05615
G1 X195.064 Y100.846 E.06026
G1 X50.814 Y95.812 E4.52561
G1 X48.911 Y95.644 E.0599
G1 X47.01 Y95.362 E.06026
G1 X45.003 Y94.935 E.06434
G1 X43.277 Y94.459 E.05614
G1 X41.457 Y93.841 E.06026
G1 X39.558 Y93.063 E.06434
G1 X37.828 Y92.226 E.06026
G1 X36.265 Y91.354 E.05612
G1 X34.535 Y90.249 E.06436
G1 X33.086 Y89.196 E.05616
G1 X31.6 Y87.979 E.06022
G1 X30.096 Y86.584 E.06432
G1 X28.858 Y85.289 E.05617
G1 X27.612 Y83.826 E.06025
G1 X26.381 Y82.183 E.06437
G1 X25.395 Y80.689 E.05613
G1 X24.431 Y79.027 E.06024
G1 X23.074 Y76.166 E.09928
G1 X22.116 Y73.613 E.0855
G1 X21.614 Y71.894 E.05615
G1 X21.183 Y70.021 E.06026
G1 X20.847 Y67.997 E.06433
G1 X20.659 Y66.216 E.05615
G1 X20.569 Y64.296 E.06027
G1 X20.6 Y62.244 E.06435
G1 X20.734 Y60.459 E.05612
G1 X20.988 Y58.554 E.06026
G1 X21.385 Y56.54 E.06436
G1 X21.835 Y54.807 E.05614
G1 X22.425 Y52.979 E.06023
G1 X23.175 Y51.068 E.06437
G1 X23.986 Y49.326 E.06025
G1 X24.835 Y47.749 E.05616
M73 Q0 S84
G1 X25.914 Y46.003 E.06435
G1 X26.944 Y44.539 E.05613
G1 X28.139 Y43.034 E.06025
G1 X29.513 Y41.509 E.06436
G1 X30.788 Y40.253 E.05612
G1 X32.188 Y39.025 E.05839
M204 S1000
;WIPE_START
G1 F8640
G1 X32.233 Y38.985 E-.0139
G1 X33.856 Y37.73 E-.47373
G1 X34.975 Y36.97 E-.31237
;WIPE_END
G1 Z.6 F720
; printing object UserTag1Small v1.stl id:0 copy 0
G1 X64.894 Y86.944 F10800
G1 Z.2 F720
G1 E.8 F2100
M204 S800
;TYPE:Perimeter
;WIDTH:0.419999
G1 F1200
G1 X64.433 Y87.217 E.0168
G1 X63.897 Y87.434 E.01813
G1 X63.335 Y87.569 E.01812
G1 X62.767 Y87.618 E.01788
G1 X42.708 Y87.62 E.62893
G1 X42.182 Y87.582 E.01654
G1 X41.617 Y87.459 E.01813
G1 X41.076 Y87.254 E.01814
G1 X40.572 Y86.97 E.01814
G1 X40.116 Y86.615 E.01812
G1 X39.721 Y86.198 E.01801
G1 X39.388 Y85.721 E.01824
G1 X39.131 Y85.203 E.01813
G1 X38.955 Y84.652 E.01814
G1 X38.862 Y84.082 E.01811
G1 X38.856 Y83.504 E.01812
G1 X38.936 Y82.931 E.01814
G1 X39.1 Y82.377 E.01812
G1 X39.345 Y81.853 E.01814
G1 X39.666 Y81.372 E.01813
G1 X40.044 Y80.955 E.01765
G1 X40.502 Y80.578 E.0186
G1 X40.971 Y80.301 E.01708
G1 X41.536 Y80.067 E.01917
G1 X42.098 Y79.932 E.01812
G1 X42.666 Y79.883 E.01788
G1 X62.725 Y79.881 E.62893
G1 X63.251 Y79.919 E.01654
G1 X63.816 Y80.042 E.01813
G1 X64.357 Y80.247 E.01814
G1 X64.86 Y80.531 E.01811
G1 X65.264 Y80.844 E.01602
G1 X65.714 Y81.306 E.02022
G1 X66.045 Y81.78 E.01813
G1 X66.302 Y82.298 E.01813
G1 X66.478 Y82.849 E.01814
G1 X66.57 Y83.419 E.0181
G1 X66.577 Y83.997 E.01812
G1 X66.497 Y84.57 E.01814
G1 X66.332 Y85.124 E.01812
G1 X66.087 Y85.648 E.01814
G1 X65.767 Y86.129 E.01811
G1 X65.378 Y86.557 E.01813
G1 X64.944 Y86.912 E.01758
M204 S1000
G1 X64.944 Y86.912 F10800
G1 X64.683 Y86.635
M204 S800
;TYPE:External perimeter
G1 F1200
G1 X64.244 Y86.891 E.01593
G1 X63.759 Y87.083 E.01636
G1 X63.251 Y87.201 E.01635
G1 X62.739 Y87.242 E.0161
G1 X42.708 Y87.242 E.62806
G1 X42.184 Y87.202 E.01648
G1 X41.691 Y87.089 E.01586
G1 X41.214 Y86.903 E.01605
G1 X40.761 Y86.644 E.01636
G1 X40.351 Y86.32 E.01638
G1 X39.997 Y85.941 E.01626
G1 X39.699 Y85.509 E.01646
G1 X39.471 Y85.039 E.01638
G1 X39.315 Y84.541 E.01636
G1 X39.235 Y84.025 E.01637
G1 X39.233 Y83.504 E.01634
G1 X39.309 Y82.987 E.01638
G1 X39.46 Y82.488 E.01635
G1 X39.685 Y82.017 E.01637
G1 X39.977 Y81.584 E.01637
G1 X40.32 Y81.212 E.01587
G1 X40.737 Y80.873 E.01685
G1 X41.188 Y80.61 E.01637
G1 X41.674 Y80.418 E.01638
G1 X42.182 Y80.299 E.01636
G1 X42.694 Y80.259 E.0161
G1 X62.725 Y80.258 E.62806
G1 X63.223 Y80.295 E.01566
G1 X63.732 Y80.409 E.01635
G1 X64.219 Y80.598 E.01638
G1 X64.672 Y80.857 E.01636
G1 X65.081 Y81.181 E.01636
G1 X65.438 Y81.562 E.01637
G1 X65.734 Y81.992 E.01637
G1 X65.962 Y82.462 E.01638
G1 X66.118 Y82.96 E.01636
G1 X66.198 Y83.475 E.01634
G1 X66.2 Y83.997 E.01637
G1 X66.124 Y84.514 E.01638
G1 X65.972 Y85.013 E.01636
G1 X65.748 Y85.484 E.01635
G1 X65.455 Y85.917 E.01639
G1 X65.102 Y86.301 E.01635
G1 X64.731 Y86.599 E.01492
M204 S1000
;WIPE_START
G1 F8640
G1 X64.683 Y86.635 E-.01385
G1 X64.244 Y86.891 E-.11734
G1 X63.759 Y87.083 E-.12044
G1 X63.251 Y87.201 E-.12042
G1 X62.739 Y87.242 E-.1186
G1 X61.399 Y87.242 E-.30935
;WIPE_END
G1 Z.6 F720
G1 X35.148 Y86.384 F10800
G1 Z.2 F720
G1 E.8 F2100
M204 S800
;TYPE:Perimeter
G1 F1200
G1 X33.843 Y85.311 E.05297
G1 X32.59 Y84.148 E.0536
G1 X31.404 Y82.908 E.0538
G1 X30.296 Y81.601 E.05372
G1 X29.269 Y80.231 E.05368
G1 X28.325 Y78.801 E.05373
G1 X27.469 Y77.318 E.05369
G1 X26.702 Y75.786 E.05372
G1 X26.029 Y74.21 E.05373
G1 X25.451 Y72.598 E.05369
G1 X24.971 Y70.954 E.0537
G1 X24.59 Y69.284 E.05371
G1 X24.309 Y67.594 E.05372
G1 X24.13 Y65.89 E.05372
G1 X24.053 Y64.179 E.0537
G1 X24.079 Y62.466 E.05372
G1 X24.207 Y60.758 E.0537
G1 X24.437 Y59.06 E.05373
G1 X24.768 Y57.38 E.05369
G1 X25.199 Y55.722 E.05371
G1 X25.728 Y54.093 E.0537
G1 X26.354 Y52.498 E.05372
G1 X27.074 Y50.944 E.0537
G1 X27.886 Y49.435 E.05373
G1 X28.786 Y47.978 E.0537
G1 X29.772 Y46.577 E.05372
G1 X30.84 Y45.238 E.0537
G1 X31.986 Y43.965 E.05371
G1 X33.207 Y42.763 E.05372
G1 X34.497 Y41.636 E.05371
G1 X35.852 Y40.588 E.05371
G1 X37.267 Y39.623 E.0537
G1 X38.738 Y38.744 E.05373
G1 X40.258 Y37.955 E.0537
G1 X41.823 Y37.259 E.0537
G1 X43.427 Y36.657 E.05372
G1 X45.064 Y36.152 E.05371
G1 X46.728 Y35.746 E.0537
G1 X48.413 Y35.44 E.0537
G1 X50.114 Y35.235 E.05372
G1 X51.824 Y35.133 E.05371
M73 C77
G1 X53.537 Y35.133 E.05371
G1 X55.247 Y35.235 E.05371
G1 X56.948 Y35.44 E.05372
G1 X58.633 Y35.746 E.0537
G1 X60.297 Y36.152 E.0537
G1 X61.934 Y36.657 E.05371
G1 X63.538 Y37.259 E.05372
G1 X65.103 Y37.955 E.0537
G1 X66.623 Y38.744 E.0537
G1 X68.094 Y39.623 E.05373
G1 X69.509 Y40.588 E.0537
G1 X70.864 Y41.636 E.05371
G1 X72.154 Y42.763 E.05371
G1 X73.381 Y43.972 E.05401
G1 X74.521 Y45.238 E.05342
G1 X75.589 Y46.577 E.0537
G1 X76.575 Y47.978 E.05372
G1 X77.475 Y49.435 E.0537
G1 X78.287 Y50.944 E.05373
G1 X79.007 Y52.498 E.0537
G1 X79.633 Y54.093 E.05372
G1 X80.162 Y55.722 E.0537
G1 X80.593 Y57.38 E.05371
G1 X80.924 Y59.06 E.05369
G1 X81.154 Y60.758 E.05373
G1 X81.282 Y62.466 E.0537
G1 X81.29 Y62.967 E.01571
G1 X81.308 Y64.179 E.03801
G1 X81.231 Y65.89 E.0537
G1 X81.052 Y67.594 E.05372
G1 X80.771 Y69.284 E.05372
G1 X80.39 Y70.954 E.05371
G1 X79.91 Y72.598 E.0537
G1 X79.332 Y74.21 E.05369
G1 X78.659 Y75.786 E.05373
G1 X77.892 Y77.318 E.05372
G1 X77.036 Y78.801 E.05369
G1 X76.092 Y80.231 E.05373
G1 X75.065 Y81.601 E.05368
G1 X73.957 Y82.908 E.05372
G1 X72.773 Y84.146 E.05371
G1 X71.518 Y85.311 E.05369
G1 X70.194 Y86.399 E.05373
G1 X68.809 Y87.406 E.05369
G1 X67.365 Y88.328 E.05372
G1 X65.869 Y89.163 E.05372
G1 X64.326 Y89.906 E.0537
G1 X62.741 Y90.555 E.0537
G1 X61.12 Y91.109 E.05371
G1 X59.468 Y91.565 E.05373
G1 X57.793 Y91.921 E.05369
G1 X56.099 Y92.176 E.05371
G1 X54.393 Y92.33 E.05371
G1 X52.68 Y92.381 E.05373
G1 X50.968 Y92.33 E.0537
G1 X49.262 Y92.176 E.05371
G1 X47.568 Y91.921 E.05371
G1 X45.893 Y91.565 E.05369
G1 X44.241 Y91.109 E.05373
G1 X42.62 Y90.555 E.05371
G1 X41.035 Y89.906 E.0537
G1 X39.492 Y89.163 E.0537
G1 X37.996 Y88.328 E.05372
G1 X36.552 Y87.406 E.05372
G1 X35.196 Y86.421 E.05255
M204 S1000
G1 X35.196 Y86.421 F10800
G1 X34.926 Y86.69
M204 S800
;TYPE:External perimeter
G1 F1200
G1 X33.595 Y85.595 E.05404
G1 X32.325 Y84.417 E.05431
G1 X31.123 Y83.161 E.05451
G1 X30.001 Y81.837 E.05441
G1 X28.96 Y80.448 E.05442
G1 X28.004 Y78.999 E.05443
G1 X27.136 Y77.496 E.05442
G1 X26.36 Y75.944 E.05441
G1 X25.678 Y74.348 E.05442
G1 X25.092 Y72.714 E.05443
G1 X24.606 Y71.049 E.05438
G1 X24.22 Y69.356 E.05444
G1 X23.935 Y67.644 E.05442
G1 X23.754 Y65.918 E.05441
G1 X23.676 Y64.185 E.05439
G1 X23.702 Y62.449 E.05444
G1 X23.832 Y60.718 E.05443
G1 X24.065 Y58.998 E.05442
G1 X24.4 Y57.296 E.05439
G1 X24.837 Y55.616 E.05443
G1 X25.373 Y53.965 E.05443
G1 X26.007 Y52.35 E.0544
G1 X26.737 Y50.775 E.05443
G1 X27.559 Y49.247 E.0544
G1 X28.471 Y47.77 E.05443
G1 X29.47 Y46.351 E.05441
G1 X30.552 Y44.994 E.05442
G1 X31.714 Y43.704 E.05444
G1 X32.95 Y42.486 E.05441
G1 X34.257 Y41.344 E.05442
G1 X35.63 Y40.283 E.05441
M73 P1 R84
M73 Q1 S84
G1 X37.064 Y39.305 E.05442
G1 X38.554 Y38.415 E.05442
G1 X40.094 Y37.615 E.05441
G1 X41.68 Y36.909 E.05443
G1 X43.305 Y36.3 E.05441
G1 X44.963 Y35.788 E.05441
G1 X46.649 Y35.377 E.05441
G1 X48.357 Y35.067 E.05443
G1 X50.08 Y34.86 E.05441
G1 X51.813 Y34.756 E.05443
G1 X53.548 Y34.756 E.0544
G1 X55.281 Y34.86 E.05443
G1 X57.004 Y35.067 E.05441
G1 X58.712 Y35.377 E.05443
G1 X60.398 Y35.788 E.05441
G1 X62.056 Y36.3 E.05441
G1 X63.681 Y36.909 E.05441
G1 X65.266 Y37.615 E.0544
G1 X66.807 Y38.415 E.05444
G1 X68.297 Y39.305 E.05442
G1 X69.731 Y40.283 E.05442
G1 X71.104 Y41.344 E.05441
G1 X72.411 Y42.486 E.05442
G1 X73.654 Y43.711 E.05472
G1 X74.808 Y44.994 E.05411
G1 X75.891 Y46.351 E.05444
G1 X76.89 Y47.77 E.05441
G1 X77.802 Y49.247 E.05443
G1 X78.624 Y50.775 E.0544
G1 X79.354 Y52.35 E.05443
G1 X79.988 Y53.965 E.0544
G1 X80.524 Y55.616 E.05443
G1 X80.961 Y57.296 E.05443
G1 X81.296 Y58.998 E.05439
G1 X81.529 Y60.718 E.05442
G1 X81.659 Y62.449 E.05443
G1 X81.667 Y62.962 E.01609
G1 X81.685 Y64.185 E.03835
G1 X81.607 Y65.918 E.05439
G1 X81.426 Y67.644 E.05441
G1 X81.141 Y69.356 E.05442
G1 X80.755 Y71.049 E.05444
G1 X80.269 Y72.714 E.05438
G1 X79.683 Y74.348 E.05443
G1 X79.001 Y75.944 E.05442
M73 P1 R83
G1 X78.225 Y77.496 E.05441
G1 X77.357 Y78.999 E.05442
G1 X76.401 Y80.448 E.05443
G1 X75.36 Y81.837 E.05442
G1 X74.237 Y83.161 E.05443
G1 X73.038 Y84.415 E.0544
G1 X71.766 Y85.595 E.0544
G1 X70.425 Y86.698 E.05444
G1 X69.021 Y87.718 E.05441
G1 X67.559 Y88.652 E.0544
G1 X66.043 Y89.497 E.05442
G1 X64.479 Y90.25 E.05443
G1 X62.873 Y90.909 E.05443
G1 X61.231 Y91.47 E.05441
G1 X59.558 Y91.931 E.05441
G1 X57.86 Y92.292 E.05443
G1 X56.144 Y92.551 E.05441
G1 X54.415 Y92.706 E.05443
G1 X52.68 Y92.758 E.05442
G1 X50.946 Y92.706 E.05439
G1 X49.217 Y92.551 E.05443
G1 X47.501 Y92.292 E.05441
G1 X45.803 Y91.931 E.05443
G1 X44.13 Y91.47 E.05441
G1 X42.488 Y90.909 E.05441
G1 X40.882 Y90.25 E.05443
G1 X39.318 Y89.497 E.05443
G1 X37.802 Y88.652 E.05442
G1 X36.34 Y87.718 E.0544
G1 X34.974 Y86.726 E.05293
M204 S1000
;WIPE_START
G1 F8640
G1 X34.926 Y86.69 E-.01385
G1 X33.595 Y85.595 E-.39797
G1 X32.362 Y84.452 E-.38818
;WIPE_END
G1 Z.6 F720
G1 X74.841 Y45.912 F10800
G1 Z.2 F720
G1 E.8 F2100
M204 S800
;TYPE:Solid infill
;WIDTH:0.420079
G1 F1200
G1 X71.923 Y43.012 E.12902
G1 X70.649 Y41.898 E.05307
G1 X69.148 Y40.753 E.05921
G1 X75.651 Y47.255 E.28839
G1 X76.291 Y48.165 E.03489
G1 X76.718 Y48.856 E.02547
G1 X67.564 Y39.702 E.40599
G1 X66.275 Y38.946 E.04686
G1 X77.469 Y50.14 E.49647
G1 X78.063 Y51.267 E.03995
G1 X65.166 Y38.37 E.57199
G1 X64.177 Y37.914 E.03415
G1 X78.523 Y52.261 E.63628
G1 X78.695 Y52.631 E.0128
G1 X78.911 Y53.182 E.01856
G1 X63.237 Y37.508 E.69516
G1 X62.383 Y37.188 E.0286
G1 X79.256 Y54.06 E.74831
G1 X79.527 Y54.865 E.02664
G1 X61.558 Y36.896 E.79694
G1 X60.786 Y36.658 E.02534
G1 X79.784 Y55.655 E.84256
G1 X79.985 Y56.39 E.0239
G1 X60.031 Y36.436 E.88498
G1 X59.326 Y36.264 E.02276
M73 D77
G1 X80.173 Y57.111 E.92459
G1 X80.33 Y57.802 E.02222
G1 X58.62 Y36.092 E.96286
G1 X57.964 Y35.969 E.02093
G1 X80.461 Y58.466 E.99776
G1 X80.591 Y59.129 E.02119
G1 X57.313 Y35.851 E1.0324
G1 X56.677 Y35.749 E.0202
G1 X80.675 Y59.746 E1.06431
G1 X80.758 Y60.363 E.01952
G1 X56.071 Y35.676 E1.09489
G1 X55.465 Y35.603 E.01914
G1 X80.83 Y60.968 E1.12496
G1 X80.873 Y61.545 E.01815
G1 X54.881 Y35.553 E1.15277
G1 X54.314 Y35.519 E.01781
G1 X80.916 Y62.121 E1.17983
G1 X80.946 Y62.685 E.01771
G1 X53.747 Y35.485 E1.20633
G1 X53.2 Y35.472 E.01716
G1 X80.954 Y63.226 E1.23092
G1 X80.962 Y63.768 E.017
G1 X52.667 Y35.472 E1.25493
G1 X52.133 Y35.472 E.01675
M73 Q1 S83
G1 X80.963 Y64.301 E1.27862
G1 X80.94 Y64.812 E.01604
G1 X51.613 Y35.485 E1.30068
G1 X51.11 Y35.516 E.0158
G1 X80.917 Y65.322 E1.32195
G1 X80.894 Y65.833 E.01604
G1 X50.607 Y35.546 E1.34326
G1 X50.106 Y35.578 E.01574
