; generated by PrusaSlicer 2.9.0 on 2025-01-31 at 19:10:42 UTC


;
;
; 

; external perimeters extrusion width = 0.60mm
; perimeters extrusion width = 0.50mm
; infill extrusion width = 0.50mm
; solid infill extrusion width = 0.50mm
; top infill extrusion width = 0.45mm
; first layer extrusion width = 0.42mm

M73 P0 R13
M73 C12
M73 Q0 S13
M73 D12
M201 X1000 Y1000 Z200 E5000 ; sets maximum accelerations, mm/sec^2
M203 X200 Y200 Z12 E120 ; sets maximum feedrates, mm / sec
M204 S1250 T1250 ; sets acceleration (S) and retract acceleration (R), mm/sec^2
M205 X8.00 Y8.00 Z0.40 E4.50 ; sets the jerk limits, mm/sec
M205 S0 T0 ; sets the minimum extruding and travel feed rate, mm/sec

; printing object UserTagSmall v2.stl id:0 copy 0
; stop printing object UserTagSmall v2.stl id:0 copy 0

;TYPE:Custom
M862.3 P "MK3S" ; printer model check
M862.1 P0.4 ; nozzle diameter check
M115 U3.14.1 ; tell printer latest fw version
G90 ; use absolute coordinates
M83 ; extruder relative mode
M104 S215 ; set extruder temp
M140 S60 ; set bed temp
M190 S60 ; wait for bed temp
M109 S215 ; wait for extruder temp
G28 W ; home all without mesh bed level
G80 X101.635 Y81.6338 W46.7326 H46.7347 ; mesh bed levelling

G1 Z0.2 F720
G1 Y-3 F1000 ; go outside print area
G92 E0
G1 X60 E9 F1000 ; intro line
G1 X100 E12.5 F1000 ; intro line

G92 E0
M221 S95

; Don't change E values below. Excessive value can damage the printer.

M907 E538 ; set extruder motor current
G21 ; set units to millimeters
G90 ; use absolute coordinates
M83 ; use relative distances for extrusion

M900 K0.05 ; Filament gcode LA 1.5
M900 K30 ; Filament gcode LA 1.0




M107
;LAYER_CHANGE
;Z:0.2
;HEIGHT:0.2
G1 E-.8 F2100
G1 Z.6 F720
G1 X106.87 Y90.566 F10800
G1 Z.2 F720
G1 E.8 F2100
M204 S800
;TYPE:Skirt/Brim
;WIDTH:0.42
G1 F1200
G1 X108.453 Y88.77 E.07506
G1 X110.433 Y86.972 E.08386
G1 X111.931 Y85.862 E.05846
G1 X113.972 Y84.612 E.07504
G1 X116.394 Y83.478 E.08385
G1 X118.152 Y82.859 E.05844
M73 Q1 S13
G1 X120.472 Y82.266 E.07508
G1 X123.121 Y81.896 E.08386
G1 X124.983 Y81.823 E.05843
M73 P1 R13
G1 X127.374 Y81.94 E.07506
G1 X130.015 Y82.367 E.08388
G1 X131.816 Y82.846 E.05843
G1 X134.066 Y83.663 E.07505
G1 X136.463 Y84.849 E.08385
G1 X138.043 Y85.838 E.05844
G1 X139.952 Y87.282 E.07505
G1 X141.894 Y89.122 E.08388
G1 X143.112 Y90.532 E.05842
G1 X144.511 Y92.475 E.07507
G1 X145.823 Y94.805 E.08384
G1 X146.572 Y96.512 E.05845
G1 X147.336 Y98.781 E.07507
G1 X147.903 Y101.395 E.08387
G1 X148.116 Y103.247 E.05845
G1 X148.179 Y105.541 E.07195
G1 X148.057 Y107.401 E.05844
G1 X147.69 Y109.767 E.07507
G1 X146.99 Y112.348 E.08385
G1 X146.325 Y114.09 E.05846
G1 X145.277 Y116.242 E.07505
G1 X143.847 Y118.502 E.08385
G1 X142.699 Y119.97 E.05843
G1 X141.063 Y121.718 E.07507
G1 X139.742 Y122.889 E.05535
G1 X137.82 Y124.317 E.07508
G1 X135.51 Y125.664 E.08384
G1 X133.814 Y126.438 E.05845
G1 X131.557 Y127.236 E.07506
G1 X128.952 Y127.842 E.08386
G1 X127.104 Y128.082 E.05843
G1 X124.81 Y128.18 E.07199
G1 X122.949 Y128.086 E.05842
G1 X120.578 Y127.754 E.07507
M73 C11
G1 X117.986 Y127.093 E.08387
G1 X116.235 Y126.454 E.05844
G1 X114.067 Y125.439 E.07506
G1 X111.786 Y124.043 E.08385
G1 X110.301 Y122.916 E.05845
G1 X108.529 Y121.307 E.07505
G1 X107.338 Y120.003 E.05537
G1 X105.882 Y118.103 E.07505
G1 X104.5 Y115.813 E.08386
M73 D11
G1 X103.701 Y114.129 E.05844
G1 X102.869 Y111.884 E.07507
G1 X102.224 Y109.289 E.08384
G1 X101.956 Y107.444 E.05846
G1 X101.824 Y105.054 E.07505
G1 X101.89 Y103.289 E.05538
G1 X102.187 Y100.914 E.07505
G1 X102.809 Y98.313 E.08385
G1 X103.422 Y96.552 E.05846
G1 X104.405 Y94.37 E.07504
G1 X105.767 Y92.068 E.08386
G1 X106.835 Y90.614 E.05657
M204 S1000
;WIPE_START
G1 F8640
G1 X106.87 Y90.566 E-.01372
G1 X108.453 Y88.77 E-.55279
G1 X109.202 Y88.09 E-.23349
;WIPE_END
G1 Z.6 F720
; printing object UserTagSmall v2.stl id:0 copy 0
G1 X133.643 Y121.366 F10800
G1 Z.2 F720
G1 E.8 F2100
M204 S800
;TYPE:Perimeter
;WIDTH:0.419999
G1 F1200
G1 X133.514 Y121.461 E.00502
G1 X132.918 Y121.738 E.02061
G1 X132.417 Y121.852 E.01611
G1 X131.674 Y121.879 E.02331
G1 X118.021 Y121.879 E.42808
G1 X117.374 Y121.797 E.02045
M73 Q2 S13
G1 X116.819 Y121.611 E.01835
G1 X116.374 Y121.354 E.01611
G1 X116.041 Y121.081 E.0135
G1 X115.753 Y120.761 E.0135
G1 X115.516 Y120.402 E.01349
G1 X115.335 Y120.012 E.01348
M73 P2 R13
G1 X115.177 Y119.351 E.02131
G1 X115.157 Y118.827 E.01644
G1 X115.215 Y118.401 E.01348
G1 X115.499 Y117.636 E.02559
G1 X115.806 Y117.173 E.01742
G1 X116.131 Y116.839 E.01461
G1 X116.443 Y116.598 E.01236
G1 X117.039 Y116.302 E.02086
G1 X117.559 Y116.16 E.0169
G1 X118.45 Y116.121 E.02796
G1 X132.038 Y116.121 E.42604
G1 X132.501 Y116.16 E.01457
G1 X132.993 Y116.291 E.01596
G1 X133.32 Y116.427 E.0111
G1 X133.686 Y116.646 E.01337
G1 X134.023 Y116.924 E.0137
G1 X134.306 Y117.239 E.01328
G1 X134.543 Y117.598 E.01349
G1 X134.758 Y118.099 E.01709
G1 X134.897 Y118.743 E.02066
G1 X134.897 Y119.257 E.01612
G1 X134.826 Y119.682 E.01351
G1 X134.683 Y120.113 E.01424
G1 X134.501 Y120.476 E.01273
G1 X134.225 Y120.858 E.01478
G1 X133.956 Y121.138 E.01217
G1 X133.692 Y121.331 E.01025
M204 S1000
G1 X133.692 Y121.331 F10800
G1 X133.432 Y121.056
M204 S800
;TYPE:External perimeter
G1 F1200
G1 X133.325 Y121.134 E.00415
G1 X132.781 Y121.387 E.01881
G1 X132.389 Y121.476 E.0126
G1 X131.674 Y121.502 E.02243
G1 X118.021 Y121.502 E.42808
G1 X117.458 Y121.43 E.0178
G1 X116.957 Y121.26 E.01659
G1 X116.609 Y121.059 E.0126
G1 X116.318 Y120.824 E.01173
G1 X116.065 Y120.549 E.01172
G1 X115.856 Y120.239 E.01172
G1 X115.696 Y119.901 E.01173
G1 X115.55 Y119.295 E.01954
G1 X115.536 Y118.799 E.01556
G1 X115.587 Y118.457 E.01084
G1 X115.85 Y117.774 E.02295
G1 X116.082 Y117.429 E.01304
G1 X116.366 Y117.134 E.01284
G1 X116.911 Y116.764 E.02065
G1 X117.306 Y116.605 E.01335
G1 X117.671 Y116.524 E.01172
G1 X118.45 Y116.498 E.02444
G1 X132.038 Y116.498 E.42604
G1 X132.417 Y116.528 E.01192
G1 X132.855 Y116.642 E.01419
G1 X133.428 Y116.925 E.02004
G1 X133.747 Y117.181 E.01282
G1 X133.995 Y117.451 E.01149
G1 X134.204 Y117.761 E.01172
G1 X134.398 Y118.21 E.01534
G1 X134.524 Y118.799 E.01889
G1 X134.505 Y119.322 E.01641
G1 X134.364 Y119.901 E.01868
G1 X134.19 Y120.263 E.01259
G1 X133.949 Y120.602 E.01304
G1 X133.721 Y120.844 E.01042
G1 X133.48 Y121.021 E.00938
M204 S1000
;WIPE_START
G1 F8640
G1 X133.432 Y121.056 E-.01372
G1 X133.325 Y121.134 E-.03057
G1 X132.781 Y121.387 E-.13853
G1 X132.389 Y121.476 E-.09282
G1 X131.674 Y121.502 E-.1652
G1 X130.119 Y121.502 E-.35916
;WIPE_END
G1 Z.6 F720
G1 X112.831 Y120.704 F10800
G1 Z.2 F720
G1 E.8 F2100
M204 S800
;TYPE:Perimeter
G1 F1200
G1 X111.931 Y119.964 E.03653
G1 X111.061 Y119.157 E.03721
G1 X110.238 Y118.296 E.03735
G1 X109.469 Y117.389 E.03728
G1 X108.756 Y116.438 E.03727
G1 X108.101 Y115.446 E.03727
G1 X107.507 Y114.416 E.03728
G1 X106.975 Y113.353 E.03727
G1 X106.508 Y112.26 E.03727
G1 X106.107 Y111.14 E.0373
G1 X105.773 Y109.999 E.03728
G1 X105.509 Y108.84 E.03727
G1 X105.314 Y107.667 E.03728
G1 X105.19 Y106.485 E.03726
G1 X105.136 Y105.297 E.03729
G1 X105.154 Y104.108 E.03728
G1 X105.243 Y102.923 E.03726
G1 X105.402 Y101.745 E.03727
G1 X105.632 Y100.578 E.03729
G1 X105.931 Y99.428 E.03726
G1 X106.299 Y98.297 E.03729
G1 X106.733 Y97.19 E.03728
G1 X107.233 Y96.112 E.03726
G1 X107.796 Y95.065 E.03727
G1 X108.457 Y94.002 E.03925
G1 X109.106 Y93.081 E.03533
G1 X109.847 Y92.152 E.03726
G1 X110.642 Y91.268 E.03728
G1 X111.489 Y90.434 E.03727
G1 X112.385 Y89.652 E.03729
G1 X113.325 Y88.924 E.03728
G1 X114.307 Y88.255 E.03726
G1 X115.328 Y87.645 E.03729
G1 X116.383 Y87.097 E.03728
G1 X117.469 Y86.614 E.03727
G1 X118.582 Y86.196 E.03728
G1 X119.718 Y85.845 E.03728
G1 X120.873 Y85.564 E.03727
G1 X122.043 Y85.351 E.03729
G1 X123.224 Y85.209 E.0373
G1 X124.409 Y85.138 E.03722
G1 X125.662 Y85.142 E.03929
G1 X126.786 Y85.209 E.0353
G1 X127.966 Y85.351 E.03726
G1 X129.136 Y85.564 E.03729
G1 X130.291 Y85.845 E.03727
G1 X131.427 Y86.196 E.03728
G1 X132.54 Y86.614 E.03728
G1 X133.626 Y87.097 E.03727
G1 X134.681 Y87.645 E.03728
G1 X135.702 Y88.255 E.03729
G1 X136.684 Y88.924 E.03726
G1 X137.625 Y89.652 E.0373
G1 X138.52 Y90.434 E.03726
G1 X139.371 Y91.272 E.03745
G1 X140.163 Y92.152 E.03712
G1 X140.904 Y93.081 E.03726
G1 X141.588 Y94.053 E.03727
G1 X142.213 Y95.065 E.03729
G1 X142.777 Y96.112 E.03729
G1 X143.276 Y97.19 E.03725
M73 Q3 S13
G1 X143.711 Y98.297 E.03729
G1 X144.078 Y99.428 E.03728
G1 X144.377 Y100.578 E.03726
G1 X144.607 Y101.745 E.03729
G1 X144.767 Y102.923 E.03727
G1 X144.861 Y104.454 E.04809
M73 P3 R13
G1 X144.873 Y105.297 E.02643
G1 X144.82 Y106.485 E.03729
G1 X144.696 Y107.667 E.03726
G1 X144.501 Y108.84 E.03728
G1 X144.236 Y109.999 E.03728
G1 X143.903 Y111.14 E.03727
M73 P3 R12
G1 X143.502 Y112.26 E.0373
G1 X143.035 Y113.353 E.03727
G1 X142.503 Y114.416 E.03727
G1 X141.908 Y115.446 E.0373
G1 X141.253 Y116.438 E.03727
G1 X140.54 Y117.389 E.03727
G1 X139.771 Y118.296 E.03728
G1 X138.95 Y119.155 E.03726
G1 X138.078 Y119.964 E.0373
G1 X137.16 Y120.719 E.03727
G1 X136.198 Y121.418 E.03728
G1 X135.196 Y122.058 E.03728
G1 X134.158 Y122.637 E.03727
G1 X133.087 Y123.153 E.03727
G1 X131.987 Y123.604 E.03728
G1 X130.862 Y123.988 E.03727
M73 Q3 S12
G1 X129.716 Y124.304 E.03727
G1 X128.553 Y124.551 E.03728
G1 X127.378 Y124.728 E.03726
G1 X126.13 Y124.837 E.03928
G1 X125.005 Y124.871 E.03529
G1 X123.816 Y124.835 E.0373
G1 X122.632 Y124.729 E.03727
G1 X121.457 Y124.551 E.03726
G1 X120.294 Y124.304 E.03728
G1 X119.148 Y123.988 E.03727
G1 X118.023 Y123.604 E.03727
G1 X116.923 Y123.153 E.03728
G1 X115.851 Y122.637 E.0373
G1 X114.813 Y122.058 E.03727
G1 X113.811 Y121.418 E.03728
G1 X112.879 Y120.741 E.03612
M204 S1000
G1 X112.879 Y120.741 F10800
G1 X112.609 Y121.01
M204 S800
;TYPE:External perimeter
G1 F1200
G1 X111.683 Y120.248 E.0376
G1 X110.796 Y119.426 E.03792
G1 X109.958 Y118.549 E.03803
G1 X109.174 Y117.624 E.03802
G1 X108.448 Y116.655 E.03796
G1 X107.78 Y115.644 E.03799
G1 X107.174 Y114.595 E.03798
G1 X106.633 Y113.511 E.03799
G1 X106.156 Y112.397 E.038
G1 X105.748 Y111.257 E.03796
G1 X105.408 Y110.094 E.03799
G1 X105.138 Y108.913 E.03798
G1 X104.94 Y107.718 E.03798
G1 X104.813 Y106.513 E.03799
G1 X104.759 Y105.303 E.03798
G1 X104.777 Y104.092 E.03797
G1 X104.868 Y102.884 E.03798
G1 X105.03 Y101.683 E.038
G1 X105.264 Y100.494 E.038
G1 X105.569 Y99.322 E.03797
G1 X105.944 Y98.17 E.03799
G1 X106.386 Y97.042 E.03799
G1 X106.895 Y95.943 E.03797
G1 X107.469 Y94.876 E.03799
G1 X108.143 Y93.794 E.03997
G1 X108.804 Y92.855 E.036
G1 X109.559 Y91.908 E.03797
G1 X110.37 Y91.007 E.03801
G1 X111.233 Y90.157 E.03798
G1 X112.145 Y89.36 E.03798
G1 X113.103 Y88.619 E.03797
G1 X114.104 Y87.937 E.03798
G1 X115.144 Y87.315 E.038
G1 X116.219 Y86.757 E.03798
G1 X117.326 Y86.265 E.03798
G1 X118.46 Y85.839 E.03798
G1 X119.618 Y85.482 E.03799
G1 X120.795 Y85.195 E.03799
G1 X121.987 Y84.978 E.03799
G1 X123.19 Y84.834 E.03799
G1 X124.399 Y84.761 E.03798
G1 X125.674 Y84.765 E.03998
G1 X126.82 Y84.834 E.036
G1 X128.022 Y84.978 E.03796
G1 X129.214 Y85.195 E.03799
G1 X130.391 Y85.482 E.03799
G1 X131.549 Y85.839 E.03799
G1 X132.683 Y86.265 E.03798
G1 X133.79 Y86.757 E.03798
G1 X134.865 Y87.315 E.03798
G1 X135.905 Y87.937 E.038
G1 X136.906 Y88.619 E.03798
G1 X137.864 Y89.36 E.03797
G1 X138.777 Y90.157 E.038
G1 X139.644 Y91.012 E.03818
G1 X140.45 Y91.908 E.03779
G1 X141.206 Y92.855 E.03799
G1 X141.903 Y93.845 E.03796
G1 X142.54 Y94.876 E.038
G1 X143.114 Y95.943 E.03799
G1 X143.623 Y97.042 E.03797
G1 X144.066 Y98.17 E.038
G1 X144.44 Y99.322 E.03798
G1 X144.745 Y100.494 E.03797
G1 X144.979 Y101.683 E.038
G1 X145.142 Y102.884 E.038
G1 X145.238 Y104.449 E.04916
G1 X145.25 Y105.303 E.02678
G1 X145.196 Y106.513 E.03798
G1 X145.069 Y107.718 E.03799
G1 X144.871 Y108.913 E.03798
G1 X144.601 Y110.094 E.03798
G1 X144.262 Y111.257 E.03798
G1 X143.853 Y112.397 E.03797
G1 X143.377 Y113.511 E.03798
G1 X142.835 Y114.595 E.038
G1 X142.229 Y115.644 E.03798
G1 X141.562 Y116.655 E.03798
G1 X140.835 Y117.624 E.03798
G1 X140.052 Y118.549 E.038
G1 X139.215 Y119.424 E.03797
G1 X138.327 Y120.248 E.03798
G1 X137.391 Y121.018 E.038
G1 X136.411 Y121.73 E.03798
G1 X135.39 Y122.382 E.03798
G1 X134.332 Y122.972 E.03798
G1 X133.24 Y123.497 E.03799
G1 X132.119 Y123.957 E.03799
G1 X130.973 Y124.348 E.03797
M73 Q4 S12
G1 X129.805 Y124.671 E.038
G1 X128.62 Y124.923 E.03799
G1 X127.423 Y125.103 E.03795
G1 X126.152 Y125.214 E.04
G1 X125.005 Y125.248 E.03598
G1 X123.794 Y125.212 E.03799
M73 P4 R12
G1 X122.587 Y125.103 E.038
G1 X121.389 Y124.923 E.03798
G1 X120.204 Y124.671 E.03799
G1 X119.036 Y124.348 E.038
G1 X117.89 Y123.957 E.03797
G1 X116.769 Y123.497 E.03799
G1 X115.678 Y122.972 E.03796
G1 X114.62 Y122.382 E.03798
G1 X113.599 Y121.73 E.03798
G1 X112.657 Y121.046 E.0365
M204 S1000
;WIPE_START
G1 F8640
G1 X112.609 Y121.01 E-.01385
G1 X111.683 Y120.248 E-.2769
G1 X110.796 Y119.426 E-.27924
G1 X110.107 Y118.705 E-.23001
;WIPE_END
G1 Z.6 F720
G1 X140.641 Y93.024 F10800
G1 Z.2 F720
G1 E.8 F2100
M204 S800
;TYPE:Solid infill
;WIDTH:0.422091
G1 F1200
G1 X138.289 Y90.683 E.10463
G1 X137.409 Y89.914 E.03685
G1 X136.485 Y89.199 E.03684
G1 X135.841 Y88.76 E.02457
G1 X141.266 Y94.185 E.24189
G1 X141.919 Y95.234 E.03896
G1 X142.082 Y95.537 E.01085
G1 X134.454 Y87.909 E.34011
G1 X133.358 Y87.349 E.0388
G1 X142.646 Y96.638 E.41415
G1 X142.964 Y97.324 E.02384
G1 X143.073 Y97.6 E.00936
G1 X132.393 Y86.921 E.47617
G1 X131.535 Y86.599 E.02889
G1 X143.412 Y98.476 E.52957
G1 X143.67 Y99.27 E.02632
G1 X130.738 Y86.339 E.57658
G1 X129.983 Y86.12 E.02478
G1 X143.881 Y100.017 E.61966
G1 X144.062 Y100.735 E.02335
G1 X129.274 Y85.947 E.65936
G1 X128.603 Y85.812 E.02158
M73 P5 R12
M73 Q5 S12
G1 X144.194 Y101.402 E.69514
G1 X144.306 Y102.051 E.02076
G1 X127.948 Y85.693 E.72936
G1 X127.336 Y85.617 E.01944
G1 X144.39 Y102.671 E.7604
G1 X144.452 Y103.27 E.01899
G1 X126.728 Y85.546 E.79027
G1 X126.158 Y85.512 E.018
G1 X144.496 Y103.849 E.81763
G1 X144.52 Y104.41 E.0177
G1 X125.591 Y85.481 E.844
G1 X125.053 Y85.48 E.01696
M73 Q6 S12
G1 X144.529 Y104.955 E.86837
G1 X144.525 Y105.487 E.01677
M73 P6 R12
G1 X124.516 Y85.478 E.89215
G1 X124.004 Y85.503 E.01616
G1 X144.502 Y106 E.91393
G1 X144.476 Y106.511 E.01613
G1 X123.498 Y85.533 E.93536
G1 X123.006 Y85.577 E.01557
G1 X144.425 Y106.996 E.95502
G1 X144.374 Y107.481 E.01538
G1 X122.528 Y85.635 E.97406
G1 X122.051 Y85.695 E.01516
M73 P7 R12
M73 Q7 S12
G1 X144.305 Y107.948 E.99223
G1 X144.228 Y108.408 E.0147
G1 X121.597 Y85.777 E1.00906
G1 X121.143 Y85.859 E.01455
G1 X144.147 Y108.863 E1.02569
G1 X144.048 Y109.3 E.01413
G1 X120.702 Y85.955 E1.04092
G1 X120.271 Y86.06 E.01399
G1 X143.948 Y109.737 E1.0557
G1 X143.836 Y110.16 E.0138
M73 P8 R12
M73 Q8 S12
G1 X119.84 Y86.165 E1.0699
G1 X119.429 Y86.29 E.01354
G1 X143.714 Y110.575 E1.08281
G1 X143.593 Y110.99 E.01363
G1 X119.019 Y86.416 E1.0957
G1 X118.613 Y86.547 E.01345
G1 X143.454 Y111.387 E1.10758
G1 X143.312 Y111.782 E.01323
M73 P9 R12
M73 C10
M73 Q9 S12
G1 X118.223 Y86.693 E1.11866
G1 X117.834 Y86.839 E.0131
M73 D10
G1 X143.169 Y112.175 E1.12965
G1 X143.008 Y112.55 E.01287
G1 X117.451 Y86.993 E1.13953
G1 X117.08 Y87.158 E.0128
G1 X142.848 Y112.926 E1.14893
G1 X142.676 Y113.29 E.01269
G1 X116.709 Y87.324 E1.15778
G1 X116.347 Y87.498 E.01266
M73 P10 R12
M73 Q10 S12
G1 X142.5 Y113.65 E1.16608
G1 X142.323 Y114.01 E.01265
G1 X115.994 Y87.681 E1.17395
G1 X115.641 Y87.864 E.01254
M73 P10 R11
G1 X142.141 Y114.364 E1.18157
G1 X141.945 Y114.704 E.01237
M73 Q10 S11
G1 X115.298 Y88.058 E1.1881
G1 X114.963 Y88.258 E.0123
M73 P11 R11
M73 Q11 S11
G1 X141.748 Y115.044 E1.1943
G1 X141.546 Y115.378 E.01231
G1 X114.627 Y88.459 E1.20025
G1 X114.301 Y88.669 E.01223
G1 X141.333 Y115.701 E1.20529
G1 X141.12 Y116.024 E.0122
G1 X113.982 Y88.887 E1.21
G1 X113.664 Y89.104 E.01214
M73 P12 R11
M73 Q12 S11
G1 X140.901 Y116.342 E1.21445
G1 X140.671 Y116.648 E.01207
G1 X113.354 Y89.331 E1.218
G1 X113.052 Y89.565 E.01205
G1 X140.442 Y116.955 E1.22125
G1 X140.208 Y117.257 E.01205
G1 X112.749 Y89.799 E1.22431
G1 X112.455 Y90.041 E.01201
M73 P13 R11
M73 Q13 S11
G1 X139.962 Y117.547 E1.22645
G1 X139.716 Y117.837 E.01199
