; generated by PrusaSlicer 2.9.0 on 2025-01-31 at 18:30:27 UTC


;
;
; 

; external perimeters extrusion width = 0.60mm
; perimeters extrusion width = 0.50mm
; infill extrusion width = 0.50mm
; solid infill extrusion width = 0.50mm
; top infill extrusion width = 0.45mm
; first layer extrusion width = 0.42mm

M73 P0 R23
M73 C21
M73 Q0 S23
M73 D21
M201 X1000 Y1000 Z200 E5000 ; sets maximum accelerations, mm/sec^2
M203 X200 Y200 Z12 E120 ; sets maximum feedrates, mm / sec
M204 S1250 T1250 ; sets acceleration (S) and retract acceleration (R), mm/sec^2
M205 X8.00 Y8.00 Z0.40 E4.50 ; sets the jerk limits, mm/sec
M205 S0 T0 ; sets the minimum extruding and travel feed rate, mm/sec

; printing object UserTag v2.stl id:0 copy 0
; stop printing object UserTag v2.stl id:0 copy 0

;TYPE:Custom
M862.3 P "MK3S" ; printer model check
M862.1 P0.4 ; nozzle diameter check
M115 U3.14.1 ; tell printer latest fw version
G90 ; use absolute coordinates
M83 ; extruder relative mode
M104 S215 ; set extruder temp
M140 S60 ; set bed temp
M190 S60 ; wait for bed temp
M109 S215 ; wait for extruder temp
G28 W ; home all without mesh bed level
G80 X92.6307 Y72.6265 W64.7397 H64.7469 ; mesh bed levelling

G1 Z0.2 F720
G1 Y-3 F1000 ; go outside print area
G92 E0
G1 X60 E9 F1000 ; intro line
G1 X100 E12.5 F1000 ; intro line

G92 E0
M221 S95

; Don't change E values below. Excessive value can damage the printer.

M907 E538 ; set extruder motor current
G21 ; set units to millimeters
G90 ; use absolute coordinates
M83 ; use relative distances for extrusion

M900 K0.05 ; Filament gcode LA 1.5
M900 K30 ; Filament gcode LA 1.0




M107
;LAYER_CHANGE
;Z:0.2
;HEIGHT:0.2
G1 E-.8 F2100
G1 Z.6 F720
G1 X100.724 Y83.872 F10800
G1 Z.2 F720
G1 E.8 F2100
M204 S800
;TYPE:Skirt/Brim
;WIDTH:0.42
G1 F1200
G1 X102.123 Y82.364 E.0645
G1 X103.518 Y81.036 E.06039
G1 X104.887 Y79.876 E.05626
G1 X106.533 Y78.642 E.0645
G1 X108.142 Y77.584 E.06038
G1 X109.812 Y76.625 E.06038
G1 X111.536 Y75.767 E.06038
G1 X113.186 Y75.061 E.05627
G1 X115.17 Y74.354 E.06604
G1 X116.972 Y73.831 E.05883
G1 X118.851 Y73.407 E.0604
G1 X120.751 Y73.095 E.06037
G1 X122.536 Y72.907 E.05628
G1 X124.64 Y72.816 E.06603
G1 X126.516 Y72.848 E.05883
G1 X128.436 Y72.996 E.06038
G1 X130.215 Y73.237 E.05629
G1 X132.105 Y73.605 E.06037
G1 X134.096 Y74.122 E.0645
G1 X135.926 Y74.721 E.06037
G1 X137.717 Y75.428 E.06037
G1 X139.463 Y76.241 E.06039
G1 X141.044 Y77.092 E.0563
G1 X142.793 Y78.173 E.06447
G1 X144.366 Y79.285 E.0604
G1 X145.769 Y80.404 E.05627
G1 X147.203 Y81.69 E.06039
G1 X148.557 Y83.059 E.06037
G1 X149.911 Y84.608 E.06451
G1 X151.009 Y86.028 E.05628
G1 X152.097 Y87.617 E.06038
G1 X153.174 Y89.426 E.06601
G1 X154.035 Y91.093 E.05883
G1 X154.815 Y92.854 E.06039
G1 X155.446 Y94.535 E.0563
G1 X156.017 Y96.374 E.06038
G1 X156.505 Y98.372 E.06449
G1 X156.845 Y100.267 E.06037
G1 X157.071 Y102.18 E.0604
G1 X157.178 Y103.972 E.05629
G1 X157.182 Y105.897 E.06036
G1 X157.059 Y107.95 E.06449
G1 X156.825 Y109.862 E.0604
G1 X156.505 Y111.628 E.05627
G1 X156.017 Y113.626 E.06449
G1 X155.446 Y115.465 E.06038
G1 X154.765 Y117.267 E.0604
G1 X154.035 Y118.907 E.05629
G1 X153.151 Y120.618 E.06038
G1 X152.167 Y122.273 E.06037
G1 X151.085 Y123.866 E.06038
G1 X149.827 Y125.493 E.06448
G1 X148.646 Y126.845 E.05629
G1 X147.298 Y128.22 E.06037
G1 X145.769 Y129.596 E.0645
G1 X144.261 Y130.794 E.06039
G1 X142.793 Y131.827 E.05628
G1 X141.157 Y132.843 E.06038
G1 X139.463 Y133.759 E.06038
G1 X137.597 Y134.623 E.06447
G1 X135.803 Y135.323 E.06038
G1 X134.096 Y135.878 E.05628
G1 X132.105 Y136.395 E.0645
G1 X130.215 Y136.763 E.06037
G1 X128.436 Y137.004 E.05629
G1 X126.516 Y137.152 E.06038
G1 X124.591 Y137.185 E.06037
G1 X122.536 Y137.093 E.0645
G1 X120.621 Y136.887 E.06039
G1 X118.722 Y136.568 E.06038
M73 Q1 S23
G1 X116.972 Y136.169 E.05628
G1 X115.122 Y135.632 E.0604
G1 X113.186 Y134.939 E.06447
M73 P1 R23
G1 X111.417 Y134.178 E.06038
G1 X109.812 Y133.375 E.05627
G1 X108.031 Y132.347 E.06448
G1 X106.425 Y131.283 E.0604
G1 X104.887 Y130.124 E.06038
G1 X103.518 Y128.964 E.05626
G1 X102.123 Y127.636 E.06039
G1 X100.724 Y126.128 E.0645
G1 X99.504 Y124.638 E.06038
G1 X98.375 Y123.078 E.06038
G1 X97.409 Y121.565 E.05628
G1 X96.468 Y119.885 E.06038
G1 X95.629 Y118.152 E.06037
G1 X94.895 Y116.371 E.0604
G1 X94.217 Y114.377 E.06604
G1 X93.721 Y112.567 E.05884
G1 X93.325 Y110.683 E.06036
G1 X93.042 Y108.778 E.06039
G1 X92.881 Y106.99 E.05629
G1 X92.819 Y104.935 E.06446
G1 X92.881 Y103.01 E.06039
G1 X93.042 Y101.222 E.05629
G1 X93.358 Y99.14 E.06603
G1 X93.752 Y97.305 E.05885
G1 X94.268 Y95.45 E.06037
G1 X94.895 Y93.629 E.06039
G1 X95.575 Y91.968 E.05627
G1 X96.492 Y90.071 E.06606
G1 X97.409 Y88.435 E.0588
G1 X98.449 Y86.814 E.06039
G1 X99.504 Y85.362 E.05627
G1 X100.686 Y83.918 E.05851
M204 S1000
;WIPE_START
G1 F8640
G1 X100.724 Y83.872 E-.01378
G1 X102.123 Y82.364 E-.47497
G1 X103.099 Y81.435 E-.31125
;WIPE_END
G1 Z.6 F720
; printing object UserTag v2.stl id:0 copy 0
G1 X153.557 Y100.283 F10800
M73 P1 R22
G1 Z.2 F720
G1 E.8 F2100
M204 S800
;TYPE:Perimeter
;WIDTH:0.419999
G1 F1200
G1 X153.786 Y101.975 E.05354
G1 X153.916 Y103.702 E.0543
G1 X153.929 Y104.567 E.02712
G1 X153.942 Y105.433 E.02716
G1 X153.864 Y107.163 E.0543
G1 X153.683 Y108.884 E.05426
G1 X153.399 Y110.592 E.05429
G1 X153.014 Y112.28 E.05429
G1 X152.529 Y113.942 E.05428
G1 X151.944 Y115.572 E.0543
G1 X151.264 Y117.164 E.05428
G1 X150.489 Y118.713 E.05431
M73 Q1 S22
G1 X149.624 Y120.212 E.05426
G1 X148.67 Y121.657 E.05429
G1 X147.631 Y123.043 E.05431
G1 X146.512 Y124.363 E.05426
G1 X145.315 Y125.615 E.05431
G1 X144.046 Y126.792 E.05427
G1 X142.709 Y127.892 E.05429
G1 X141.308 Y128.91 E.0543
G1 X139.849 Y129.842 E.05428
G1 X138.337 Y130.685 E.05428
G1 X136.777 Y131.436 E.05429
G1 X135.175 Y132.093 E.05429
G1 X133.536 Y132.652 E.0543
G1 X131.867 Y133.113 E.05429
G1 X130.174 Y133.473 E.05427
G1 X128.462 Y133.731 E.05428
G1 X126.748 Y133.886 E.05396
G1 X125.007 Y133.938 E.05461
G1 X123.265 Y133.886 E.05464
G1 X121.552 Y133.731 E.05393
G1 X119.84 Y133.473 E.05428
G1 X118.146 Y133.113 E.0543
G1 X116.477 Y132.652 E.05429
G1 X114.839 Y132.093 E.05427
G1 X113.237 Y131.436 E.05429
G1 X111.677 Y130.685 E.05429
G1 X110.164 Y129.842 E.05431
G1 X108.705 Y128.91 E.05428
G1 X107.305 Y127.892 E.05427
G1 X105.967 Y126.792 E.05431
G1 X104.698 Y125.615 E.05427
G1 X103.501 Y124.363 E.05431
G1 X102.382 Y123.043 E.05426
G1 X101.343 Y121.657 E.05431
G1 X100.39 Y120.212 E.05427
G1 X99.524 Y118.713 E.05428
G1 X98.749 Y117.164 E.05431
G1 X98.069 Y115.572 E.05428
G1 X97.485 Y113.942 E.05429
G1 X96.999 Y112.28 E.05429
G1 X96.614 Y110.592 E.05429
G1 X96.33 Y108.884 E.05429
G1 X96.149 Y107.163 E.05426
G1 X96.072 Y105.433 E.0543
G1 X96.098 Y103.702 E.05428
G1 X96.227 Y101.975 E.0543
G1 X96.46 Y100.259 E.0543
G1 X96.794 Y98.561 E.05426
G1 X97.23 Y96.885 E.0543
G1 X97.765 Y95.238 E.0543
G1 X98.397 Y93.627 E.05426
G1 X99.125 Y92.056 E.05429
G1 X99.946 Y90.531 E.0543
G1 X100.856 Y89.058 E.05429
G1 X101.852 Y87.642 E.05428
G1 X102.932 Y86.289 E.05428
G1 X104.09 Y85.002 E.05428
G1 X105.324 Y83.787 E.0543
G1 X106.628 Y82.648 E.05429
G1 X107.997 Y81.589 E.05427
G1 X109.428 Y80.613 E.05431
G1 X110.914 Y79.725 E.05428
G1 X112.451 Y78.928 E.05429
G1 X114.033 Y78.223 E.0543
G1 X115.654 Y77.615 E.05428
G1 X117.308 Y77.105 E.05427
G1 X118.99 Y76.694 E.05429
G1 X120.694 Y76.385 E.0543
G1 X122.413 Y76.178 E.05429
G1 X124.141 Y76.075 E.05428
G1 X125.872 Y76.075 E.05427
G1 X127.601 Y76.178 E.05431
G1 X129.32 Y76.385 E.05429
G1 X131.023 Y76.694 E.05427
G1 X132.705 Y77.105 E.05429
G1 X134.36 Y77.615 E.0543
G1 X135.981 Y78.223 E.05428
G1 X137.562 Y78.928 E.05428
G1 X139.099 Y79.725 E.05429
G1 X140.586 Y80.613 E.0543
G1 X142.016 Y81.589 E.05428
G1 X143.386 Y82.648 E.05429
G1 X144.69 Y83.787 E.05429
G1 X145.923 Y85.002 E.05428
G1 X147.082 Y86.289 E.0543
G1 X148.161 Y87.642 E.05426
G1 X149.158 Y89.058 E.0543
G1 X150.068 Y90.531 E.05429
G1 X150.888 Y92.056 E.05429
G1 X151.616 Y93.627 E.05429
G1 X152.249 Y95.238 E.05427
G1 X152.784 Y96.885 E.0543
G1 X153.219 Y98.561 E.05429
G1 X153.547 Y100.224 E.05315
M204 S1000
G1 X153.547 Y100.224 F10800
G1 X153.928 Y100.21
M204 S800
;TYPE:External perimeter
G1 F1200
G1 X154.161 Y101.936 E.05461
G1 X154.293 Y103.685 E.05499
G1 X154.306 Y104.562 E.0275
G1 X154.319 Y105.439 E.0275
G1 X154.24 Y107.191 E.05499
G1 X154.057 Y108.935 E.05498
G1 X153.769 Y110.665 E.05499
M73 Q2 S22
G1 X153.379 Y112.375 E.05499
G1 X152.887 Y114.059 E.05501
G1 X152.296 Y115.71 E.05498
G1 X151.606 Y117.323 E.05501
G1 X150.822 Y118.892 E.05499
M73 P2 R22
G1 X149.945 Y120.411 E.055
G1 X148.978 Y121.874 E.05499
G1 X147.926 Y123.278 E.05501
G1 X146.792 Y124.616 E.05499
G1 X145.58 Y125.884 E.055
G1 X144.294 Y127.077 E.055
G1 X142.94 Y128.191 E.05498
G1 X141.521 Y129.222 E.055
G1 X140.043 Y130.166 E.05499
G1 X138.511 Y131.02 E.05499
G1 X136.93 Y131.781 E.05501
G1 X135.307 Y132.446 E.05499
G1 X133.648 Y133.013 E.05497
G1 X131.957 Y133.48 E.055
G1 X130.241 Y133.844 E.055
G1 X128.507 Y134.106 E.05499
G1 X126.771 Y134.262 E.05465
G1 X125.007 Y134.315 E.05533
G1 X123.243 Y134.262 E.05533
G1 X121.507 Y134.106 E.05465
G1 X119.772 Y133.844 E.05502
G1 X118.057 Y133.48 E.05497
G1 X116.366 Y133.013 E.055
G1 X114.706 Y132.446 E.055
G1 X113.083 Y131.781 E.05499
G1 X111.503 Y131.02 E.05499
G1 X109.971 Y130.166 E.05499
G1 X108.493 Y129.222 E.05499
G1 X107.074 Y128.191 E.055
G1 X105.719 Y127.077 E.055
G1 X104.433 Y125.884 E.055
G1 X103.221 Y124.616 E.055
G1 X102.087 Y123.278 E.05499
G1 X101.035 Y121.874 E.05501
G1 X100.069 Y120.411 E.05497
G1 X99.192 Y118.892 E.055
G1 X98.407 Y117.323 E.05501
G1 X97.718 Y115.71 E.055
G1 X97.126 Y114.059 E.05499
G1 X96.634 Y112.375 E.05501
G1 X96.244 Y110.665 E.05499
G1 X95.957 Y108.935 E.05498
G1 X95.773 Y107.191 E.05499
G1 X95.695 Y105.439 E.05499
G1 X95.721 Y103.685 E.055
G1 X95.852 Y101.936 E.05499
G1 X96.087 Y100.198 E.05499
G1 X96.426 Y98.477 E.055
G1 X96.868 Y96.779 E.05501
G1 X97.41 Y95.111 E.05499
G1 X98.05 Y93.478 E.05499
G1 X98.788 Y91.887 E.05499
G1 X99.619 Y90.342 E.055
G1 X100.541 Y88.85 E.05499
G1 X101.551 Y87.416 E.05499
G1 X102.644 Y86.045 E.05498
G1 X103.818 Y84.741 E.05501
G1 X105.067 Y83.51 E.05499
G1 X106.388 Y82.356 E.055
G1 X107.776 Y81.283 E.05501
G1 X109.225 Y80.295 E.05499
G1 X110.73 Y79.396 E.05497
G1 X112.287 Y78.588 E.055
G1 X113.89 Y77.874 E.05502
G1 X115.532 Y77.258 E.05499
G1 X117.208 Y76.741 E.05499
G1 X118.912 Y76.325 E.055
G1 X120.637 Y76.012 E.05497
G1 X122.379 Y75.803 E.05501
G1 X124.13 Y75.698 E.055
G1 X125.884 Y75.698 E.055
G1 X127.635 Y75.803 E.055
G1 X129.376 Y76.012 E.05498
G1 X131.102 Y76.325 E.055
G1 X132.806 Y76.741 E.055
G1 X134.482 Y77.258 E.05499
G1 X136.124 Y77.874 E.05499
G1 X137.726 Y78.588 E.05499
G1 X139.283 Y79.396 E.055
G1 X140.789 Y80.295 E.05499
G1 X142.238 Y81.283 E.05499
G1 X143.625 Y82.356 E.05498
G1 X144.946 Y83.51 E.055
G1 X146.196 Y84.741 E.05501
G1 X147.369 Y86.045 E.05499
G1 X148.463 Y87.416 E.05499
G1 X149.473 Y88.85 E.05499
G1 X150.395 Y90.342 E.05499
G1 X151.226 Y91.887 E.055
G1 X151.963 Y93.478 E.05498
G1 X152.604 Y95.111 E.055
G1 X153.146 Y96.779 E.05499
G1 X153.587 Y98.477 E.05501
G1 X153.917 Y100.151 E.0535
M204 S1000
;WIPE_START
G1 F8640
G1 X153.928 Y100.21 E-.01386
G1 X154.161 Y101.936 E-.40215
G1 X154.286 Y103.594 E-.38399
;WIPE_END
G1 Z.6 F720
G1 X143.017 Y82.577 F10800
G1 Z.2 F720
G1 E.8 F2100
M204 S800
;TYPE:Solid infill
;WIDTH:0.421646
G1 F1200
G1 X145.688 Y85.248 E.11895
G1 X146.823 Y86.508 E.0534
G1 X147.889 Y87.846 E.05387
G1 X148.22 Y88.316 E.0181
G1 X141.662 Y81.758 E.29206
G1 X140.403 Y80.899 E.048
G1 X140.068 Y80.699 E.01229
G1 X149.296 Y89.927 E.41097
G1 X149.774 Y90.701 E.02865
G1 X150.054 Y91.22 E.01857
G1 X138.77 Y79.936 E.50254
G1 X137.656 Y79.359 E.03951
G1 X150.653 Y92.356 E.57882
G1 X151.116 Y93.354 E.03465
G1 X136.659 Y78.897 E.64385
G1 X135.711 Y78.485 E.03255
M73 Q3 S22
G1 X151.509 Y94.283 E.70357
G1 X151.855 Y95.164 E.02981
M73 P3 R22
G1 X134.854 Y78.163 E.75714
G1 X134.021 Y77.866 E.02785
G1 X152.132 Y95.977 E.80658
G1 X152.39 Y96.77 E.02626
G1 X133.246 Y77.627 E.85256
G1 X132.484 Y77.4 E.02504
G1 X152.596 Y97.512 E.89569
G1 X152.784 Y98.236 E.02356
G1 X131.775 Y77.227 E.93564
G1 X131.067 Y77.054 E.02295
M73 C20
G1 X152.947 Y98.934 E.97443
G1 X153.078 Y99.601 E.02141
M73 D20
G1 X130.404 Y76.927 E1.00979
G1 X129.749 Y76.808 E.02096
G1 X153.21 Y100.268 E1.04482
G1 X153.297 Y100.891 E.01981
G1 X129.107 Y76.701 E1.07731
G1 X128.498 Y76.628 E.01932
M73 P4 R22
M73 Q4 S22
G1 X153.381 Y101.511 E1.10817
G1 X153.457 Y102.122 E.01939
G1 X127.89 Y76.555 E1.13863
G1 X127.299 Y76.5 E.01869
G1 X153.5 Y102.701 E1.16687
G1 X153.544 Y103.28 E.01829
G1 X126.73 Y76.466 E1.19417
G1 X126.16 Y76.432 E.01798
G1 X153.579 Y103.851 E1.22111
G1 X153.587 Y104.394 E.0171
G1 X125.606 Y76.414 E1.24612
G1 X125.071 Y76.414 E.01685
G1 X153.595 Y104.938 E1.27032
G1 X153.6 Y105.479 E.01704
M73 P5 R22
M73 Q5 S22
G1 X124.535 Y76.414 E1.29442
G1 X124.008 Y76.423 E.0166
G1 X153.577 Y105.991 E1.31684
G1 X153.554 Y106.504 E.01617
G1 X123.503 Y76.453 E1.33833
G1 X122.998 Y76.483 E.01593
G1 X153.531 Y107.016 E1.3598
G1 X153.486 Y107.508 E.01556
M73 P5 R21
G1 X122.492 Y76.514 E1.38033
G1 X122.012 Y76.568 E.01521
M73 Q5 S21
G1 X153.435 Y107.992 E1.39945
G1 X153.385 Y108.477 E.01535
G1 X121.533 Y76.626 E1.41852
G1 X121.055 Y76.683 E.01516
M73 P6 R21
M73 Q6 S21
G1 X153.327 Y108.955 E1.43724
G1 X153.251 Y109.415 E.01468
G1 X120.586 Y76.75 E1.45474
G1 X120.133 Y76.832 E.0145
G1 X153.175 Y109.874 E1.47153
G1 X153.098 Y110.333 E.01466
G1 X119.679 Y76.914 E1.48832
G1 X119.226 Y76.996 E.0145
G1 X153.009 Y110.779 E1.50454
G1 X152.909 Y111.215 E.01409
G1 X118.787 Y77.093 E1.51963
G1 X118.357 Y77.198 E.01394
M73 P7 R21
M73 Q7 S21
G1 X152.81 Y111.651 E1.53437
G1 X152.71 Y112.087 E.01409
G1 X117.926 Y77.303 E1.54912
G1 X117.495 Y77.408 E.01397
G1 X152.594 Y112.507 E1.56314
G1 X152.473 Y112.922 E.01361
G1 X117.081 Y77.53 E1.57619
G1 X116.672 Y77.656 E.01348
M73 C19
G1 X152.352 Y113.336 E1.58902
G1 X152.231 Y113.751 E.01361
M73 P8 R21
M73 Q8 S21
M73 D19
G1 X116.263 Y77.782 E1.60187
G1 X115.853 Y77.909 E.01352
G1 X152.094 Y114.149 E1.61398
G1 X151.953 Y114.544 E.01321
G1 X115.46 Y78.05 E1.62525
G1 X115.07 Y78.197 E.01313
G1 X151.811 Y114.938 E1.63627
G1 X151.67 Y115.332 E.01318
G1 X114.681 Y78.343 E1.64732
G1 X114.291 Y78.489 E.01311
G1 X151.515 Y115.713 E1.65778
G1 X151.355 Y116.088 E.01284
M73 P9 R21
M73 Q9 S21
G1 X113.914 Y78.648 E1.66742
G1 X113.544 Y78.813 E.01276
G1 X151.195 Y116.463 E1.67678
G1 X151.034 Y116.839 E.01288
G1 X113.173 Y78.978 E1.68615
G1 X112.803 Y79.143 E.01276
G1 X150.864 Y117.205 E1.69508
G1 X150.686 Y117.562 E.01256
M73 P9 R20
G1 X112.44 Y79.316 E1.7033
G1 X112.087 Y79.499 E.01252
M73 P10 R20
M73 Q10 S20
G1 X150.507 Y117.919 E1.71105
G1 X150.329 Y118.276 E.01256
G1 X111.735 Y79.682 E1.71879
G1 X111.382 Y79.865 E.01252
G1 X150.146 Y118.629 E1.72637
G1 X149.95 Y118.968 E.01233
G1 X111.032 Y80.05 E1.73322
G1 X110.697 Y80.25 E.01229
G1 X149.754 Y119.308 E1.73944
G1 X149.558 Y119.647 E.01233
M73 P11 R20
M73 Q11 S20
G1 X110.361 Y80.451 E1.74563
G1 X110.026 Y80.651 E.01229
G1 X149.362 Y119.987 E1.75184
G1 X149.151 Y120.312 E.0122
G1 X109.691 Y80.851 E1.75738
G1 X109.368 Y81.064 E.01218
G1 X148.938 Y120.635 E1.76228
G1 X148.725 Y120.957 E.01216
G1 X109.05 Y81.282 E1.76694
G1 X108.731 Y81.499 E.01215
M73 P12 R20
M73 Q12 S20
G1 X148.513 Y121.28 E1.77168
G1 X148.292 Y121.595 E.01212
M73 C18
M73 D18
G1 X108.413 Y81.716 E1.77602
G1 X108.1 Y81.938 E.01208
G1 X148.063 Y121.901 E1.77976
G1 X147.833 Y122.207 E.01205
G1 X107.798 Y82.172 E1.78297
G1 X107.496 Y82.405 E.01201
G1 X147.604 Y122.514 E1.78624
G1 X147.374 Y122.82 E.01205
M73 P13 R20
M73 Q13 S20
G1 X107.194 Y82.639 E1.78945
G1 X106.892 Y82.873 E.01203
G1 X147.129 Y123.11 E1.79197
G1 X146.884 Y123.4 E.01196
G1 X106.603 Y83.12 E1.7939
G1 X106.317 Y83.369 E.01194
G1 X146.638 Y123.69 E1.79571
G1 X146.392 Y123.98 E.01198
G1 X106.032 Y83.619 E1.79747
G1 X105.746 Y83.869 E.01196
M73 P14 R19
M73 Q14 S20
G1 X146.139 Y124.262 E1.79891
G1 X145.877 Y124.536 E.01194
M73 Q14 S19
