; generated by PrusaSlicer 2.9.0 on 2024-12-27 at 17:48:41 UTC


;
;
; 

; external perimeters extrusion width = 0.45mm
; perimeters extrusion width = 0.45mm
; infill extrusion width = 0.45mm
; solid infill extrusion width = 0.45mm
; top infill extrusion width = 0.40mm
; first layer extrusion width = 0.42mm

M73 P0 R6
M73 Q0 S6
M201 X1000 Y1000 Z200 E8000 ; sets maximum accelerations, mm/sec^2
M203 X200 Y200 Z12 E120 ; sets maximum feedrates, mm / sec
M204 S1250 T1250 ; sets acceleration (S) and retract acceleration (R), mm/sec^2
M205 X8.00 Y8.00 Z0.40 E4.50 ; sets the jerk limits, mm/sec
M205 S0 T0 ; sets the minimum extruding and travel feed rate, mm/sec

; printing object string_test_fast_pyramid.stl id:0 copy 0
; stop printing object string_test_fast_pyramid.stl id:0 copy 0

;TYPE:Custom
M862.3 P "MK3SMMU3" ; printer model check
M862.1 P0.4 ; nozzle diameter check
M115 U3.14.1 ; tell printer latest fw version
G90 ; use absolute coordinates
M83 ; extruder relative mode
M104 S215 ; set extruder temp
M140 S60 ; set bed temp
M190 S60 ; wait for bed temp
M109 S215 ; wait for extruder temp
G28 W ; home all without mesh bed level
G80 X107.346 Y93.3458 W35.3083 H23.3083 ; mesh bed levelling

; Send the filament type to the MMU unit.
; E stands for extruder number, F stands for filament type (0: default; 1:flex; 2: PVA)
M403 E0 F0
M403 E1 F0
M403 E2 F0
M403 E3 F0
M403 E4 F0


;go outside print area
G1 Y-3 F1000
G1 Z0.4 F1000
; select extruder
T0
; initial load
G1 X55 E29 F1073
G1 X5 E29 F1800
G1 X55 E8 F2000
M73 P1 R6
M73 Q1 S6
G1 Z0.3 F1000
G92 E0
G1 X240 E25 F2200
G1 Y-2 F1000
M73 P3 R5
M73 Q3 S5
G1 X55 E25 F1400
G1 Z0.2 F1000
M73 P5 R5
M73 Q5 S5
G1 X5 E4 F1000
G92 E0


M221 S95
G92 E0

; Don't change E values below. Excessive value can damage the printer.
M907 E430 ; set extruder motor current
G21 ; set units to millimeters
G90 ; use absolute coordinates
M83 ; use relative distances for extrusion

M900 K0.05 ; Filament gcode LA 1.5
M900 K30 ; Filament gcode LA 1.0




M107
;LAYER_CHANGE
;Z:0.2
;HEIGHT:0.2
G1 E-.8 F2100
M73 P6 R5
M73 Q6 S5
G1 Z.6 F720
G1 X108.286 Y97.273 F10800
G1 Z.2 F720
G1 E.8 F2100
M204 S800
;TYPE:Skirt/Brim
;WIDTH:0.42
G1 F1200
G1 X111.273 Y94.286 E.13245
G1 X113.088 Y93.534 E.0616
G1 X136.912 Y93.534 E.74698
G1 X138.727 Y94.286 E.0616
G1 X141.714 Y97.273 E.13245
G1 X142.466 Y99.088 E.0616
G1 X142.466 Y110.912 E.37073
M73 Q7 S5
G1 X141.714 Y112.727 E.0616
M73 P7 R5
G1 X138.727 Y115.714 E.13245
G1 X136.912 Y116.466 E.0616
G1 X113.088 Y116.466 E.74698
G1 X111.273 Y115.714 E.0616
G1 X108.286 Y112.727 E.13245
G1 X107.534 Y110.912 E.0616
G1 X107.534 Y99.088 E.37073
G1 X108.263 Y97.329 E.0597
M204 S1000
G1 X108.263 Y97.329 F10800
G1 X108.552 Y97.54
M204 S800
G1 F1200
G1 X111.54 Y94.552 E.13249
G1 X113.088 Y93.911 E.05253
G1 X136.912 Y93.911 E.74698
G1 X138.46 Y94.552 E.05253
M73 P8 R5
M73 Q8 S5
G1 X141.448 Y97.54 E.13249
G1 X142.089 Y99.088 E.05253
G1 X142.089 Y110.912 E.37073
G1 X141.448 Y112.46 E.05253
G1 X138.46 Y115.448 E.13249
G1 X136.912 Y116.089 E.05253
G1 X113.088 Y116.089 E.74698
G1 X111.54 Y115.448 E.05253
G1 X108.552 Y112.46 E.13249
M73 P9 R5
M73 Q9 S5
G1 X107.911 Y110.912 E.05253
G1 X107.911 Y99.088 E.37073
G1 X108.53 Y97.595 E.05068
M204 S1000
;WIPE_START
G1 F8640
G1 X108.552 Y97.54 E-.01368
G1 X110.96 Y95.132 E-.78632
;WIPE_END
G1 Z.6 F720
G1 X111.018 Y98.835 F10800
G1 Z.2 F720
G1 E.8 F2100
M204 S800
G1 F1200
G1 X111.159 Y98.55 E.00997
G1 X112.096 Y97.519 E.04368
G1 X112.781 Y97.011 E.02674
G1 X114.753 Y96.386 E.06486
G1 X135.19 Y96.39 E.64079
G1 X136.21 Y96.584 E.03255
G1 X137.188 Y97 E.03332
G1 X138.312 Y97.896 E.04507
G1 X139.205 Y99.234 E.05044
G1 X139.614 Y100.782 E.0502
G1 X139.573 Y109.524 E.2741
G1 X139.292 Y110.552 E.03341
G1 X138.84 Y111.451 E.03155
G1 X137.904 Y112.481 E.04364
G1 X137.219 Y112.989 E.02674
G1 X135.247 Y113.613 E.06485
G1 X114.782 Y113.613 E.64167
M73 P10 R5
M73 Q10 S5
G1 X113.47 Y113.299 E.0423
G1 X112.55 Y112.841 E.03222
G1 X111.519 Y111.904 E.04368
G1 X111.011 Y111.219 E.02674
G1 X110.387 Y109.247 E.06485
G1 X110.398 Y100.691 E.26827
G1 X110.701 Y99.47 E.03944
G1 X110.991 Y98.888 E.02039
M204 S1000
G1 X110.991 Y98.888 F10800
G1 X111.326 Y99.057
M204 S800
G1 F1200
G1 X111.484 Y98.744 E.01099
G1 X112.361 Y97.788 E.04068
G1 X112.979 Y97.334 E.02404
G1 X114.782 Y96.764 E.05929
G1 X135.171 Y96.767 E.63928
G1 X136.117 Y96.95 E.03021
G1 X137.015 Y97.336 E.03065
G1 X138.053 Y98.171 E.04177
G1 X138.849 Y99.362 E.04492
G1 X139.237 Y100.806 E.04688
G1 X139.203 Y109.448 E.27097
G1 X138.933 Y110.434 E.03205
M73 P11 R5
M73 Q11 S5
G1 X138.516 Y111.257 E.02893
G1 X137.639 Y112.212 E.04065
G1 X137.021 Y112.666 E.02404
G1 X135.218 Y113.236 E.05929
G1 X114.805 Y113.236 E.64004
G1 X113.581 Y112.938 E.0395
G1 X112.744 Y112.516 E.02939
G1 X111.788 Y111.639 E.04068
G1 X111.334 Y111.021 E.02404
G1 X110.764 Y109.218 E.05929
G1 X110.769 Y100.76 E.26519
G1 X111.062 Y99.581 E.03809
G1 X111.299 Y99.111 E.0165
M204 S1000
G1 X111.299 Y99.111 F10800
G1 X111.633 Y99.281
M204 S800
G1 F1200
G1 X111.807 Y98.939 E.01203
G1 X112.624 Y98.059 E.03765
G1 X113.176 Y97.656 E.02143
G1 X114.811 Y97.141 E.05375
G1 X135.152 Y97.144 E.63778
G1 X136.024 Y97.316 E.02787
G1 X136.84 Y97.671 E.0279
M73 P12 R5
G1 X137.793 Y98.445 E.03849
M73 Q12 S5
G1 X138.517 Y99.543 E.04124
G1 X138.859 Y100.829 E.04172
G1 X138.832 Y109.373 E.26789
G1 X138.575 Y110.315 E.03062
G1 X138.192 Y111.061 E.02629
G1 X137.376 Y111.941 E.03763
G1 X136.824 Y112.344 E.02143
G1 X135.189 Y112.859 E.05375
G1 X114.829 Y112.859 E.63837
G1 X113.694 Y112.577 E.03667
G1 X112.939 Y112.193 E.02656
G1 X112.059 Y111.376 E.03765
G1 X111.656 Y110.824 E.02143
G1 X111.141 Y109.189 E.05375
G1 X111.141 Y100.829 E.26212
G1 X111.423 Y99.694 E.03667
G1 X111.606 Y99.334 E.01266
M204 S1000
G1 X111.606 Y99.334 F10800
G1 X111.939 Y99.506
M204 S800
G1 F1200
G1 X112.13 Y99.136 E.01306
G1 X112.886 Y98.331 E.03463
G1 X113.372 Y97.98 E.0188
G1 X114.84 Y97.518 E.04825
G1 X135.133 Y97.521 E.63627
G1 X135.929 Y97.681 E.02546
M73 P13 R5
M73 Q13 S5
G1 X136.664 Y98.005 E.02519
G1 X137.53 Y98.717 E.03515
G1 X138.185 Y99.723 E.03764
G1 X138.482 Y100.853 E.03663
G1 X138.462 Y109.298 E.26479
G1 X138.216 Y110.196 E.02919
G1 X137.87 Y110.864 E.02359
G1 X137.114 Y111.669 E.03463
G1 X136.628 Y112.02 E.0188
G1 X135.161 Y112.482 E.04822
G1 X114.852 Y112.482 E.63677
G1 X113.808 Y112.217 E.03377
G1 X113.136 Y111.87 E.02371
G1 X112.331 Y111.114 E.03463
G1 X111.98 Y110.628 E.0188
G1 X111.518 Y109.161 E.04822
G1 X111.518 Y100.852 E.26052
G1 X111.783 Y99.808 E.03377
G1 X111.911 Y99.56 E.00875
M204 S1000
G1 X111.911 Y99.56 F10800
G1 X112.242 Y99.733
M204 S800
G1 F1200
G1 X112.451 Y99.335 E.01409
G1 X113.146 Y98.604 E.03163
G1 X113.566 Y98.304 E.01618
G1 X114.868 Y97.895 E.04279
G1 X135.115 Y97.898 E.63483
G1 X135.796 Y98.035 E.02178
M73 P14 R5
M73 Q14 S5
G1 X136.487 Y98.339 E.02367
G1 X137.267 Y98.988 E.03181
G1 X137.829 Y99.85 E.03226
G1 X138.105 Y100.878 E.03337
G1 X138.092 Y109.222 E.26162
G1 X137.858 Y110.076 E.02776
G1 X137.549 Y110.665 E.02085
G1 X136.854 Y111.396 E.03163
G1 X136.434 Y111.696 E.01618
G1 X135.132 Y112.105 E.04279
G1 X114.877 Y112.105 E.63508
G1 X113.925 Y111.858 E.03084
G1 X113.335 Y111.549 E.02088
G1 X112.604 Y110.854 E.03163
G1 X112.304 Y110.434 E.01618
G1 X111.895 Y109.132 E.04279
G1 X111.895 Y100.877 E.25883
G1 X112.142 Y99.925 E.03084
G1 X112.214 Y99.786 E.00491
M204 S1000
G1 X112.214 Y99.786 F10800
G1 X112.544 Y99.962
M204 S800
G1 F1200
G1 X112.771 Y99.537 E.01511
G1 X113.404 Y98.88 E.02861
G1 X113.759 Y98.63 E.01361
G1 X114.897 Y98.272 E.03741
G1 X135.095 Y98.276 E.63329
G1 X135.699 Y98.4 E.01933
M73 P15 R5
M73 Q15 S5
G1 X136.308 Y98.672 E.02091
G1 X137.001 Y99.257 E.02844
G1 X137.495 Y100.028 E.02871
G1 X137.728 Y100.902 E.02836
G1 X137.721 Y109.147 E.25852
G1 X137.5 Y109.956 E.0263
G1 X137.229 Y110.463 E.01803
G1 X136.596 Y111.12 E.02861
G1 X136.241 Y111.37 E.01361
G1 X135.103 Y111.728 E.03741
G1 X114.902 Y111.728 E.63339
G1 X114.044 Y111.5 E.02784
G1 X113.537 Y111.229 E.01803
G1 X112.88 Y110.596 E.02861
G1 X112.63 Y110.241 E.01361
G1 X112.272 Y109.103 E.03741
G1 X112.272 Y100.902 E.25714
G1 X112.5 Y100.044 E.02784
G1 X112.515 Y100.015 E.00102
M204 S1000
G1 X112.515 Y100.015 F10800
G1 X112.858 Y100.166
M204 S800
G1 F1200
G1 X113.088 Y99.741 E.01515
G1 X113.95 Y98.956 E.03656
G1 X114.926 Y98.649 E.03208
G1 X135.075 Y98.653 E.63176
G1 X135.599 Y98.764 E.01679
M73 P16 R5
M73 Q16 S5
G1 X136.127 Y99.004 E.01819
G1 X136.734 Y99.525 E.02508
G1 X137.139 Y100.156 E.02351
G1 X137.351 Y100.928 E.0251
G1 X137.351 Y109.072 E.25535
G1 X137.142 Y109.834 E.02477
G1 X136.912 Y110.259 E.01515
G1 X136.05 Y111.044 E.03656
G1 X135.074 Y111.351 E.03208
G1 X114.928 Y111.351 E.63166
G1 X114.166 Y111.142 E.02477
G1 X113.741 Y110.912 E.01515
G1 X112.956 Y110.05 E.03656
G1 X112.649 Y109.074 E.03208
G1 X112.649 Y100.928 E.25541
G1 X112.842 Y100.224 E.02289
M204 S1000
G1 X112.842 Y100.224 F10800
G1 X113.204 Y100.326
M204 S800
G1 F1200
G1 X113.214 Y100.291 E.00114
G1 X113.404 Y99.949 E.01227
G1 X113.914 Y99.437 E.02266
G1 X114.139 Y99.283 E.00855
G1 X114.955 Y99.026 E.02682
G1 X135.053 Y99.03 E.63016
G1 X135.497 Y99.127 E.01425
M73 P17 R5
M73 Q17 S5
G1 X135.943 Y99.334 E.01542
G1 X136.466 Y99.791 E.02178
G1 X136.785 Y100.286 E.01846
G1 X136.974 Y100.955 E.0218
G1 X136.974 Y109.045 E.25366
G1 X136.786 Y109.709 E.02164
G1 X136.596 Y110.051 E.01227
G1 X136.086 Y110.563 E.02266
G1 X135.861 Y110.717 E.00855
G1 X135.045 Y110.974 E.02682
G1 X114.955 Y110.974 E.62991
G1 X114.291 Y110.786 E.02164
G1 X113.949 Y110.596 E.01227
G1 X113.437 Y110.086 E.02266
G1 X113.283 Y109.861 E.00855
G1 X113.026 Y109.045 E.02682
G1 X113.026 Y100.955 E.25366
G1 X113.188 Y100.384 E.01861
M204 S1000
G1 X113.188 Y100.384 F10800
G1 X113.575 Y100.532
M204 S800
G1 F1200
G1 X113.718 Y100.16 E.0125
G1 X114.325 Y99.612 E.02564
G1 X114.984 Y99.403 E.02168
G1 X135.031 Y99.407 E.62856
G1 X135.756 Y99.662 E.0241
M73 P18 R5
G1 X136.196 Y100.054 E.01848
G1 X136.431 Y100.42 E.01364
G1 X136.597 Y100.983 E.0184
M73 Q18 S5
G1 X136.597 Y109.017 E.2519
G1 X136.282 Y109.84 E.02763
G1 X135.675 Y110.388 E.02564
G1 X135.016 Y110.597 E.02168
G1 X114.983 Y110.597 E.62812
G1 X114.16 Y110.282 E.02763
G1 X113.612 Y109.675 E.02564
G1 X113.403 Y109.016 E.02168
G1 X113.403 Y100.983 E.25187
G1 X113.554 Y100.588 E.01326
M204 S1000
G1 X113.894 Y100.72 F10800
M204 S800
G1 F1200
G1 X114.028 Y100.375 E.0116
G1 X114.507 Y99.943 E.02022
G1 X115.013 Y99.78 E.01667
G1 X135.009 Y99.784 E.62696
G1 X135.247 Y99.839 E.00766
M73 P18 R4
G1 X135.568 Y99.991 E.01114
G1 X135.923 Y100.315 E.01507
G1 X136.22 Y101.012 E.02376
G1 X136.22 Y108.988 E.25008
G1 X136.079 Y109.445 E.015
M73 P19 R4
G1 X135.589 Y109.996 E.02312
M73 Q19 S5
G1 X134.987 Y110.22 E.02014
G1 X115.012 Y110.22 E.6263
G1 X114.555 Y110.079 E.015
G1 X114.004 Y109.589 E.02312
G1 X113.78 Y108.987 E.02014
G1 X113.78 Y101.012 E.25005
M73 Q19 S4
G1 X113.872 Y100.776 E.00794
M204 S1000
G1 X113.872 Y100.776 F10800
G1 X114.21 Y100.909
M204 S800
G1 F1200
G1 X114.334 Y100.597 E.01053
G1 X114.683 Y100.276 E.01487
G1 X115.044 Y100.157 E.01192
G1 X134.987 Y100.161 E.6253
G1 X135.378 Y100.318 E.01321
G1 X135.647 Y100.573 E.01162
G1 X135.843 Y101.044 E.016
G1 X135.843 Y108.956 E.24808
G1 X135.666 Y109.403 E.01507
G1 X135.317 Y109.724 E.01487
G1 X134.956 Y109.843 E.01192
G1 X115.044 Y109.843 E.62433
G1 X114.597 Y109.666 E.01507
M73 P20 R4
M73 Q20 S4
G1 X114.276 Y109.317 E.01487
G1 X114.157 Y108.956 E.01192
G1 X114.157 Y101.044 E.24808
G1 X114.188 Y100.965 E.00266
M204 S1000
G1 X114.188 Y100.965 F10800
G1 X114.534 Y101.079
M204 S800
G1 F1200
G1 X114.632 Y100.828 E.00845
G1 X114.866 Y100.611 E.01001
G1 X115.079 Y100.534 E.0071
G1 X134.935 Y100.534 E.62257
G1 X135.366 Y100.825 E.01631
G1 X135.466 Y101.079 E.00856
G1 X135.466 Y108.921 E.24588
G1 X135.368 Y109.172 E.00845
G1 X135.134 Y109.389 E.01001
G1 X134.921 Y109.466 E.0071
G1 X115.079 Y109.466 E.62213
G1 X114.828 Y109.368 E.00845
M73 P21 R4
G1 X114.611 Y109.134 E.01001
G1 X114.534 Y108.921 E.0071
G1 X114.534 Y101.139 E.244
M204 S1000
G1 X114.534 Y101.139 F10800
M73 Q21 S4
G1 X114.911 Y101.139
M204 S800
G1 F1200
G1 X114.911 Y101.121 E.00056
G1 X115.121 Y100.911 E.00931
G1 X134.948 Y100.94 E.62166
G1 X135.089 Y101.121 E.00719
G1 X135.089 Y108.879 E.24325
G1 X134.879 Y109.089 E.00931
G1 X115.121 Y109.089 E.6195
G1 X114.911 Y108.879 E.00931
G1 X114.911 Y101.199 E.2408
M204 S1000
;WIPE_START
G1 F8640
G1 X114.911 Y101.139 E-.01385
G1 X114.911 Y101.121 E-.00416
G1 X115.121 Y100.911 E-.06857
G1 X118.211 Y100.916 E-.71342
;WIPE_END
G1 Z.6 F720
; printing object string_test_fast_pyramid.stl id:0 copy 0
G1 X115.787 Y101.787 F10800
G1 Z.2 F720
G1 E.8 F2100
M204 S800
;TYPE:Perimeter
;WIDTH:0.419999
G1 F1200
M73 P22 R4
G1 X134.213 Y101.787 E.57773
G1 X134.213 Y105 E.10074
M73 Q22 S4
G1 X134.213 Y108.213 E.10074
G1 X115.787 Y108.213 E.57773
G1 X115.787 Y101.847 E.1996
M204 S1000
G1 X115.41 Y101.41 F10800
M204 S800
;TYPE:External perimeter
G1 F1200
G1 X134.59 Y101.41 E.60137
G1 X134.59 Y105 E.11256
G1 X134.59 Y108.59 E.11256
M73 P23 R4
G1 X115.41 Y108.59 E.60137
G1 X115.41 Y101.47 E.22324
M73 Q23 S4
M204 S1000
;WIPE_START
G1 F8640
G1 X115.41 Y101.41 E-.01385
G1 X118.815 Y101.41 E-.78615
;WIPE_END
G1 Z.6 F720
G1 X133.273 Y101.957 F10800
G1 Z.2 F720
G1 E.8 F2100
M204 S800
;TYPE:Solid infill
;WIDTH:0.423946
G1 F1200
G1 X133.874 Y102.558 E.02693
G1 X133.874 Y103.097 E.01708
G1 X132.903 Y102.126 E.04351
G1 X132.365 Y102.126 E.01705
G1 X133.874 Y103.635 E.06761
G1 X133.874 Y104.174 E.01708
G1 X131.826 Y102.126 E.09176
G1 X131.287 Y102.126 E.01708
G1 X133.874 Y104.713 E.11591
G1 X133.874 Y105.252 E.01708
G1 X130.748 Y102.126 E.14006
G1 X130.209 Y102.126 E.01708
G1 X133.874 Y105.791 E.16421
G1 X133.874 Y106.33 E.01708
G1 X129.67 Y102.126 E.18836
G1 X129.131 Y102.126 E.01708
M73 P24 R4
G1 X133.874 Y106.869 E.21251
G1 X133.874 Y107.407 E.01705
M73 Q24 S4
G1 X128.593 Y102.126 E.23662
G1 X128.054 Y102.126 E.01708
G1 X133.801 Y107.874 E.25752
G1 X133.262 Y107.874 E.01708
G1 X127.515 Y102.126 E.25752
G1 X126.976 Y102.126 E.01708
G1 X132.723 Y107.874 E.25752
G1 X132.184 Y107.874 E.01708
G1 X126.437 Y102.126 E.25752
G1 X125.898 Y102.126 E.01708
G1 X131.645 Y107.874 E.25752
G1 X131.107 Y107.874 E.01705
G1 X125.359 Y102.126 E.25754
G1 X124.821 Y102.126 E.01705
G1 X130.568 Y107.874 E.25752
G1 X130.029 Y107.874 E.01708
M73 P25 R4
G1 X124.282 Y102.126 E.25752
G1 X123.743 Y102.126 E.01708
M73 Q25 S4
G1 X129.49 Y107.874 E.25752
G1 X128.951 Y107.874 E.01708
G1 X123.204 Y102.126 E.25752
G1 X122.665 Y102.126 E.01708
G1 X128.412 Y107.874 E.25752
G1 X127.873 Y107.874 E.01708
G1 X122.126 Y102.126 E.25752
G1 X121.588 Y102.126 E.01705
G1 X127.335 Y107.874 E.25752
G1 X126.796 Y107.874 E.01708
G1 X121.049 Y102.126 E.25752
G1 X120.51 Y102.126 E.01708
G1 X126.257 Y107.874 E.25752
G1 X125.718 Y107.874 E.01708
M73 P26 R4
G1 X119.971 Y102.126 E.25752
G1 X119.432 Y102.126 E.01708
M73 Q26 S4
G1 X125.179 Y107.874 E.25752
G1 X124.64 Y107.874 E.01708
G1 X118.893 Y102.126 E.25752
G1 X118.354 Y102.126 E.01708
G1 X124.102 Y107.874 E.25754
G1 X123.563 Y107.874 E.01708
G1 X117.816 Y102.126 E.25752
G1 X117.277 Y102.126 E.01708
G1 X123.024 Y107.874 E.25752
G1 X122.485 Y107.874 E.01708
G1 X116.738 Y102.126 E.25752
G1 X116.199 Y102.126 E.01708
G1 X121.946 Y107.874 E.25752
G1 X121.407 Y107.874 E.01708
M73 P27 R4
G1 X116.126 Y102.593 E.23662
G1 X116.126 Y103.132 E.01708
M73 Q27 S4
G1 X120.868 Y107.874 E.21247
G1 X120.33 Y107.874 E.01705
G1 X116.126 Y103.67 E.18836
G1 X116.126 Y104.209 E.01708
G1 X119.791 Y107.874 E.16421
G1 X119.252 Y107.874 E.01708
G1 X116.126 Y104.748 E.14006
G1 X116.126 Y105.287 E.01708
G1 X118.713 Y107.874 E.11591
G1 X118.174 Y107.874 E.01708
G1 X116.126 Y105.826 E.09176
G1 X116.126 Y106.365 E.01708
G1 X117.635 Y107.874 E.06761
G1 X117.096 Y107.874 E.01708
G1 X116.126 Y106.904 E.04346
G1 X116.126 Y107.442 E.01705
G1 X116.727 Y108.043 E.02693
M204 S1000
M106 S84.15
;LAYER_CHANGE
;Z:0.35
;HEIGHT:0.15
;BEFORE_LAYER_CHANGE
G92 E0.0
;0.35


;WIPE_START
G1 F8640
G1 X116.126 Y107.442 E-.19625
