; generated by PrusaSlicer 2.9.0 on 2025-03-02 at 17:48:35 UTC


;
;
; 

; external perimeters extrusion width = 0.60mm
; perimeters extrusion width = 0.50mm
; infill extrusion width = 0.50mm
; solid infill extrusion width = 0.50mm
; top infill extrusion width = 0.45mm
; support material extrusion width = 0.38mm
; first layer extrusion width = 0.42mm

; external perimeters extrusion width = 0.60mm
; perimeters extrusion width = 0.50mm
; infill extrusion width = 0.50mm
; solid infill extrusion width = 0.50mm
; top infill extrusion width = 0.45mm
; support material extrusion width = 0.38mm
; first layer extrusion width = 0.42mm

M73 P0 R48
M73 Q0 S48
M201 X1000 Y1000 Z200 E5000 ; sets maximum accelerations, mm/sec^2
M203 X200 Y200 Z12 E120 ; sets maximum feedrates, mm / sec
M204 S1250 T1250 ; sets acceleration (S) and retract acceleration (R), mm/sec^2
M205 X8.00 Y8.00 Z0.40 E4.50 ; sets the jerk limits, mm/sec
M205 S0 T0 ; sets the minimum extruding and travel feed rate, mm/sec

; printing object TestBox v2.stl id:0 copy 0
; stop printing object TestBox v2.stl id:0 copy 0
; printing object TestBox v2.stl id:1 copy 0
; stop printing object TestBox v2.stl id:1 copy 0

;TYPE:Custom
M862.3 P "MK3S" ; printer model check
M862.1 P0.4 ; nozzle diameter check
M115 U3.14.1 ; tell printer latest fw version
G90 ; use absolute coordinates
M83 ; extruder relative mode
M104 S215 ; set extruder temp
M140 S60 ; set bed temp
M190 S60 ; wait for bed temp
M109 S215 ; wait for extruder temp
G28 W ; home all without mesh bed level
G80 X48.7569 Y54.8757 W53.5585 H84.5413 ; mesh bed levelling

G1 Z0.2 F720
G1 Y-3 F1000 ; go outside print area
G92 E0
G1 X60 E9 F1000 ; intro line
G1 X100 E12.5 F1000 ; intro line

G92 E0
M221 S95

; Don't change E values below. Excessive value can damage the printer.

M907 E538 ; set extruder motor current
G21 ; set units to millimeters
G90 ; use absolute coordinates
M83 ; use relative distances for extrusion

M900 K0.05 ; Filament gcode LA 1.5
M900 K30 ; Filament gcode LA 1.0




M107
;LAYER_CHANGE
;Z:0.2
;HEIGHT:0.2
G1 E-.8 F2100
G1 Z.6 F720
G1 X51.88 Y61.196 F10800
G1 Z.2 F720
G1 E.8 F2100
M204 S800
;TYPE:Skirt/Brim
;WIDTH:0.42
G1 F1200
G1 X53.241 Y60.362 E.05005
G1 X82.712 Y55.098 E.93867
G1 X98.255 Y55.064 E.48734
G1 X99.503 Y55.455 E.04101
G1 X100.339 Y56.586 E.0441
M73 P0 R47
G1 X102.023 Y61.849 E.17326
G1 X102.127 Y62.516 E.02117
G1 X102.125 Y85.761 E.72883
G1 X100.265 Y131.865 E1.44673
G1 X99.824 Y133.096 E.041
G1 X98.495 Y133.925 E.04911
G1 X71.34 Y139.188 E.86727
G1 X51.134 Y139.228 E.63355
G1 X49.886 Y138.838 E.041
G1 X49.083 Y137.805 E.04102
G1 X48.945 Y137.04 E.02437
G1 X48.947 Y129.077 E.24967
G1 X49.579 Y108.532 E.64448
G1 X51.439 Y62.428 E1.44673
G1 X51.86 Y61.253 E.03913
M204 S1000
;WIPE_START
G1 F8640
G1 X51.88 Y61.196 E-.01395
G1 X53.241 Y60.362 E-.36857
G1 X55.021 Y60.044 E-.41748
;WIPE_END
G1 Z.6 F720
; printing object TestBox v2.stl id:0 copy 0
G1 X97.767 Y131.777 F10800
G1 Z.2 F720
G1 E.8 F2100
M204 S800
;TYPE:Support material interface
;WIDTH:0.38
G1 F1200
G1 X98.079 Y131.777 E.00874
G1 X98.079 Y108.62 E.64905
G1 X97.61 Y108.62 E.01315
G1 X97.61 Y131.777 E.64905
G1 X97.094 Y131.777 E.01446
G1 X97.094 Y108.62 E.64905
G1 X96.578 Y108.62 E.01446
G1 X96.578 Y112.663 E.11332
G1 X96.827 Y126.838 E.39736
G1 X96.802 Y127.363 E.01473
G1 X96.578 Y128.342 E.02815
G1 X96.578 Y131.777 E.09628
G1 X96.063 Y131.777 E.01443
G1 X96.063 Y129.341 E.06828
G1 X95.547 Y129.951 E.02239
G1 X95.547 Y131.777 E.05118
G1 X95.031 Y131.777 E.01446
G1 X95.031 Y130.392 E.03882
G1 X94.516 Y130.705 E.01689
G1 X94.516 Y131.777 E.03005
G1 X94 Y131.777 E.01446
G1 X94 Y130.929 E.02377
G1 X93.485 Y131.08 E.01504
G1 X93.485 Y131.777 E.01954
G1 X92.969 Y131.777 E.01446
G1 X92.969 Y131.164 E.01718
G1 X92.453 Y131.194 E.01449
G1 X92.453 Y131.777 E.01634
G1 X91.938 Y131.777 E.01443
G1 X91.938 Y131.202 E.01612
G1 X91.422 Y131.211 E.01446
G1 X91.422 Y131.777 E.01586
G1 X90.906 Y131.777 E.01446
G1 X90.906 Y131.22 E.01561
G1 X90.391 Y131.229 E.01444
G1 X90.391 Y131.777 E.01536
G1 X89.875 Y131.777 E.01446
G1 X89.875 Y131.237 E.01514
G1 X89.36 Y131.246 E.01444
G1 X89.36 Y131.777 E.01488
G1 X88.844 Y131.777 E.01446
G1 X88.844 Y131.255 E.01463
G1 X88.328 Y131.263 E.01446
G1 X88.328 Y131.777 E.01441
G1 X87.813 Y131.777 E.01443
G1 X87.813 Y131.272 E.01415
G1 X87.297 Y131.281 E.01446
G1 X87.297 Y131.777 E.0139
G1 X86.782 Y131.777 E.01443
G1 X86.782 Y131.289 E.01368
G1 X86.266 Y131.298 E.01446
G1 X86.266 Y131.777 E.01343
G1 X85.75 Y131.777 E.01446
G1 X85.75 Y131.307 E.01317
G1 X85.235 Y131.315 E.01444
G1 X85.235 Y131.777 E.01295
G1 X84.719 Y131.777 E.01446
G1 X84.719 Y131.324 E.0127
G1 X84.203 Y131.333 E.01446
G1 X84.203 Y131.777 E.01244
G1 X83.688 Y131.777 E.01443
G1 X83.688 Y131.342 E.01219
G1 X83.172 Y131.35 E.01446
G1 X83.172 Y131.777 E.01197
G1 X82.657 Y131.777 E.01443
G1 X82.657 Y131.359 E.01172
G1 X82.141 Y131.368 E.01446
G1 X82.141 Y131.777 E.01146
G1 X81.625 Y131.777 E.01446
G1 X81.625 Y131.376 E.01124
G1 X81.11 Y131.385 E.01444
G1 X81.11 Y131.777 E.01099
G1 X80.594 Y131.777 E.01446
G1 X80.594 Y131.394 E.01073
G1 X80.078 Y131.402 E.01446
G1 X80.078 Y131.777 E.01051
G1 X79.563 Y131.777 E.01443
G1 X79.563 Y131.411 E.01026
G1 X79.047 Y131.42 E.01446
G1 X79.047 Y131.777 E.01001
G1 X78.532 Y131.777 E.01443
G1 X78.532 Y131.429 E.00975
G1 X78.016 Y131.437 E.01446
G1 X78.016 Y131.777 E.00953
G1 X77.5 Y131.777 E.01446
G1 X77.5 Y131.446 E.00928
G1 X76.985 Y131.455 E.01444
G1 X76.985 Y131.777 E.00903
G1 X76.469 Y131.777 E.01446
G1 X76.469 Y131.463 E.0088
G1 X75.954 Y131.472 E.01444
G1 X75.954 Y131.777 E.00855
G1 X75.438 Y131.777 E.01446
G1 X75.438 Y131.481 E.0083
G1 X74.922 Y131.489 E.01446
G1 X74.922 Y131.777 E.00807
G1 X74.407 Y131.777 E.01443
G1 X74.407 Y131.498 E.00782
G1 X73.891 Y131.507 E.01446
G1 X73.891 Y131.777 E.00757
G1 X73.375 Y131.777 E.01446
G1 X73.375 Y131.515 E.00734
G1 X72.86 Y131.524 E.01444
M73 Q1 S48
G1 X72.86 Y131.777 E.00709
G1 X72.344 Y131.777 E.01446
G1 X72.344 Y131.533 E.00684
G1 X71.829 Y131.542 E.01444
M73 P1 R47
G1 X71.829 Y131.777 E.00659
G1 X71.313 Y131.777 E.01446
G1 X71.313 Y131.55 E.00636
G1 X70.797 Y131.559 E.01446
G1 X70.797 Y131.777 E.00611
G1 X70.282 Y131.777 E.01443
G1 X70.282 Y131.568 E.00586
G1 X69.766 Y131.576 E.01446
G1 X69.766 Y131.777 E.00563
G1 X69.25 Y131.777 E.01446
G1 X69.25 Y131.585 E.00538
G1 X68.735 Y131.594 E.01444
G1 X68.735 Y131.777 E.00513
G1 X68.219 Y131.777 E.01446
G1 X68.219 Y131.602 E.0049
G1 X67.704 Y131.611 E.01444
G1 X67.704 Y131.777 E.00465
G1 X67.188 Y131.777 E.01446
G1 X67.188 Y131.62 E.0044
G1 X66.672 Y131.628 E.01446
G1 X66.672 Y131.777 E.00418
G1 X66.157 Y131.777 E.01443
G1 X66.157 Y131.637 E.00392
G1 X65.641 Y131.646 E.01446
G1 X65.641 Y131.777 E.00367
G1 X65.126 Y131.777 E.01443
G1 X65.126 Y131.655 E.00342
G1 X64.61 Y131.663 E.01446
G1 X64.61 Y131.777 E.0032
G1 X64.094 Y131.777 E.01446
G1 X64.094 Y131.672 E.00294
G1 X63.579 Y131.681 E.01444
G1 X63.579 Y131.777 E.00269
G1 X63.063 Y131.777 E.01446
G1 X63.063 Y131.689 E.00247
G1 X62.547 Y131.698 E.01446
G1 X62.547 Y131.777 E.00221
G1 X62.032 Y131.777 E.01443
G1 X62.032 Y131.707 E.00196
G1 X61.516 Y131.715 E.01446
G1 X61.516 Y131.777 E.00174
G1 X61.001 Y131.777 E.01443
G1 X61.001 Y131.724 E.00149
G1 X57.907 Y131.776 E.08673
M204 S1000
G1 X57.907 Y131.776 F10800
G1 X57.391 Y131.772
M204 S800
G1 F1200
G1 X56.876 Y131.777 E.01444
G1 X56.876 Y131.723 E.00151
G1 X56.36 Y131.608 E.01482
G1 X56.36 Y131.777 E.00474
G1 X55.844 Y131.777 E.01446
G1 X55.844 Y131.424 E.00989
G1 X55.329 Y131.159 E.01623
G1 X55.329 Y131.777 E.01732
G1 X54.813 Y131.777 E.01446
G1 X54.813 Y130.797 E.02747
G1 X54.298 Y130.29 E.02026
G1 X54.298 Y131.777 E.04168
G1 X53.782 Y131.777 E.01446
G1 X53.782 Y129.555 E.06228
G1 X53.519 Y128.964 E.01813
M204 S1000
G1 X53.519 Y128.964 F10800
G1 X54.198 Y129.145
M204 S800
;TYPE:Support material
;WIDTH:0.42
G1 F1200
G1 X54.777 Y130.004 E.03248
G1 X55.459 Y130.593 E.02825
G1 X56.261 Y131.001 E.02821
G1 X57.138 Y131.206 E.02824
G1 X70.923 Y131.003 E.43227
G1 X70.923 Y131.189 E.00583
G1 X57.131 Y131.392 E.43249
G1 X56.21 Y131.18 E.02963
G1 X55.366 Y130.754 E.02964
G1 X54.989 Y130.468 E.01484
G1 X54.356 Y129.778 E.02936
G1 X53.994 Y129.145 E.02286
G1 X54.142 Y129.145 E.00464
M204 S1000
;WIPE_START
G1 F8640
G1 X53.994 Y129.145 E-.03417
G1 X54.356 Y129.778 E-.16837
G1 X54.989 Y130.468 E-.21621
G1 X55.366 Y130.754 E-.10926
G1 X56.21 Y131.18 E-.2183
G1 X56.437 Y131.232 E-.05369
;WIPE_END
G1 Z.6 F720
G1 X51.398 Y129.144 F10800
G1 Z.2 F720
G1 E.8 F2100
M204 S800
G1 F1200
G1 X51.398 Y132.144 E.09406
G1 X70.923 Y132.144 E.61219
G1 X70.923 Y137.04 E.15351
M73 Q1 S47
G1 X51.134 Y137.04 E.62047
G1 X51.134 Y129.144 E.24757
G1 X51.342 Y129.144 E.00652
M204 S1000
;WIPE_START
G1 F8640
G1 X51.134 Y129.144 E-.04803
G1 X51.134 Y132.401 E-.75197
;WIPE_END
G1 Z.6 F720
G1 X70.314 Y136.87 F10800
G1 Z.2 F720
G1 E.8 F2100
M204 S800
G1 F1200
G1 X70.314 Y132.484 E.13752
G1 X69.895 Y132.484 E.01314
G1 X69.895 Y136.701 E.13222
G1 X69.476 Y136.701 E.01314
G1 X69.476 Y132.484 E.13222
G1 X69.057 Y132.484 E.01314
G1 X69.057 Y136.701 E.13222
G1 X68.638 Y136.701 E.01314
G1 X68.638 Y132.484 E.13222
G1 X68.219 Y132.484 E.01314
G1 X68.219 Y136.701 E.13222
G1 X67.8 Y136.701 E.01314
G1 X67.8 Y132.484 E.13222
G1 X67.381 Y132.484 E.01314
G1 X67.381 Y136.701 E.13222
G1 X66.962 Y136.701 E.01314
G1 X66.962 Y132.484 E.13222
G1 X66.543 Y132.484 E.01314
G1 X66.543 Y136.701 E.13222
G1 X66.124 Y136.701 E.01314
G1 X66.124 Y132.484 E.13222
G1 X65.705 Y132.484 E.01314
G1 X65.705 Y136.701 E.13222
G1 X65.286 Y136.701 E.01314
G1 X65.286 Y132.484 E.13222
G1 X64.867 Y132.484 E.01314
G1 X64.867 Y136.701 E.13222
G1 X64.448 Y136.701 E.01314
G1 X64.448 Y132.484 E.13222
G1 X64.029 Y132.484 E.01314
G1 X64.029 Y136.701 E.13222
G1 X63.61 Y136.701 E.01314
G1 X63.61 Y132.484 E.13222
G1 X63.191 Y132.484 E.01314
G1 X63.191 Y136.701 E.13222
G1 X62.772 Y136.701 E.01314
G1 X62.772 Y132.484 E.13222
G1 X62.353 Y132.484 E.01314
G1 X62.353 Y136.701 E.13222
G1 X61.934 Y136.701 E.01314
G1 X61.934 Y132.484 E.13222
G1 X61.515 Y132.484 E.01314
G1 X61.515 Y136.701 E.13222
G1 X61.096 Y136.701 E.01314
G1 X61.096 Y132.484 E.13222
G1 X60.677 Y132.484 E.01314
G1 X60.677 Y136.701 E.13222
G1 X60.258 Y136.701 E.01314
G1 X60.258 Y132.484 E.13222
G1 X59.839 Y132.484 E.01314
G1 X59.839 Y136.701 E.13222
G1 X59.42 Y136.701 E.01314
G1 X59.42 Y132.484 E.13222
G1 X59.001 Y132.484 E.01314
G1 X59.001 Y136.701 E.13222
G1 X58.582 Y136.701 E.01314
G1 X58.582 Y132.484 E.13222
G1 X58.163 Y132.484 E.01314
G1 X58.163 Y136.701 E.13222
G1 X57.744 Y136.701 E.01314
G1 X57.744 Y132.484 E.13222
G1 X57.325 Y132.484 E.01314
G1 X57.325 Y136.701 E.13222
G1 X56.906 Y136.701 E.01314
G1 X56.906 Y132.484 E.13222
G1 X56.487 Y132.484 E.01314
G1 X56.487 Y136.701 E.13222
G1 X56.068 Y136.701 E.01314
G1 X56.068 Y132.484 E.13222
G1 X55.649 Y132.484 E.01314
G1 X55.649 Y136.701 E.13222
G1 X55.23 Y136.701 E.01314
G1 X55.23 Y132.484 E.13222
G1 X54.811 Y132.484 E.01314
G1 X54.811 Y136.701 E.13222
G1 X54.392 Y136.701 E.01314
G1 X54.392 Y132.484 E.13222
G1 X53.973 Y132.484 E.01314
G1 X53.973 Y136.701 E.13222
G1 X53.554 Y136.701 E.01314
G1 X53.554 Y132.484 E.13222
G1 X53.136 Y132.484 E.01311
G1 X53.136 Y136.701 E.13222
G1 X52.717 Y136.701 E.01314
G1 X52.717 Y132.484 E.13222
G1 X52.298 Y132.484 E.01314
G1 X52.298 Y136.701 E.13222
G1 X51.879 Y136.701 E.01314
G1 X51.879 Y132.314 E.13755
M204 S1000
;WIPE_START
G1 F8640
G1 X51.879 Y135.778 E-.8
;WIPE_END
G1 Z.6 F720
G1 X53.519 Y111.49 F10800
G1 Z.2 F720
G1 E.8 F2100
M204 S800
;TYPE:Support material interface
;WIDTH:0.38
G1 F1200
G1 X53.782 Y111.056 E.01422
G1 X53.782 Y108.62 E.06828
G1 X54.298 Y108.62 E.01446
G1 X54.298 Y110.446 E.05118
G1 X54.813 Y110.005 E.019
G1 X54.813 Y108.62 E.03882
G1 X55.329 Y108.62 E.01446
G1 X55.329 Y109.692 E.03005
G1 X55.844 Y109.468 E.01574
G1 X55.844 Y108.62 E.02377
G1 X56.36 Y108.62 E.01446
G1 X56.36 Y109.317 E.01954
G1 X56.876 Y109.233 E.01465
G1 X56.876 Y108.62 E.01718
G1 X57.391 Y108.62 E.01443
G1 X57.391 Y109.203 E.01634
G1 X57.907 Y109.194 E.01446
G1 X57.907 Y108.62 E.01609
G1 X58.422 Y108.62 E.01443
G1 X58.422 Y109.186 E.01586
G1 X58.938 Y109.177 E.01446
G1 X58.938 Y108.62 E.01561
G1 X59.454 Y108.62 E.01446
G1 X59.454 Y109.168 E.01536
G1 X59.969 Y109.16 E.01444
G1 X59.969 Y108.62 E.01514
G1 X60.485 Y108.62 E.01446
G1 X60.485 Y109.151 E.01488
G1 X61.001 Y109.142 E.01446
G1 X61.001 Y108.62 E.01463
G1 X61.516 Y108.62 E.01443
G1 X61.516 Y109.134 E.01441
G1 X62.032 Y109.125 E.01446
G1 X62.032 Y108.62 E.01415
G1 X62.547 Y108.62 E.01443
G1 X62.547 Y109.116 E.0139
G1 X63.063 Y109.108 E.01446
G1 X63.063 Y108.62 E.01368
G1 X63.579 Y108.62 E.01446
G1 X63.579 Y109.099 E.01343
G1 X64.094 Y109.09 E.01444
G1 X64.094 Y108.62 E.01317
G1 X64.61 Y108.62 E.01446
G1 X64.61 Y109.081 E.01292
G1 X65.126 Y109.073 E.01446
G1 X65.126 Y108.62 E.0127
G1 X65.641 Y108.62 E.01443
G1 X65.641 Y109.064 E.01244
G1 X66.157 Y109.055 E.01446
G1 X66.157 Y108.62 E.01219
G1 X66.672 Y108.62 E.01443
G1 X66.672 Y109.047 E.01197
G1 X67.188 Y109.038 E.01446
G1 X67.188 Y108.62 E.01172
G1 X67.704 Y108.62 E.01446
G1 X67.704 Y109.029 E.01146
G1 X68.219 Y109.021 E.01444
G1 X68.219 Y108.62 E.01124
G1 X68.735 Y108.62 E.01446
G1 X68.735 Y109.012 E.01099
G1 X69.25 Y109.003 E.01444
G1 X69.25 Y108.62 E.01073
G1 X69.766 Y108.62 E.01446
G1 X69.766 Y108.995 E.01051
G1 X70.282 Y108.986 E.01446
G1 X70.282 Y108.62 E.01026
G1 X70.797 Y108.62 E.01443
G1 X70.797 Y108.977 E.01001
G1 X71.313 Y108.968 E.01446
G1 X71.313 Y108.62 E.00975
G1 X71.829 Y108.62 E.01446
G1 X71.829 Y108.96 E.00953
G1 X72.344 Y108.951 E.01444
G1 X72.344 Y108.62 E.00928
G1 X72.86 Y108.62 E.01446
G1 X72.86 Y108.942 E.00903
G1 X73.375 Y108.934 E.01444
G1 X73.375 Y108.62 E.0088
G1 X73.891 Y108.62 E.01446
G1 X73.891 Y108.925 E.00855
G1 X74.407 Y108.916 E.01446
G1 X74.407 Y108.62 E.0083
G1 X74.922 Y108.62 E.01443
G1 X74.922 Y108.908 E.00807
G1 X75.438 Y108.899 E.01446
G1 X75.438 Y108.62 E.00782
G1 X75.954 Y108.62 E.01446
G1 X75.954 Y108.89 E.00757
G1 X76.469 Y108.881 E.01444
G1 X76.469 Y108.62 E.00732
G1 X76.985 Y108.62 E.01446
G1 X76.985 Y108.873 E.00709
G1 X77.5 Y108.864 E.01444
G1 X77.5 Y108.62 E.00684
G1 X78.016 Y108.62 E.01446
G1 X78.016 Y108.855 E.00659
G1 X78.532 Y108.847 E.01446
G1 X78.532 Y108.62 E.00636
G1 X79.047 Y108.62 E.01443
G1 X79.047 Y108.838 E.00611
G1 X79.563 Y108.829 E.01446
G1 X79.563 Y108.62 E.00586
G1 X80.078 Y108.62 E.01443
G1 X80.078 Y108.821 E.00563
G1 X80.594 Y108.812 E.01446
G1 X80.594 Y108.62 E.00538
G1 X81.11 Y108.62 E.01446
G1 X81.11 Y108.803 E.00513
G1 X81.625 Y108.795 E.01444
G1 X81.625 Y108.62 E.0049
G1 X82.141 Y108.62 E.01446
G1 X82.141 Y108.786 E.00465
G1 X82.657 Y108.777 E.01446
G1 X82.657 Y108.62 E.0044
G1 X83.172 Y108.62 E.01443
G1 X83.172 Y108.768 E.00415
G1 X83.688 Y108.76 E.01446
G1 X83.688 Y108.62 E.00392
G1 X84.203 Y108.62 E.01443
G1 X84.203 Y108.751 E.00367
G1 X84.719 Y108.742 E.01446
G1 X84.719 Y108.62 E.00342
G1 X85.235 Y108.62 E.01446
G1 X85.235 Y108.734 E.0032
G1 X85.75 Y108.725 E.01444
G1 X85.75 Y108.62 E.00294
G1 X86.266 Y108.62 E.01446
G1 X86.266 Y108.716 E.00269
G1 X86.782 Y108.708 E.01446
G1 X86.782 Y108.62 E.00247
G1 X87.297 Y108.62 E.01443
G1 X87.297 Y108.699 E.00221
G1 X87.813 Y108.69 E.01446
G1 X87.813 Y108.62 E.00196
G1 X88.328 Y108.62 E.01443
G1 X88.328 Y108.682 E.00174
G1 X88.844 Y108.673 E.01446
G1 X88.844 Y108.62 E.00149
G1 X91.938 Y108.62 E.08672
M204 S1000
G1 X91.938 Y108.62 F10800
G1 X92.242 Y108.984
M204 S800
;TYPE:Support material
;WIDTH:0.42
G1 F1200
G1 X93.171 Y109.081 E.02929
G1 X93.626 Y109.213 E.01485
G1 X94.471 Y109.638 E.02966
G1 X95.196 Y110.258 E.02991
G1 X95.851 Y111.252 E.03732
G1 X95.646 Y111.252 E.00643
G1 X95.067 Y110.393 E.03248
G1 X94.357 Y109.785 E.02931
G1 X93.551 Y109.384 E.02823
G1 X92.707 Y109.191 E.02715
G1 X78.921 Y109.394 E.4323
G1 X78.921 Y109.208 E.00583
G1 X92.186 Y108.984 E.41597
M204 S1000
G1 X92.186 Y108.984 F10800
G1 X92.453 Y108.62
M204 S800
;TYPE:Support material interface
;WIDTH:0.38
G1 F1200
G1 X92.969 Y108.674 E.01454
G1 X92.969 Y108.62 E.00151
