; generated by PrusaSlicer 2.9.0 on 2025-02-02 at 20:42:31 UTC


;
;
; 

; external perimeters extrusion width = 0.60mm
; perimeters extrusion width = 0.50mm
; infill extrusion width = 0.50mm
; solid infill extrusion width = 0.50mm
; top infill extrusion width = 0.45mm
; first layer extrusion width = 0.42mm

M73 P0 R95
M73 Q0 S95
M201 X1000 Y1000 Z200 E5000 ; sets maximum accelerations, mm/sec^2
M203 X200 Y200 Z12 E120 ; sets maximum feedrates, mm / sec
M204 S1250 T1250 ; sets acceleration (S) and retract acceleration (R), mm/sec^2
M205 X8.00 Y8.00 Z0.40 E4.50 ; sets the jerk limits, mm/sec
M205 S0 T0 ; sets the minimum extruding and travel feed rate, mm/sec

; printing object manhasset_stand_wrench_2.stl id:0 copy 0
; stop printing object manhasset_stand_wrench_2.stl id:0 copy 0
; printing object manhasset_stand_wrench_2.stl id:0 copy 1
; stop printing object manhasset_stand_wrench_2.stl id:0 copy 1

;TYPE:Custom
M862.3 P "MK3S" ; printer model check
M862.1 P0.4 ; nozzle diameter check
M115 U3.14.1 ; tell printer latest fw version
G90 ; use absolute coordinates
M83 ; extruder relative mode
M104 S215 ; set extruder temp
M140 S60 ; set bed temp
M190 S60 ; wait for bed temp
M109 S215 ; wait for extruder temp
G28 W ; home all without mesh bed level
G80 X48.1706 Y51.6302 W51.332 H83.632 ; mesh bed levelling

G1 Z0.2 F720
G1 Y-3 F1000 ; go outside print area
G92 E0
G1 X60 E9 F1000 ; intro line
G1 X100 E12.5 F1000 ; intro line
M73 P0 R94

G92 E0
M221 S95

; Don't change E values below. Excessive value can damage the printer.

M907 E538 ; set extruder motor current
G21 ; set units to millimeters
G90 ; use absolute coordinates
M83 ; use relative distances for extrusion

M900 K0.05 ; Filament gcode LA 1.5
M900 K30 ; Filament gcode LA 1.0




M107
;LAYER_CHANGE
;Z:0.2
;HEIGHT:0.2
G1 E-.8 F2100
G1 Z.6 F720
G1 X55.312 Y55.178 F10800
G1 Z.2 F720
G1 E.8 F2100
M204 S800
;TYPE:Skirt/Brim
;WIDTH:0.42
G1 F1200
G1 X57.687 Y53.511 E.09098
G1 X60.357 Y52.375 E.09098
G1 X63.204 Y51.819 E.09095
G1 X66 Y51.847 E.08767
G1 X90.582 Y55.825 E.78078
G1 X92.262 Y56.179 E.05383
G1 X94.167 Y56.976 E.06475
G1 X95.866 Y58.15 E.06475
G1 X97.283 Y59.653 E.06477
G1 X98.357 Y61.417 E.06475
G1 X99.041 Y63.366 E.06476
G1 X99.314 Y65.729 E.07458
G1 X97.133 Y121.335 E1.74483
G1 X96.859 Y123.526 E.06923
G1 X96.362 Y125.057 E.05047
G1 X95.371 Y126.869 E.06476
G1 X93.685 Y128.742 E.07901
G1 X92.382 Y129.688 E.05049
G1 X90.516 Y130.572 E.06474
G1 X88.401 Y131.067 E.06811
G1 X63.819 Y135.046 E.78078
G1 X61.023 Y135.074 E.08767
G1 X58.175 Y134.517 E.09099
G1 X55.506 Y133.381 E.09095
G1 X52.791 Y131.408 E.10523
G1 X51.154 Y129.591 E.07668
G1 X49.662 Y127.102 E.09099
G1 X48.625 Y123.91 E.10523
G1 X48.359 Y121.163 E.08653
G1 X50.54 Y65.558 E1.7448
G1 X50.901 Y62.534 E.09549
G1 X51.843 Y59.79 E.09096
G1 X53.335 Y57.302 E.09096
G1 X55.271 Y55.222 E.0891
M204 S1000
;WIPE_START
G1 F8640
G1 X55.312 Y55.178 E-.01389
G1 X57.687 Y53.511 E-.67
G1 X58.15 Y53.314 E-.11611
;WIPE_END
G1 Z.6 F720
; printing object manhasset_stand_wrench_2.stl id:0 copy 0
G1 X89.668 Y115.367 F10800
G1 Z.2 F720
G1 E.8 F2100
M204 S800
;TYPE:External perimeter
;WIDTH:0.461836
G1 F1200
G1 X90.028 Y115.955 E.02402
;WIDTH:0.419999
G1 X93.03 Y121.155 E.18826
G1 X93.048 Y121.301 E.00461
G1 X90.028 Y126.543 E.18968
;WIDTH:0.442112
G1 X89.729 Y127.083 E.02049
;WIDTH:0.461836
G1 X89.642 Y127.174 E.00439
G1 X89.271 Y127.171 E.01292
;WIDTH:0.419999
G1 X82.936 Y127.171 E.19863
G1 X82.833 Y127.141 E.00336
G1 X82.772 Y127.077 E.00277
G1 X79.462 Y121.343 E.20759
G1 X79.438 Y121.222 E.00387
G1 X82.772 Y115.421 E.20979
G1 X82.933 Y115.326 E.00586
G1 X87.847 Y115.326 E.15407
;WIDTH:0.420212
G1 X89.271 Y115.326 E.04467
;WIDTH:0.461836
G1 X89.633 Y115.324 E.01261
M204 S1000
;WIPE_START
G1 F8640
G1 X89.668 Y115.367 E-.0128
G1 X90.028 Y115.955 E-.1592
G1 X91.388 Y118.31 E-.628
;WIPE_END
G1 Z.6 F720
G1 X53.028 Y121.249 F10800
G1 Z.2 F720
G1 E.8 F2100
M204 S800
;TYPE:Perimeter
;WIDTH:0.419999
G1 F1200
G1 X53.028 Y121.15 E.0031
G1 X53.149 Y120.778 E.01227
G1 X57.289 Y113.606 E.25965
G1 X57.551 Y113.315 E.01228
G1 X57.722 Y113.216 E.0062
G1 X58.106 Y113.135 E.0123
G1 X59.361 Y113.135 E.03935
G1 X66.386 Y113.135 E.22026
G1 X66.537 Y113.147 E.00475
G1 X66.879 Y113.274 E.01144
G1 X67.203 Y113.606 E.01455
G1 X71.343 Y120.778 E.25965
G1 X71.46 Y121.114 E.01116
G1 X71.46 Y121.384 E.00847
G1 X71.343 Y121.72 E.01116
G1 X67.203 Y128.892 E.25965
G1 X66.879 Y129.224 E.01455
G1 X66.537 Y129.351 E.01144
G1 X65.66 Y129.363 E.0275
G1 X58.106 Y129.363 E.23685
G1 X57.722 Y129.282 E.0123
G1 X57.551 Y129.183 E.0062
G1 X57.289 Y128.892 E.01228
G1 X53.149 Y121.72 E.25965
G1 X53.028 Y121.347 E.0123
G1 X53.028 Y121.309 E.00119
M204 S1000
G1 X53.028 Y121.309 F10800
G1 X53.402 Y121.258
M204 S800
G1 F1200
G1 X53.4 Y121.249 E.00029
G1 X53.475 Y120.966 E.00918
G1 X57.616 Y113.795 E.25964
G1 X57.823 Y113.588 E.00918
G1 X58.106 Y113.512 E.00919
G1 X59.361 Y113.512 E.03935
G1 X66.386 Y113.512 E.22026
G1 X66.682 Y113.595 E.00964
G1 X66.876 Y113.795 E.00874
G1 X71.017 Y120.966 E.25964
G1 X71.093 Y121.249 E.00919
G1 X71.017 Y121.532 E.00919
G1 X66.876 Y128.703 E.25964
G1 X66.682 Y128.903 E.00874
G1 X66.477 Y128.979 E.00686
G1 X65.66 Y128.986 E.02562
G1 X58.106 Y128.986 E.23685
G1 X57.823 Y128.91 E.00919
G1 X57.616 Y128.703 E.00918
G1 X53.475 Y121.532 E.25964
G1 X53.417 Y121.315 E.00704
M204 S1000
G1 X53.417 Y121.315 F10800
G1 X53.783 Y121.255
M204 S800
;TYPE:External perimeter
G1 F1200
G1 X53.778 Y121.229 E.00083
G1 X53.802 Y121.155 E.00244
G1 X57.942 Y113.983 E.25965
G1 X58.029 Y113.905 E.00366
G1 X58.106 Y113.889 E.00247
G1 X59.361 Y113.889 E.03935
G1 X66.386 Y113.889 E.22026
G1 X66.485 Y113.917 E.00323
G1 X66.55 Y113.983 E.0029
G1 X70.69 Y121.155 E.25965
G1 X70.708 Y121.301 E.00461
G1 X70.357 Y121.92 E.02231
G1 X66.55 Y128.515 E.23876
G1 X66.417 Y128.607 E.00507
G1 X58.106 Y128.609 E.26059
G1 X57.995 Y128.573 E.00366
G1 X57.942 Y128.515 E.00246
G1 X53.802 Y121.343 E.25965
G1 X53.796 Y121.314 E.00093
M204 S1000
;WIPE_START
G1 F8640
G1 X53.783 Y121.255 E-.01395
G1 X53.778 Y121.229 E-.00611
G1 X53.802 Y121.155 E-.01796
G1 X55.452 Y118.297 E-.76198
;WIPE_END
G1 Z.6 F720
G1 X87.847 Y127.631 F10800
G1 Z.2 F720
G1 E.8 F2100
M204 S800
;TYPE:Perimeter
;WIDTH:0.629008
G1 F1200
G1 X87.574 Y127.653 E.01335
M204 S1000
;WIPE_START
G1 F8640
G1 X87.847 Y127.631 E-.06324
G1 X87.574 Y127.653 E-.06324
;WIPE_END
G1 E-.67352 F2100
G1 Z.6 F720
G1 X91.246 Y116.613 F10800
G1 Z.2 F720
G1 E.8 F2100
M204 S800
;WIDTH:0.362692
G1 F1200
G1 X91.351 Y116.69 E.00346
G1 X92.21 Y117.643 E.03411
G1 X92.851 Y118.754 E.0341
G1 X93.246 Y119.971 E.03402
G1 X93.261 Y120.103 E.00353
G1 X91.276 Y116.665 E.10556
M204 S1000
;WIPE_START
G1 F8640
G1 X91.246 Y116.613 E-.01386
G1 X91.351 Y116.69 E-.03007
G1 X92.21 Y117.643 E-.29625
G1 X92.851 Y118.754 E-.29617
G1 X93.07 Y119.428 E-.16365
;WIPE_END
G1 Z.6 F720
G1 X93.261 Y122.395 F10800
G1 Z.2 F720
G1 E.8 F2100
M204 S800
;WIDTH:0.362706
G1 F1200
G1 X93.247 Y122.525 E.00348
G1 X92.851 Y123.744 E.03408
G1 X92.21 Y124.855 E.03411
G1 X91.353 Y125.806 E.03404
G1 X91.246 Y125.885 E.00354
G1 X93.231 Y122.447 E.10556
M204 S1000
;WIPE_START
G1 F8640
G1 X93.261 Y122.395 E-.01386
G1 X93.247 Y122.525 E-.03019
G1 X92.851 Y123.744 E-.29595
G1 X92.21 Y124.855 E-.29617
G1 X91.735 Y125.382 E-.16383
;WIPE_END
G1 Z.6 F720
G1 X90.204 Y115.505 F10800
G1 Z.2 F720
G1 E.8 F2100
M204 S800
;WIDTH:0.419999
G1 F1200
G1 X90.489 Y115.632 E.00978
G1 X91.586 Y116.429 E.04251
G1 X92.493 Y117.437 E.04252
G1 X93.171 Y118.611 E.04251
G1 X93.578 Y119.863 E.04128
G1 X93.75 Y121.267 E.04435
;WIDTH:0.400299
G1 X93.7 Y121.641 E.01121
;WIDTH:0.419999
G1 X93.59 Y122.597 E.03017
G1 X93.171 Y123.887 E.04253
G1 X92.493 Y125.061 E.04251
G1 X91.586 Y126.069 E.04252
G1 X90.497 Y126.86 E.0422
G1 X90.204 Y126.993 E.01009
G1 X93.348 Y121.527 E.19771
;WIDTH:0.400299
G1 X93.409 Y121.306 E.00681
;WIDTH:0.410146
G1 X93.353 Y120.969 E.01043
;WIDTH:0.419999
G1 X90.234 Y115.557 E.19585
M204 S1000
;WIPE_START
G1 F8640
G1 X90.204 Y115.505 E-.01386
G1 X90.489 Y115.632 E-.07205
G1 X91.586 Y116.429 E-.31309
G1 X92.493 Y117.437 E-.3131
G1 X92.683 Y117.767 E-.0879
;WIPE_END
G1 Z.6 F720
G1 X84.308 Y127.916 F10800
G1 Z.2 F720
G1 E.8 F2100
M204 S800
;WIDTH:0.444192
G1 F1200
G1 X84.033 Y127.938 E.0092
;WIDTH:0.488312
G1 X83.759 Y127.96 E.01018
;WIDTH:0.532431
G1 X83.484 Y127.982 E.01123
;WIDTH:0.576551
G1 X83.21 Y128.004 E.0122
;WIDTH:0.62067
G1 X82.936 Y128.026 E.01321
M204 S1000
;WIPE_START
G1 F8640
G1 X84.308 Y127.916 E-.31782
G1 X84.033 Y127.938 E-.0637
G1 X83.759 Y127.96 E-.06347
G1 X83.484 Y127.982 E-.0637
G1 X83.21 Y128.004 E-.06347
G1 X82.936 Y128.026 E-.06347
;WIPE_END
G1 E-.16437 F2100
G1 Z.6 F720
G1 X57.768 Y129.768 F10800
G1 Z.2 F720
G1 E.8 F2100
M204 S800
;WIDTH:0.55972
G1 F1200
G1 X57.414 Y129.618 E.01652
;WIDTH:0.546398
G1 X57.295 Y129.536 E.00605
M204 S1000
;WIPE_START
G1 F8640
G1 X57.768 Y129.768 E-.12165
G1 X57.414 Y129.618 E-.08877
G1 X57.295 Y129.536 E-.03337
;WIPE_END
G1 E-.55621 F2100
G1 Z.6 F720
G1 X52.629 Y121.631 F10800
G1 Z.2 F720
G1 E.8 F2100
M204 S800
;WIDTH:0.559712
G1 F1200
G1 X52.691 Y121.725 E.00484
;WIDTH:0.518951
G1 X52.753 Y121.819 E.00446
;WIDTH:0.47819
G1 X52.815 Y121.913 E.00408
;WIDTH:0.437428
G1 X53.45 Y122.996 E.04118
;WIDTH:0.419999
G1 X56.963 Y129.08 E.22028
;WIDTH:0.459607
G1 X57.073 Y129.232 E.0065
;WIDTH:0.499215
G1 X57.184 Y129.384 E.00714
;WIDTH:0.538822
G1 X57.295 Y129.536 E.00776
G1 X57.125 Y129.437 E.00811
;WIDTH:0.499215
G1 X56.955 Y129.339 E.00744
;WIDTH:0.459607
G1 X56.786 Y129.24 E.00679
;WIDTH:0.419999
G1 X55.737 Y128.478 E.04065
G1 X54.376 Y126.967 E.06376
G1 X53.36 Y125.205 E.06377
G1 X52.727 Y123.231 E.065
;WIDTH:0.437428
G1 X52.604 Y121.982 E.04117
;WIDTH:0.47819
G1 X52.613 Y121.865 E.00425
;WIDTH:0.518951
G1 X52.621 Y121.748 E.00464
;WIDTH:0.559712
G1 X52.625 Y121.691 E.00246
M204 S1000
G1 X52.625 Y121.691 F10800
G1 X52.629 Y121.631
M204 S800
G1 F1200
G1 X52.582 Y121.249 E.01654
;WIDTH:0.546384
G1 X52.594 Y121.105 E.00605
M204 S1000
M204 S800
;WIDTH:0.53881
G1 X52.594 Y120.908 E.00812
;WIDTH:0.499207
G1 X52.595 Y120.712 E.00744
;WIDTH:0.459603
G1 X52.596 Y120.515 E.00683
;WIDTH:0.419999
G1 X52.731 Y119.227 E.04061
G1 X53.36 Y117.292 E.0638
G1 X54.376 Y115.531 E.06375
G1 X55.77 Y113.996 E.06501
;WIDTH:0.437441
G1 X56.791 Y113.265 E.04119
;WIDTH:0.478202
G1 X56.896 Y113.214 E.00422
;WIDTH:0.518963
G1 X57.001 Y113.163 E.00462
;WIDTH:0.559724
G1 X57.107 Y113.111 E.00507
G1 X57.056 Y113.212 E.00486
;WIDTH:0.518963
G1 X57.006 Y113.313 E.00446
;WIDTH:0.478202
G1 X56.955 Y113.413 E.00406
;WIDTH:0.437441
G1 X56.335 Y114.505 E.04119
;WIDTH:0.419999
G1 X52.822 Y120.589 E.22028
;WIDTH:0.459603
G1 X52.746 Y120.761 E.00652
;WIDTH:0.499207
G1 X52.67 Y120.933 E.00713
;WIDTH:0.53881
G1 X52.618 Y121.05 E.00528
M204 S1000
;WIPE_START
G1 F8640
G1 X52.594 Y121.105 E-.01386
G1 X52.594 Y120.908 E-.04549
G1 X52.595 Y120.712 E-.04526
G1 X52.596 Y120.515 E-.04549
G1 X52.731 Y119.227 E-.29903
G1 X53.2 Y117.782 E-.35087
;WIPE_END
G1 Z.6 F720
G1 X57.107 Y113.111 F10800
G1 Z.2 F720
G1 E.8 F2100
M204 S800
;WIDTH:0.559724
G1 F1200
G1 X57.414 Y112.88 E.01651
;WIDTH:0.546398
G1 X57.545 Y112.818 E.00607
M204 S1000
M204 S800
;WIDTH:0.53882
G1 X57.715 Y112.72 E.00809
;WIDTH:0.499213
G1 X57.886 Y112.622 E.00748
;WIDTH:0.459606
G1 X58.056 Y112.525 E.00678
;WIDTH:0.419999
G1 X59.24 Y111.998 E.04063
G1 X61.229 Y111.575 E.06376
G1 X63.301 Y111.575 E.06497
G1 X65.723 Y111.967 E.07693
;WIDTH:0.464358
G1 X65.818 Y112.005 E.00359
;WIDTH:0.508716
G1 X65.913 Y112.042 E.00395
;WIDTH:0.553074
G1 X66.008 Y112.08 E.00434
;WIDTH:0.597432
G1 X66.103 Y112.118 E.00472
G1 X66.691 Y112.195 E.02734
;WIDTH:0.560389
G1 X66.909 Y112.206 E.00939
;WIDTH:0.513593
G1 X67.127 Y112.218 E.00854
;WIDTH:0.466796
G1 X67.344 Y112.229 E.00766
;WIDTH:0.419999
G1 X82.03 Y114.606 E.46646
G1 X81.793 Y114.855 E.01078
G1 X78.482 Y120.589 E.20761
G1 X78.357 Y120.883 E.01002
G1 X78.305 Y121.249 E.01159
G1 X78.357 Y121.615 E.01159
G1 X78.482 Y121.909 E.01002
G1 X81.793 Y127.643 E.20761
G1 X82.03 Y127.892 E.01078
G1 X68.248 Y130.122 E.43774
;WIDTH:0.432583
G1 X67.343 Y130.263 E.02968
;WIDTH:0.479349
G1 X67.22 Y130.259 E.00447
;WIDTH:0.526115
G1 X67.097 Y130.255 E.00494
;WIDTH:0.57288
G1 X66.974 Y130.251 E.00542
G1 X66.691 Y130.303 E.01268
;WIDTH:0.597432
G1 X66.103 Y130.38 E.02734
G1 X66.008 Y130.418 E.00472
;WIDTH:0.553074
G1 X65.913 Y130.456 E.00434
;WIDTH:0.508716
G1 X65.818 Y130.493 E.00395
;WIDTH:0.464358
G1 X65.723 Y130.531 E.00359
;WIDTH:0.419999
G1 X63.301 Y130.923 E.07693
G1 X61.229 Y130.923 E.06497
G1 X59.203 Y130.484 E.065
;WIDTH:0.437447
G1 X58.06 Y129.965 E.04118
;WIDTH:0.478205
G1 X57.962 Y129.9 E.00426
;WIDTH:0.518963
G1 X57.865 Y129.834 E.00464
;WIDTH:0.55972
G1 X57.768 Y129.768 E.00504
G1 X57.881 Y129.762 E.00486
;WIDTH:0.518963
G1 X57.993 Y129.755 E.00444
;WIDTH:0.478205
G1 X58.106 Y129.749 E.0041
;WIDTH:0.437447
G1 X59.361 Y129.74 E.04117
;WIDTH:0.419999
G1 X65.66 Y129.74 E.1975
;WIDTH:0.464358
G1 X65.759 Y129.762 E.00355
;WIDTH:0.508716
G1 X65.859 Y129.785 E.00397
;WIDTH:0.553074
G1 X65.959 Y129.807 E.00434
;WIDTH:0.597432
G1 X66.058 Y129.829 E.00468
G1 X66.386 Y129.816 E.01514
;WIDTH:0.57288
G1 X66.844 Y129.739 E.02047
G1 X66.923 Y129.677 E.00443
;WIDTH:0.526115
G1 X67.001 Y129.614 E.00403
;WIDTH:0.479349
G1 X67.08 Y129.551 E.00367
;WIDTH:0.432583
G1 X67.529 Y129.08 E.02108
;WIDTH:0.419999
G1 X71.67 Y121.909 E.25964
G1 X71.795 Y121.615 E.01002
G1 X71.847 Y121.249 E.01159
G1 X71.795 Y120.883 E.01159
G1 X71.67 Y120.589 E.01002
G1 X67.529 Y113.418 E.25964
G1 X67.076 Y112.952 E.02038
;WIDTH:0.466796
G1 X66.92 Y112.87 E.00621
;WIDTH:0.513593
G1 X66.764 Y112.788 E.0069
;WIDTH:0.560389
G1 X66.609 Y112.705 E.00757
;WIDTH:0.597432
G1 X66.058 Y112.669 E.02546
G1 X65.959 Y112.691 E.00468
;WIDTH:0.553074
G1 X65.859 Y112.713 E.00434
;WIDTH:0.508716
G1 X65.759 Y112.736 E.00397
;WIDTH:0.464358
G1 X65.66 Y112.758 E.00355
;WIDTH:0.419999
G1 X58.106 Y112.758 E.23685
;WIDTH:0.459606
G1 X57.919 Y112.778 E.00652
;WIDTH:0.499213
G1 X57.732 Y112.798 E.00714
;WIDTH:0.53882
G1 X57.604 Y112.811 E.00531
M204 S1000
;WIPE_START
G1 F8640
G1 X57.545 Y112.818 E-.01372
G1 X57.715 Y112.72 E-.04531
G1 X57.886 Y112.622 E-.04551
G1 X58.056 Y112.525 E-.04519
G1 X59.24 Y111.998 E-.29925
G1 X60.727 Y111.682 E-.35102
;WIPE_END
G1 Z.6 F720
G1 X81.094 Y125.679 F10800
G1 Z.2 F720
G1 E.8 F2100
M204 S800
;WIDTH:0.419999
G1 F1200
G1 X82.119 Y127.454 E.06427
G1 X82.423 Y127.774 E.01384
;WIDTH:0.460134
G1 X82.526 Y127.825 E.00399
;WIDTH:0.500268
G1 X82.628 Y127.875 E.00432
;WIDTH:0.540402
G1 X82.731 Y127.925 E.00474
;WIDTH:0.580536
G1 X82.833 Y127.976 E.0051
;WIDTH:0.62067
G1 X82.936 Y128.026 E.0055
G1 X82.814 Y128.066 E.00617
;WIDTH:0.580536
G1 X82.693 Y128.106 E.0057
;WIDTH:0.540402
G1 X82.571 Y128.146 E.00531
;WIDTH:0.500268
G1 X82.45 Y128.186 E.00485
;WIDTH:0.460134
G1 X82.328 Y128.226 E.00445
;WIDTH:0.419999
G1 X63.331 Y131.3 E.60338
G1 X61.19 Y131.3 E.06713
G1 X59.123 Y130.861 E.06625
G1 X57.193 Y130.002 E.06624
G1 X55.483 Y128.76 E.06627
G1 X54.07 Y127.189 E.06625
G1 X53.013 Y125.36 E.06623
G1 X52.36 Y123.35 E.06626
G1 X52.139 Y121.249 E.06624
G1 X52.36 Y119.148 E.06624
G1 X53.013 Y117.138 E.06626
G1 X54.07 Y115.308 E.06626
G1 X55.483 Y113.738 E.06623
G1 X57.193 Y112.496 E.06627
G1 X59.123 Y111.637 E.06624
G1 X61.19 Y111.198 E.06625
G1 X63.331 Y111.198 E.06713
G1 X82.328 Y114.272 E.60338
;WIDTH:0.460596
G1 X82.447 Y114.312 E.00436
;WIDTH:0.501193
G1 X82.566 Y114.352 E.00478
;WIDTH:0.541789
G1 X82.684 Y114.391 E.00516
;WIDTH:0.582386
G1 X82.803 Y114.431 E.00563
;WIDTH:0.622982
G1 X82.922 Y114.471 E.00606
G1 X82.822 Y114.521 E.00539
;WIDTH:0.582386
G1 X82.722 Y114.572 E.00504
;WIDTH:0.541789
G1 X82.623 Y114.623 E.00462
;WIDTH:0.501193
G1 X82.523 Y114.673 E.00426
;WIDTH:0.460596
G1 X82.423 Y114.724 E.0039
;WIDTH:0.419999
G1 X82.119 Y115.044 E.01384
G1 X78.809 Y120.778 E.20759
G1 X78.692 Y121.114 E.01116
G1 X78.692 Y121.384 E.00847
G1 X78.809 Y121.72 E.01116
G1 X81.064 Y125.627 E.14144
M204 S1000
;WIPE_START
G1 F8640
