; generated by PrusaSlicer 2.9.0 on 2025-01-14 at 18:46:17 UTC


;
;
; 

; external perimeters extrusion width = 0.45mm
; perimeters extrusion width = 0.45mm
; infill extrusion width = 0.45mm
; solid infill extrusion width = 0.45mm
; top infill extrusion width = 0.40mm
; first layer extrusion width = 0.42mm

; external perimeters extrusion width = 0.45mm
; perimeters extrusion width = 0.45mm
; infill extrusion width = 0.45mm
; solid infill extrusion width = 0.45mm
; top infill extrusion width = 0.40mm
; first layer extrusion width = 0.42mm

M73 P0 R111
M73 Q0 S112
M201 X1000 Y1000 Z200 E5000 ; sets maximum accelerations, mm/sec^2
M203 X200 Y200 Z12 E120 ; sets maximum feedrates, mm / sec
M204 S1250 T1250 ; sets acceleration (S) and retract acceleration (R), mm/sec^2
M205 X8.00 Y8.00 Z0.40 E4.50 ; sets the jerk limits, mm/sec
M205 S0 T0 ; sets the minimum extruding and travel feed rate, mm/sec

; printing object sd_card_wallet-base.stl id:0 copy 0
; stop printing object sd_card_wallet-base.stl id:0 copy 0
; printing object sd_card_wallet-lid.stl id:1 copy 0
; stop printing object sd_card_wallet-lid.stl id:1 copy 0

;TYPE:Custom
M862.3 P "MK3S" ; printer model check
M862.1 P0.4 ; nozzle diameter check
M115 U3.14.1 ; tell printer latest fw version
G90 ; use absolute coordinates
M83 ; extruder relative mode
M104 S215 ; set extruder temp
M140 S60 ; set bed temp
M190 S60 ; wait for bed temp
M109 S215 ; wait for extruder temp
G28 W ; home all without mesh bed level
G80 X36.9019 Y51.7778 W187.576 H99.8542 ; mesh bed levelling

G1 Z0.2 F720
G1 Y-3 F1000 ; go outside print area
G92 E0
G1 X60 E9 F1000 ; intro line
G1 X100 E12.5 F1000 ; intro line

G92 E0
M221 S95

; Don't change E values below. Excessive value can damage the printer.
M907 E430 ; set extruder motor current
G21 ; set units to millimeters
G90 ; use absolute coordinates
M83 ; use relative distances for extrusion

M900 K0.05 ; Filament gcode LA 1.5
M900 K30 ; Filament gcode LA 1.0




M107
;LAYER_CHANGE
;Z:0.2
;HEIGHT:0.2
G1 E-.8 F2100
M73 Q0 S111
G1 Z.6 F720
G1 X40.323 Y53.532 F10800
G1 Z.2 F720
G1 E.8 F2100
M204 S800
;TYPE:Skirt/Brim
;WIDTH:0.42
G1 F1200
G1 X41.872 Y52.634 E.05614
G1 X43.581 Y52.104 E.0561
G1 X44.824 Y51.97 E.0392
G1 X120.084 Y51.97 E2.35972
G1 X217.608 Y64.263 E3.08199
G1 X219.559 Y64.859 E.06396
G1 X220.172 Y65.174 E.02161
G1 X221.689 Y66.373 E.06063
G1 X222.836 Y67.747 E.05612
G1 X223.668 Y69.317 E.05571
G1 X224.159 Y71.025 E.05572
G1 X224.29 Y72.412 E.04368
G1 X224.287 Y140.567 E2.13695
G1 X224.168 Y141.777 E.03812
G1 X223.722 Y143.41 E.05308
G1 X222.917 Y144.995 E.05574
G1 X221.968 Y146.207 E.04826
G1 X221.291 Y146.855 E.02938
G1 X220.346 Y147.597 E.03767
G1 X219.709 Y147.944 E.02274
G1 X218.091 Y148.503 E.05367
G1 X217.439 Y148.622 E.02078
G1 X117.932 Y151.443 E3.12123
G1 X46.881 Y151.441 E2.22775
G1 X45.071 Y151.241 E.0571
G1 X43.328 Y150.713 E.0571
G1 X41.711 Y149.877 E.05708
G1 X40.272 Y148.762 E.05708
G1 X39.011 Y147.336 E.05969
G1 X38.431 Y146.449 E.03323
G1 X37.881 Y145.348 E.03859
G1 X37.293 Y143.463 E.06191
G1 X37.09 Y141.557 E.0601
G1 X37.09 Y59.823 E2.56271
G1 X37.228 Y58.457 E.04305
M73 P0 R110
G1 X37.664 Y56.974 E.04847
G1 X38.126 Y56.016 E.03335
G1 X39.013 Y54.751 E.04844
G1 X40.279 Y53.573 E.05422
M204 S1000
;WIPE_START
G1 F8640
G1 X40.323 Y53.532 E-.01389
G1 X41.872 Y52.634 E-.41343
G1 X43.413 Y52.156 E-.37268
;WIPE_END
G1 Z.6 F720
G1 X41.672 Y55.622 F10800
G1 Z.2 F720
G1 E.8 F2100
M204 S800
G1 F1200
G1 X42.68 Y54.993 E.03725
G1 X43.762 Y54.602 E.03607
G1 X44.94 Y54.441 E.03728
G1 X69.994 Y54.442 E.78555
G1 X71.358 Y54.619 E.04313
G1 X72.159 Y54.886 E.02647
G1 X72.983 Y54.611 E.02724
G1 X74.279 Y54.444 E.04097
G1 X90.606 Y54.443 E.51192
G1 X91.919 Y54.61 E.0415
G1 X92.752 Y54.888 E.02753
G1 X93.576 Y54.613 E.02724
G1 X94.921 Y54.441 E.04251
G1 X119.995 Y54.443 E.78618
G1 X121.098 Y54.591 E.03489
G1 X122.153 Y54.957 E.03501
G1 X123.116 Y55.53 E.03513
G1 X123.925 Y56.261 E.03419
G1 X124.95 Y57.902 E.06066
G1 X125.23 Y58.856 E.03117
G1 X125.342 Y59.829 E.03071
G1 X125.342 Y141.557 E2.56252
G1 X125.203 Y142.896 E.04221
G1 X124.854 Y144.12 E.03991
G1 X124.306 Y145.259 E.03963
G1 X123.54 Y146.33 E.04129
G1 X122.781 Y147.099 E.03388
G1 X121.916 Y147.757 E.03408
G1 X120.856 Y148.329 E.03777
G1 X119.277 Y148.827 E.05191
G1 X117.931 Y148.968 E.04243
G1 X46.977 Y148.968 E2.22471
G1 X45.638 Y148.829 E.04221
G1 X44.414 Y148.48 E.03991
G1 X43.274 Y147.932 E.03966
G1 X42.204 Y147.165 E.04128
G1 X41.435 Y146.407 E.03386
G1 X40.777 Y145.542 E.03408
G1 X40.205 Y144.482 E.03777
G1 X39.706 Y142.903 E.05192
G1 X39.566 Y141.557 E.04243
G1 X39.566 Y59.792 E2.56368
G1 X39.839 Y58.234 E.04959
G1 X40.252 Y57.294 E.03219
G1 X40.84 Y56.43 E.03277
G1 X41.629 Y55.664 E.03448
M204 S1000
G1 X41.629 Y55.664 F10800
G1 X41.891 Y55.935
M204 S800
G1 F1200
G1 X41.919 Y55.908 E.00122
G1 X42.861 Y55.324 E.03475
G1 X43.87 Y54.964 E.03359
G1 X44.953 Y54.818 E.03426
G1 X69.982 Y54.819 E.78477
G1 X71.29 Y54.991 E.04136
G1 X72.159 Y55.285 E.02876
G1 X73.051 Y54.983 E.02953
G1 X74.291 Y54.821 E.03921
G1 X90.593 Y54.82 E.51114
G1 X91.852 Y54.981 E.0398
G1 X92.752 Y55.286 E.0298
G1 X93.643 Y54.985 E.02949
G1 X94.933 Y54.818 E.04078
G1 X119.983 Y54.82 E.78543
G1 X120.994 Y54.954 E.03198
G1 X121.979 Y55.292 E.03265
G1 X122.878 Y55.823 E.03274
G1 X123.653 Y56.523 E.03274
G1 X124.596 Y58.034 E.05585
G1 X124.858 Y58.916 E.02885
G1 X124.965 Y59.84 E.02916
G1 X124.965 Y141.547 E2.56187
G1 X124.834 Y142.817 E.04003
G1 X124.685 Y143.405 E.01902
G1 X124.499 Y143.993 E.01934
G1 X123.973 Y145.08 E.03786
G1 X123.242 Y146.098 E.0393
G1 X122.523 Y146.824 E.03204
G1 X121.7 Y147.447 E.03236
G1 X120.691 Y147.99 E.03593
G1 X119.872 Y148.283 E.02727
G1 X119.196 Y148.459 E.0219
G1 X117.921 Y148.591 E.04019
G1 X46.987 Y148.591 E2.22409
G1 X45.717 Y148.46 E.04003
G1 X45.129 Y148.311 E.01902
G1 X44.541 Y148.124 E.01935
G1 X43.453 Y147.599 E.03788
G1 X42.436 Y146.868 E.03927
G1 X41.71 Y146.149 E.03204
G1 X41.086 Y145.326 E.03238
G1 X40.544 Y144.316 E.03594
G1 X40.251 Y143.498 E.02724
G1 X40.075 Y142.822 E.0219
G1 X39.943 Y141.547 E.04019
G1 X39.943 Y59.808 E2.56287
G1 X40.194 Y58.364 E.04595
M73 P1 R110
M73 Q1 S110
G1 X40.59 Y57.462 E.03089
G1 X41.14 Y56.659 E.03052
G1 X41.847 Y55.977 E.0308
M204 S1000
G1 X41.847 Y55.977 F10800
G1 X42.108 Y56.249
M204 S800
G1 F1200
G1 X42.165 Y56.194 E.00248
G1 X43.008 Y55.672 E.03109
G1 X43.941 Y55.335 E.0311
G1 X44.966 Y55.196 E.03243
G1 X69.969 Y55.196 E.78395
G1 X71.222 Y55.362 E.03963
G1 X72.159 Y55.684 E.03107
G1 X73.119 Y55.354 E.03183
G1 X74.303 Y55.198 E.03744
G1 X90.581 Y55.197 E.51039
G1 X91.784 Y55.353 E.03804
G1 X92.752 Y55.685 E.03209
G1 X93.711 Y55.356 E.03179
G1 X94.945 Y55.196 E.03902
G1 X119.97 Y55.197 E.78464
G1 X120.925 Y55.325 E.03021
G1 X121.836 Y55.641 E.03023
G1 X122.668 Y56.137 E.03037
G1 X123.38 Y56.784 E.03016
G1 X124.242 Y58.166 E.05107
G1 X124.491 Y59.008 E.02753
G1 X124.588 Y59.851 E.02661
G1 X124.588 Y141.538 E2.56124
G1 X124.465 Y142.738 E.03782
G1 X124.143 Y143.865 E.03675
G1 X123.641 Y144.901 E.0361
G1 X122.945 Y145.865 E.03728
G1 X122.265 Y146.549 E.03024
G1 X121.485 Y147.137 E.03063
G1 X120.526 Y147.65 E.0341
G1 X119.116 Y148.09 E.04631
G1 X117.912 Y148.214 E.03795
G1 X46.996 Y148.214 E2.22352
G1 X45.796 Y148.091 E.03782
G1 X44.668 Y147.769 E.03678
G1 X43.633 Y147.267 E.03607
G1 X42.669 Y146.571 E.03728
G1 X41.985 Y145.891 E.03024
G1 X41.396 Y145.111 E.03065
G1 X40.883 Y144.151 E.03413
G1 X40.444 Y142.741 E.0463
G1 X40.32 Y141.538 E.03792
G1 X40.32 Y59.824 E2.56209
G1 X40.549 Y58.493 E.04235
G1 X40.911 Y57.66 E.02848
G1 X41.44 Y56.889 E.02932
G1 X42.065 Y56.29 E.02714
M204 S1000
G1 X42.065 Y56.29 F10800
G1 X42.324 Y56.563
M204 S800
G1 F1200
G1 X42.41 Y56.481 E.00373
G1 X43.188 Y56.004 E.02861
G1 X44.048 Y55.697 E.02863
G1 X44.978 Y55.573 E.02942
G1 X69.956 Y55.573 E.78317
G1 X71.152 Y55.733 E.03783
G1 X72.159 Y56.083 E.03343
G1 X73.188 Y55.725 E.03416
G1 X74.316 Y55.575 E.03568
G1 X90.569 Y55.574 E.5096
G1 X91.715 Y55.724 E.03624
G1 X92.752 Y56.084 E.03442
G1 X93.78 Y55.727 E.03412
G1 X94.957 Y55.573 E.03722
G1 X119.957 Y55.574 E.78386
G1 X120.855 Y55.696 E.02841
G1 X121.693 Y55.991 E.02786
G1 X122.457 Y56.45 E.02795
G1 X123.106 Y57.044 E.02759
G1 X123.888 Y58.298 E.04634
G1 X124.119 Y59.068 E.02521
G1 X124.211 Y59.862 E.02506
G1 X124.211 Y141.528 E2.56058
G1 X124.096 Y142.659 E.03564
M73 P1 R109
G1 X123.96 Y143.198 E.01743
G1 X123.788 Y143.738 E.01777
G1 X123.31 Y144.721 E.03427
G1 X122.649 Y145.631 E.03527
G1 X122.008 Y146.272 E.02842
G1 X121.271 Y146.827 E.02893
G1 X120.361 Y147.311 E.03232
G1 X119.637 Y147.566 E.02407
G1 X119.035 Y147.722 E.0195
G1 X117.902 Y147.837 E.03571
G1 X47.006 Y147.837 E2.22289
G1 X45.875 Y147.722 E.03564
G1 X45.335 Y147.585 E.01747
G1 X44.796 Y147.414 E.01773
G1 X43.813 Y146.936 E.03427
G1 X42.903 Y146.275 E.03527
G1 X42.262 Y145.634 E.02842
G1 X41.707 Y144.896 E.02895
G1 X41.223 Y143.987 E.03229
G1 X40.967 Y143.263 E.02408
G1 X40.812 Y142.661 E.01949
G1 X40.697 Y141.528 E.03571
G1 X40.697 Y59.84 E2.56127
G1 X40.904 Y58.623 E.03871
G1 X41.25 Y57.828 E.02719
G1 X41.739 Y57.12 E.02698
G1 X42.281 Y56.604 E.02346
M204 S1000
G1 X42.281 Y56.604 F10800
G1 X42.539 Y56.878
M204 S800
G1 F1200
G1 X42.654 Y56.769 E.00497
G1 X43.366 Y56.337 E.02611
G1 X44.154 Y56.059 E.0262
G1 X44.99 Y55.95 E.02643
G1 X69.944 Y55.95 E.78242
G1 X71.082 Y56.104 E.03601
G1 X72.161 Y56.531 E.03638
G1 X73.256 Y56.097 E.03693
G1 X74.329 Y55.952 E.03395
G1 X90.557 Y55.951 E.50882
G1 X91.615 Y56.088 E.03345
G1 X92.746 Y56.529 E.03806
G1 X93.849 Y56.099 E.03712
G1 X94.97 Y55.95 E.03546
G1 X119.945 Y55.951 E.78307
G1 X120.749 Y56.058 E.02543
G1 X121.517 Y56.325 E.02549
G1 X122.217 Y56.741 E.02553
G1 X122.833 Y57.305 E.02619
G1 X123.534 Y58.432 E.04161
G1 X123.746 Y59.13 E.02287
G1 X123.834 Y59.873 E.02346
G1 X123.834 Y141.519 E2.55995
G1 X123.727 Y142.58 E.03344
G1 X123.433 Y143.61 E.03358
G1 X122.978 Y144.54 E.03246
G1 X122.354 Y145.396 E.03321
G1 X121.752 Y145.995 E.02663
G1 X121.057 Y146.516 E.02723
G1 X120.198 Y146.971 E.03048
G1 X118.955 Y147.353 E.04077
G1 X117.893 Y147.46 E.03347
G1 X47.015 Y147.46 E2.22233
G1 X45.954 Y147.353 E.03344
G1 X44.924 Y147.059 E.03358
G1 X43.994 Y146.604 E.03246
G1 X43.137 Y145.98 E.03324
G1 X42.538 Y145.378 E.02663
G1 X42.018 Y144.682 E.02724
G1 X41.563 Y143.824 E.03045
G1 X41.181 Y142.581 E.04077
G1 X41.074 Y141.519 E.03347
G1 X41.074 Y59.855 E2.56052
G1 X41.259 Y58.75 E.03513
G1 X41.571 Y58.026 E.02472
G1 X42.037 Y57.351 E.02572
G1 X42.495 Y56.919 E.01974
M204 S1000
G1 X42.495 Y56.919 F10800
G1 X42.753 Y57.19
M204 S800
G1 F1200
G1 X42.869 Y57.08 E.00501
G1 X43.512 Y56.685 E.02366
G1 X44.224 Y56.43 E.02371
G1 X45.003 Y56.327 E.02464
G1 X69.931 Y56.327 E.7816
G1 X70.975 Y56.466 E.03302
G1 X71.793 Y56.754 E.02719
G1 X72.16 Y56.97 E.01335
G1 X72.588 Y56.72 E.01554
G1 X73.359 Y56.46 E.02551
G1 X74.341 Y56.329 E.03106
G1 X90.545 Y56.328 E.50807
G1 X91.513 Y56.451 E.03059
G1 X92.322 Y56.721 E.02674
G1 X92.748 Y56.969 E.01546
G1 X93.098 Y56.762 E.01275
G1 X93.955 Y56.461 E.02848
G1 X94.982 Y56.327 E.03247
G1 X119.932 Y56.329 E.78229
G1 X120.679 Y56.429 E.02363
G1 X121.373 Y56.674 E.02308
G1 X122.006 Y57.054 E.02315
G1 X122.558 Y57.565 E.02359
G1 X123.181 Y58.565 E.03694
G1 X123.381 Y59.223 E.02156
G1 X123.457 Y59.883 E.02083
G1 X123.457 Y141.51 E2.55936
G1 X123.234 Y142.991 E.04696
M73 Q1 S109
G1 X123.078 Y143.482 E.01615
G1 X122.648 Y144.358 E.0306
G1 X122.059 Y145.161 E.03122
G1 X121.496 Y145.718 E.02483
G1 X120.843 Y146.205 E.02554
G1 X120.035 Y146.63 E.02863
G1 X119.404 Y146.849 E.02094
G1 X118.876 Y146.984 E.01709
G1 X117.884 Y147.083 E.03126
G1 X47.024 Y147.083 E2.22177
G1 X45.542 Y146.86 E.04699
G1 X45.052 Y146.704 E.01612
G1 X44.176 Y146.273 E.03061
G1 X43.373 Y145.685 E.03121
G1 X42.816 Y145.122 E.02483
G1 X42.329 Y144.469 E.02554
G1 X41.904 Y143.661 E.02863
G1 X41.685 Y143.03 E.02094
G1 X41.55 Y142.502 E.01709
G1 X41.451 Y141.51 E.03126
G1 X41.451 Y59.871 E2.55973
G1 X41.615 Y58.876 E.03162
M73 P2 R109
M73 Q2 S109
G1 X41.893 Y58.223 E.02225
G1 X42.312 Y57.61 E.02328
G1 X42.71 Y57.231 E.01723
M204 S1000
G1 X42.71 Y57.231 F10800
G1 X42.968 Y57.505
M204 S800
G1 F1200
G1 X43.112 Y57.369 E.00621
G1 X43.69 Y57.018 E.0212
G1 X44.33 Y56.793 E.02127
G1 X45.014 Y56.704 E.02163
G1 X69.919 Y56.704 E.78088
G1 X70.869 Y56.829 E.03004
G1 X71.649 Y57.103 E.02592
G1 X72.158 Y57.412 E.01867
G1 X72.729 Y57.071 E.02085
G1 X73.463 Y56.823 E.02429
G1 X74.353 Y56.706 E.02815
G1 X90.534 Y56.705 E.50734
G1 X91.411 Y56.815 E.02771
G1 X92.182 Y57.072 E.02548
G1 X92.75 Y57.41 E.02072
G1 X93.242 Y57.111 E.01805
G1 X94.061 Y56.823 E.02722
G1 X94.994 Y56.704 E.02949
G1 X119.92 Y56.706 E.78154
G1 X120.573 Y56.792 E.02065
G1 X121.229 Y57.023 E.02181
G1 X121.792 Y57.366 E.02067
G1 X122.282 Y57.823 E.02101
G1 X122.828 Y58.7 E.03239
G1 X123.008 Y59.284 E.01916
G1 X123.08 Y59.895 E.01929
G1 X123.08 Y141.5 E2.55867
G1 X122.989 Y142.422 E.02905
G1 X122.723 Y143.354 E.03039
G1 X122.317 Y144.176 E.02875
G1 X121.765 Y144.925 E.02917
G1 X121.241 Y145.44 E.02304
G1 X120.631 Y145.893 E.02382
G1 X119.874 Y146.289 E.02679
G1 X118.797 Y146.615 E.03528
G1 X117.875 Y146.706 E.02905
G1 X47.033 Y146.706 E2.2212
G1 X46.111 Y146.615 E.02905
G1 X45.18 Y146.349 E.03036
G1 X44.358 Y145.943 E.02875
G1 X43.609 Y145.39 E.02919
G1 X43.094 Y144.867 E.02301
G1 X42.641 Y144.257 E.02382
G1 X42.245 Y143.5 E.02679
G1 X41.919 Y142.423 E.03528
G1 X41.828 Y141.5 E.02908
G1 X41.828 Y59.886 E2.55895
G1 X41.971 Y59.003 E.02805
M73 P2 R108
G1 X42.232 Y58.389 E.02092
G1 X42.611 Y57.841 E.02089
G1 X42.924 Y57.546 E.01349
M204 S1000
G1 X42.924 Y57.546 F10800
G1 X43.18 Y57.817
M204 S800
G1 F1200
G1 X43.327 Y57.679 E.00632
G1 X43.835 Y57.367 E.01869
G1 X44.436 Y57.155 E.01998
G1 X45.026 Y57.081 E.01864
G1 X69.907 Y57.081 E.78013
G1 X70.763 Y57.191 E.02706
G1 X71.503 Y57.452 E.0246
G1 X72.157 Y57.855 E.02409
G1 X72.87 Y57.421 E.02617
G1 X73.565 Y57.186 E.023
G1 X74.365 Y57.083 E.02529
G1 X90.522 Y57.082 E.50659
G1 X91.31 Y57.179 E.02489
G1 X92.042 Y57.423 E.02419
G1 X92.753 Y57.854 E.02607
G1 X93.388 Y57.46 E.02343
G1 X94.167 Y57.186 E.02589
G1 X95.005 Y57.081 E.02648
G1 X119.907 Y57.083 E.78078
G1 X120.502 Y57.163 E.01882
G1 X121.082 Y57.37 E.01931
G1 X121.577 Y57.676 E.01825
G1 X122.005 Y58.08 E.01845
G1 X122.475 Y58.836 E.02791
G1 X122.636 Y59.347 E.0168
G1 X122.703 Y59.906 E.01765
G1 X122.703 Y141.491 E2.55804
G1 X122.509 Y142.784 E.04099
G1 X121.987 Y143.993 E.04129
G1 X121.471 Y144.688 E.02714
G1 X120.418 Y145.581 E.04329
G1 X119.713 Y145.948 E.02492
G1 X119.176 Y146.13 E.01778
G1 X117.866 Y146.329 E.04155
G1 X47.042 Y146.329 E2.22064
G1 X45.749 Y146.135 E.04099
G1 X44.541 Y145.613 E.04126
G1 X43.846 Y145.097 E.02714
G1 X42.953 Y144.044 E.04329
G1 X42.586 Y143.339 E.02492
G1 X42.404 Y142.802 E.01778
G1 X42.205 Y141.491 E.04158
G1 X42.205 Y59.9 E2.55823
G1 X42.328 Y59.128 E.02451
G1 X42.571 Y58.555 E.01951
G1 X42.908 Y58.074 E.01841
G1 X43.136 Y57.859 E.00983
M204 S1000
G1 X43.136 Y57.859 F10800
G1 X43.378 Y58.175
M204 S800
G1 F1200
G1 X43.981 Y57.715 E.02378
G1 X44.505 Y57.527 E.01746
G1 X45.038 Y57.458 E.01685
G1 X69.896 Y57.458 E.77941
G1 X70.657 Y57.554 E.02405
G1 X71.358 Y57.8 E.02329
G1 X72.155 Y58.3 E.0295
G1 X73.012 Y57.771 E.03158
G1 X73.668 Y57.55 E.0217
G1 X74.377 Y57.46 E.02241
G1 X90.511 Y57.459 E.50587
G1 X91.209 Y57.543 E.02204
G1 X91.902 Y57.774 E.0229
G1 X92.755 Y58.299 E.0314
G1 X93.533 Y57.808 E.02885
G1 X94.273 Y57.548 E.02459
G1 X95.016 Y57.458 E.02347
G1 X119.896 Y57.46 E.78009
G1 X120.397 Y57.525 E.01584
G1 X120.904 Y57.703 E.01685
G1 X121.333 Y57.964 E.01574
G1 X121.729 Y58.337 E.01706
G1 X122.123 Y58.972 E.02343
G1 X122.326 Y59.917 E.03031
G1 X122.326 Y141.483 E2.55744
G1 X122.251 Y142.266 E.02466
G1 X122.014 Y143.096 E.02706
G1 X121.658 Y143.808 E.02496
G1 X121.178 Y144.45 E.02513
G1 X120.206 Y145.269 E.03985
G1 X119.554 Y145.606 E.02301
G1 X118.64 Y145.877 E.02989
G1 X117.857 Y145.952 E.02466
G1 X47.051 Y145.952 E2.22007
G1 X46.268 Y145.877 E.02466
G1 X45.437 Y145.64 E.02709
G1 X44.726 Y145.284 E.02493
