; generated by PrusaSlicer 2.9.0 on 2025-01-02 at 17:14:25 UTC


;
;
; 

; external perimeters extrusion width = 0.45mm
; perimeters extrusion width = 0.45mm
; infill extrusion width = 0.45mm
; solid infill extrusion width = 0.45mm
; top infill extrusion width = 0.40mm
; first layer extrusion width = 0.42mm

M73 P0 R12
M73 Q0 S12
M201 X1000 Y1000 Z200 E8000 ; sets maximum accelerations, mm/sec^2
M203 X200 Y200 Z12 E120 ; sets maximum feedrates, mm / sec
M204 S1250 T1250 ; sets acceleration (S) and retract acceleration (R), mm/sec^2
M205 X8.00 Y8.00 Z0.40 E4.50 ; sets the jerk limits, mm/sec
M205 S0 T0 ; sets the minimum extruding and travel feed rate, mm/sec

; printing object PennyHolderII v3.stl id:0 copy 0
; stop printing object PennyHolderII v3.stl id:0 copy 0

;TYPE:Custom
M862.3 P "MK3SMMU3" ; printer model check
M862.1 P0.4 ; nozzle diameter check
M115 U3.14.1 ; tell printer latest fw version
G90 ; use absolute coordinates
M83 ; extruder relative mode
M104 S215 ; set extruder temp
M140 S60 ; set bed temp
M190 S60 ; wait for bed temp
M109 S215 ; wait for extruder temp
G28 W ; home all without mesh bed level
G80 X33.8594 Y33.1322 W43.5542 H43.5542 ; mesh bed levelling

; Send the filament type to the MMU unit.
; E stands for extruder number, F stands for filament type (0: default; 1:flex; 2: PVA)
M403 E0 F0
M403 E1 F0
M403 E2 F0
M403 E3 F0
M403 E4 F0


;go outside print area
G1 Y-3 F1000
G1 Z0.4 F1000
; select extruder
T0
; initial load
G1 X55 E29 F1073
G1 X5 E29 F1800
G1 X55 E8 F2000
G1 Z0.3 F1000
G92 E0
G1 X240 E25 F2200
G1 Y-2 F1000
M73 P1 R12
M73 Q1 S12
G1 X55 E25 F1400
G1 Z0.2 F1000
M73 P2 R12
M73 Q2 S12
G1 X5 E4 F1000
G92 E0


M221 S95
G92 E0

; Don't change E values below. Excessive value can damage the printer.
M907 E430 ; set extruder motor current
G21 ; set units to millimeters
G90 ; use absolute coordinates
M83 ; use relative distances for extrusion

M900 K0.05 ; Filament gcode LA 1.5
M900 K30 ; Filament gcode LA 1.0




M107
;LAYER_CHANGE
;Z:0.2
;HEIGHT:0.2
G1 E-.8 F2100
M73 P3 R12
M73 Q3 S12
G1 Z.6 F720
G1 X35.819 Y35.819 F10800
G1 Z.2 F720
G1 E.8 F2100
M204 S800
;TYPE:Skirt/Brim
;WIDTH:0.42
G1 F1200
G1 X37.676 Y33.962 E.08234
G1 X39.224 Y33.321 E.05253
G1 X72.049 Y33.321 E1.0292
G1 X73.596 Y33.962 E.0525
G1 X76.584 Y36.949 E.13247
G1 X77.225 Y38.497 E.05253
G1 X77.225 Y71.322 E1.0292
G1 X76.584 Y72.869 E.0525
G1 X73.596 Y75.857 E.13249
G1 X72.049 Y76.498 E.0525
G1 X39.224 Y76.498 E1.0292
G1 X37.676 Y75.857 E.05253
G1 X34.689 Y72.869 E.13247
G1 X34.048 Y71.322 E.0525
G1 X34.048 Y38.497 E1.0292
G1 X34.689 Y36.949 E.05253
M73 P4 R12
M73 Q4 S12
G1 X35.777 Y35.862 E.04822
M204 S1000
;WIPE_START
G1 F8640
G1 X35.819 Y35.819 E-.01388
G1 X37.676 Y33.962 E-.6064
G1 X38.395 Y33.664 E-.17972
;WIPE_END
G1 Z.6 F720
G1 X37.762 Y37.368 F10800
G1 Z.2 F720
G1 E.8 F2100
M204 S800
G1 F1200
G1 X38.941 Y36.407 E.04769
G1 X40.89 Y35.796 E.06404
G1 X70.326 Y35.799 E.92295
G1 X71.346 Y35.993 E.03255
M73 P4 R11
G1 X72.324 Y36.409 E.03332
G1 X73.449 Y37.305 E.04509
G1 X74.342 Y38.643 E.05044
G1 X74.75 Y40.188 E.0501
G1 X74.75 Y69.629 E.9231
G1 X74.369 Y71.114 E.04807
M73 Q4 S11
G1 X73.511 Y72.45 E.04978
G1 X72.332 Y73.412 E.04771
G1 X70.383 Y74.023 E.06404
G1 X40.917 Y74.023 E.92389
G1 X39.432 Y73.642 E.04807
G1 X38.095 Y72.784 E.04981
G1 X37.134 Y71.605 E.04769
G1 X36.523 Y69.656 E.06404
G1 X36.523 Y40.19 E.92389
G1 X36.904 Y38.705 E.04807
M73 P5 R11
M73 Q5 S11
G1 X37.729 Y37.419 E.04791
M204 S1000
G1 X37.729 Y37.419 F10800
G1 X38.035 Y37.629
M204 S800
G1 F1200
G1 X39.134 Y36.732 E.04448
G1 X40.919 Y36.173 E.05865
G1 X70.308 Y36.177 E.92147
G1 X71.254 Y36.36 E.03021
G1 X72.151 Y36.745 E.03061
G1 X73.19 Y37.58 E.04179
G1 X73.986 Y38.771 E.04492
G1 X74.373 Y40.213 E.04681
G1 X74.373 Y69.605 E.92157
G1 X74.012 Y70.989 E.04485
G1 X73.238 Y72.19 E.0448
G1 X72.689 Y72.698 E.02345
G1 X72.139 Y73.087 E.02112
G1 X70.354 Y73.646 E.05865
G1 X40.941 Y73.646 E.92222
G1 X39.556 Y73.285 E.04488
G1 X38.356 Y72.511 E.04477
G1 X37.847 Y71.961 E.0235
G1 X37.459 Y71.412 E.02108
G1 X36.9 Y69.627 E.05865
G1 X36.9 Y40.214 E.92222
G1 X37.261 Y38.829 E.04488
M73 P6 R11
M73 Q6 S11
G1 X38.003 Y37.679 E.04291
M204 S1000
G1 X38.003 Y37.679 F10800
G1 X38.309 Y37.889
M204 S800
G1 F1200
G1 X39.327 Y37.057 E.04122
G1 X40.948 Y36.55 E.05325
G1 X70.289 Y36.554 E.91997
G1 X71.16 Y36.725 E.02783
G1 X71.977 Y37.08 E.02793
G1 X72.929 Y37.854 E.03847
G1 X73.654 Y38.952 E.04125
G1 X73.996 Y40.237 E.04169
G1 X73.996 Y69.581 E.92006
G1 X73.678 Y70.812 E.03986
G1 X72.964 Y71.93 E.04159
G1 X71.946 Y72.761 E.0412
G1 X70.325 Y73.269 E.05326
G1 X40.965 Y73.269 E.92056
G1 X39.734 Y72.951 E.03986
G1 X38.616 Y72.236 E.04161
G1 X37.784 Y71.219 E.0412
G1 X37.277 Y69.598 E.05325
G1 X37.277 Y40.238 E.92056
G1 X37.595 Y39.007 E.03986
M73 P7 R11
M73 Q7 S11
G1 X38.277 Y37.94 E.03971
M204 S1000
G1 X38.277 Y37.94 F10800
G1 X38.583 Y38.15
M204 S800
G1 F1200
G1 X39.519 Y37.383 E.03794
G1 X40.976 Y36.927 E.04787
G1 X70.27 Y36.931 E.91849
G1 X71.065 Y37.091 E.02543
G1 X71.8 Y37.414 E.02517
G1 X72.667 Y38.126 E.03518
G1 X73.321 Y39.132 E.03762
G1 X73.619 Y40.262 E.03664
G1 X73.619 Y69.556 E.91849
G1 X73.321 Y70.687 E.03667
G1 X72.69 Y71.669 E.0366
G1 X72.195 Y72.127 E.02114
G1 X71.754 Y72.435 E.01687
G1 X70.297 Y72.892 E.04788
G1 X40.989 Y72.892 E.91893
G1 X39.859 Y72.594 E.03664
G1 X38.877 Y71.963 E.0366
G1 X38.418 Y71.468 E.02117
G1 X38.11 Y71.027 E.01687
G1 X37.654 Y69.57 E.04787
G1 X37.654 Y40.262 E.91893
G1 X37.951 Y39.132 E.03663
G1 X38.55 Y38.2 E.03474
M204 S1000
G1 X38.55 Y38.2 F10800
M73 P8 R11
G1 X38.857 Y38.409
M204 S800
G1 F1200
G1 X39.71 Y37.709 E.0346
G1 X41.005 Y37.304 E.04254
G1 X70.251 Y37.308 E.91699
M73 Q8 S11
G1 X70.932 Y37.444 E.02177
G1 X71.624 Y37.749 E.02371
G1 X72.403 Y38.397 E.03177
G1 X72.965 Y39.259 E.03226
G1 X73.242 Y40.287 E.03338
G1 X73.242 Y69.532 E.91696
G1 X72.987 Y70.51 E.03169
G1 X72.416 Y71.409 E.03339
G1 X71.563 Y72.109 E.0346
G1 X70.268 Y72.514 E.04254
G1 X41.013 Y72.514 E.91727
G1 X40.036 Y72.26 E.03165
G1 X39.136 Y71.688 E.03344
G1 X38.437 Y70.836 E.03455
G1 X38.031 Y69.541 E.04255
G1 X38.031 Y40.286 E.91727
G1 X38.286 Y39.309 E.03166
G1 X38.825 Y38.46 E.03153
M204 S1000
G1 X38.825 Y38.46 F10800
G1 X39.131 Y38.67
M204 S800
G1 F1200
G1 X39.9 Y38.036 E.03125
G1 X41.034 Y37.681 E.03726
G1 X70.231 Y37.685 E.91545
G1 X70.835 Y37.809 E.01933
M73 P9 R11
M73 Q9 S11
G1 X71.445 Y38.081 E.02094
G1 X72.138 Y38.666 E.02844
G1 X72.631 Y39.437 E.02869
G1 X72.865 Y40.311 E.02837
G1 X72.865 Y69.507 E.91542
G1 X72.631 Y70.384 E.02846
G1 X72.142 Y71.149 E.02847
G1 X71.703 Y71.555 E.01875
G1 X71.373 Y71.782 E.01256
G1 X70.24 Y72.137 E.03723
G1 X41.038 Y72.137 E.91561
G1 X40.162 Y71.904 E.02842
G1 X39.397 Y71.415 E.02847
G1 X38.99 Y70.976 E.01877
G1 X38.763 Y70.646 E.01256
G1 X38.408 Y69.512 E.03726
G1 X38.408 Y40.311 E.91558
G1 X38.642 Y39.435 E.02843
G1 X39.099 Y38.72 E.02661
M204 S1000
G1 X39.099 Y38.72 F10800
G1 X39.405 Y38.93
M204 S800
G1 F1200
G1 X40.089 Y38.364 E.02784
G1 X41.062 Y38.058 E.03198
G1 X70.211 Y38.062 E.91395
G1 X70.735 Y38.173 E.01679
M73 P10 R11
G1 X71.263 Y38.413 E.01819
G1 X71.871 Y38.934 E.02511
G1 X72.276 Y39.565 E.02351
G1 X72.487 Y40.337 E.02509
G1 X72.487 Y69.481 E.91379
M73 Q10 S11
G1 X72.275 Y70.256 E.02519
G1 X71.868 Y70.888 E.02357
G1 X71.184 Y71.455 E.02786
G1 X70.211 Y71.76 E.03197
G1 X41.064 Y71.76 E.91388
G1 X40.29 Y71.548 E.02516
G1 X39.657 Y71.141 E.0236
G1 X39.091 Y70.457 E.02784
G1 X38.785 Y69.484 E.03198
G1 X38.785 Y40.337 E.91388
G1 X38.998 Y39.563 E.02517
G1 X39.372 Y38.981 E.02169
M204 S1000
G1 X39.372 Y38.981 F10800
G1 X39.678 Y39.191
M204 S800
G1 F1200
G1 X40.276 Y38.692 E.02442
G1 X41.091 Y38.435 E.02679
G1 X70.19 Y38.439 E.91238
G1 X70.633 Y38.537 E.01423
G1 X71.079 Y38.743 E.0154
G1 X71.602 Y39.2 E.02178
G1 X71.921 Y39.695 E.01846
G1 X72.11 Y40.364 E.0218
G1 X72.11 Y69.454 E.9121
G1 X71.92 Y70.125 E.02187
M73 P11 R11
M73 Q11 S11
G1 X71.595 Y70.627 E.01875
G1 X70.997 Y71.127 E.02444
G1 X70.182 Y71.383 E.02678
G1 X41.091 Y71.383 E.91213
G1 X40.421 Y71.193 E.02184
G1 X39.918 Y70.868 E.01878
G1 X39.419 Y70.27 E.02442
G1 X39.163 Y69.455 E.02678
G1 X39.163 Y40.364 E.91213
G1 X39.352 Y39.694 E.02183
G1 X39.645 Y39.242 E.01689
M204 S1000
G1 X39.645 Y39.242 F10800
G1 X39.951 Y39.452
M204 S800
G1 F1200
G1 X40.461 Y39.021 E.02094
G1 X41.12 Y38.812 E.02168
G1 X70.167 Y38.816 E.91075
G1 X70.892 Y39.072 E.02411
G1 X71.332 Y39.464 E.01848
G1 X71.567 Y39.829 E.01361
G1 X71.733 Y40.392 E.0184
G1 X71.733 Y69.426 E.91034
G1 X71.567 Y69.991 E.01846
G1 X71.322 Y70.366 E.01404
G1 X70.812 Y70.798 E.02096
G1 X70.153 Y71.006 E.02167
G1 X41.119 Y71.006 E.91034
G1 X40.555 Y70.84 E.01843
M73 P12 R11
M73 Q12 S11
G1 X40.179 Y70.595 E.01407
G1 X39.748 Y70.084 E.02096
G1 X39.54 Y69.426 E.02164
G1 X39.54 Y40.392 E.91034
G1 X39.706 Y39.828 E.01843
M73 P12 R10
G1 X39.918 Y39.503 E.01217
M204 S1000
G1 X39.918 Y39.503 F10800
G1 X40.224 Y39.714
M204 S800
G1 F1200
G1 X40.643 Y39.352 E.01736
G1 X41.15 Y39.189 E.0167
G1 X70.146 Y39.193 E.90915
G1 X70.704 Y39.4 E.01866
G1 X71.059 Y39.725 E.01509
G1 X71.356 Y40.422 E.02376
G1 X71.356 Y69.397 E.90849
G1 X71.216 Y69.852 E.01493
M73 Q12 S10
G1 X71.049 Y70.105 E.0095
G1 X70.629 Y70.467 E.01739
G1 X70.123 Y70.629 E.01666
G1 X41.149 Y70.629 E.90846
G1 X40.693 Y70.488 E.01497
G1 X40.441 Y70.322 E.00946
G1 X40.079 Y69.902 E.01739
G1 X39.917 Y69.396 E.01666
G1 X39.917 Y40.422 E.90846
G1 X40.057 Y39.966 E.01496
M73 P13 R10
M73 Q13 S10
G1 X40.191 Y39.764 E.0076
M204 S1000
G1 X40.191 Y39.764 F10800
G1 X40.496 Y39.975
M204 S800
G1 F1200
G1 X40.819 Y39.686 E.01359
G1 X41.181 Y39.567 E.01195
G1 X70.123 Y39.57 E.90746
G1 X70.514 Y39.727 E.01321
G1 X70.783 Y39.982 E.01162
G1 X70.979 Y40.453 E.016
G1 X70.979 Y69.365 E.90652
G1 X70.777 Y69.843 E.01627
G1 X70.454 Y70.133 E.01361
G1 X70.092 Y70.252 E.01195
G1 X41.181 Y70.252 E.90648
G1 X40.703 Y70.05 E.01627
G1 X40.413 Y69.727 E.01361
G1 X40.294 Y69.365 E.01195
G1 X40.294 Y40.453 E.90652
G1 X40.473 Y40.031 E.01437
M204 S1000
G1 X40.473 Y40.031 F10800
G1 X40.768 Y40.237
M204 S800
G1 F1200
G1 X41.003 Y40.02 E.01003
G1 X41.216 Y39.944 E.00709
G1 X70.071 Y39.944 E.90473
G1 X70.503 Y40.234 E.01631
M73 P14 R10
M73 Q14 S10
G1 X70.602 Y40.488 E.00855
G1 X70.602 Y69.33 E.90432
G1 X70.505 Y69.581 E.00844
G1 X70.27 Y69.799 E.01005
G1 X70.057 Y69.875 E.00709
G1 X41.216 Y69.875 E.90429
G1 X40.964 Y69.777 E.00848
G1 X40.747 Y69.543 E.01001
G1 X40.671 Y69.33 E.00709
G1 X40.671 Y40.488 E.90432
G1 X40.747 Y40.293 E.00656
M204 S1000
G1 X40.747 Y40.293 F10800
G1 X41.077 Y40.461
M204 S800
G1 F1200
G1 X41.258 Y40.321 E.00717
G1 X70.085 Y40.349 E.90385
G1 X70.225 Y40.53 E.00717
G1 X70.196 Y69.357 E.90385
G1 X70.015 Y69.498 E.00719
M73 P15 R10
M73 Q15 S10
G1 X41.188 Y69.469 E.90385
G1 X41.048 Y69.288 E.00717
G1 X41.077 Y40.521 E.90197
M204 S1000
;WIPE_START
G1 F8640
G1 X41.077 Y40.461 E-.01385
G1 X41.258 Y40.321 E-.05284
G1 X44.434 Y40.324 E-.73331
;WIPE_END
G1 Z.6 F720
; printing object PennyHolderII v3.stl id:0 copy 0
G1 X65.912 Y56.39 F10800
G1 Z.2 F720
G1 E.8 F2100
M204 S800
;TYPE:Perimeter
;WIDTH:0.419999
G1 F1200
G1 X65.773 Y57.149 E.02419
G1 X65.521 Y58.099 E.03082
G1 X65.264 Y58.806 E.02359
G1 X64.956 Y59.493 E.02361
G1 X64.6 Y60.155 E.02357
G1 X64.196 Y60.79 E.0236
G1 X63.748 Y61.394 E.02358
G1 X63.257 Y61.964 E.02359
G1 X62.726 Y62.497 E.02359
G1 X62.157 Y62.99 E.02361
G1 X61.555 Y63.44 E.02357
G1 X60.922 Y63.846 E.02358
G1 X60.26 Y64.205 E.02361
G1 X59.575 Y64.515 E.02357
G1 X58.869 Y64.774 E.02358
G1 X58.146 Y64.982 E.02359
G1 X57.41 Y65.136 E.02358
G1 X57.12 Y65.176 E.00918
G1 X56.806 Y65.931 E.02564
G1 X56.681 Y66.116 E.007
G1 X56.382 Y66.27 E.01055
G1 X54.989 Y66.278 E.04368
G1 X54.766 Y66.233 E.00713
G1 X54.591 Y66.115 E.00662
G1 X54.467 Y65.93 E.00698
G1 X54.151 Y65.174 E.02569
G1 X53.381 Y65.032 E.02455
G1 X52.446 Y64.782 E.03035
G1 X51.741 Y64.525 E.02353
G1 X51.056 Y64.217 E.02355
G1 X50.395 Y63.861 E.02354
G1 X49.761 Y63.458 E.02355
G1 X49.159 Y63.01 E.02353
G1 X48.59 Y62.52 E.02354
G1 X48.058 Y61.99 E.02355
G1 X47.566 Y61.423 E.02354
G1 X47.116 Y60.822 E.02354
G1 X46.711 Y60.19 E.02354
G1 X46.353 Y59.53 E.02354
G1 X46.043 Y58.846 E.02355
G1 X45.784 Y58.142 E.02352
G1 X45.576 Y57.421 E.02353
G1 X45.421 Y56.686 E.02355
G1 X45.38 Y56.398 E.00912
G1 X44.615 Y56.079 E.02599
G1 X44.431 Y55.955 E.00696
G1 X44.276 Y55.655 E.01059
G1 X44.267 Y54.262 E.04368
G1 X44.313 Y54.038 E.00717
G1 X44.431 Y53.863 E.00662
G1 X44.615 Y53.74 E.00694
G1 X45.38 Y53.421 E.02599
G1 X45.523 Y52.642 E.02483
G1 X45.771 Y51.716 E.03006
G1 X46.028 Y51.01 E.02356
G1 X46.335 Y50.325 E.02354
G1 X46.691 Y49.664 E.02354
G1 X47.093 Y49.03 E.02354
G1 X47.541 Y48.427 E.02355
G1 X48.03 Y47.858 E.02352
G1 X48.56 Y47.326 E.02355
G1 X49.127 Y46.834 E.02354
G1 X49.728 Y46.384 E.02354
G1 X50.36 Y45.978 E.02355
G1 X51.019 Y45.619 E.02353
G1 X51.703 Y45.309 E.02355
G1 X52.407 Y45.049 E.02353
G1 X53.128 Y44.841 E.02353
G1 X53.863 Y44.685 E.02356
G1 X54.151 Y44.645 E.00912
G1 X54.467 Y43.888 E.02572
G1 X54.591 Y43.703 E.00698
G1 X54.891 Y43.548 E.01059
G1 X56.284 Y43.54 E.04368
G1 X56.507 Y43.586 E.00714
G1 X56.681 Y43.703 E.00657
G1 X56.806 Y43.888 E.007
G1 X57.12 Y44.642 E.02561
G1 X57.888 Y44.782 E.02448
G1 X58.83 Y45.032 E.03056
M73 P16 R10
G1 X59.537 Y45.289 E.02359
G1 X60.224 Y45.596 E.02359
G1 X60.886 Y45.952 E.02357
G1 X61.521 Y46.355 E.02358
G1 X62.126 Y46.803 E.0236
G1 X62.696 Y47.294 E.02359
G1 X63.229 Y47.825 E.02359
M73 Q16 S10
G1 X63.722 Y48.393 E.02358
G1 X64.173 Y48.995 E.02358
G1 X64.579 Y49.628 E.02358
G1 X64.938 Y50.289 E.02358
G1 X65.248 Y50.974 E.02357
G1 X65.508 Y51.68 E.02359
G1 X65.716 Y52.403 E.02359
G1 X65.871 Y53.139 E.02358
G1 X65.912 Y53.429 E.00918
G1 X66.658 Y53.74 E.02534
G1 X66.844 Y53.866 E.00704
G1 X66.96 Y54.04 E.00656
G1 X67.006 Y54.262 E.00711
G1 X67.006 Y55.557 E.0406
G1 X66.96 Y55.779 E.00711
G1 X66.844 Y55.953 E.00656
G1 X66.658 Y56.079 E.00704
G1 X65.967 Y56.367 E.02347
M204 S1000
G1 X65.967 Y56.367 F10800
G1 X65.567 Y56.125
M204 S800
;TYPE:External perimeter
G1 F1200
G1 X65.404 Y57.072 E.03013
G1 X65.158 Y57.996 E.02998
G1 X64.91 Y58.677 E.02272
G1 X64.612 Y59.338 E.02273
G1 X64.268 Y59.976 E.02273
G1 X63.878 Y60.587 E.02273
G1 X63.446 Y61.169 E.02273
G1 X62.972 Y61.717 E.02272
G1 X62.459 Y62.23 E.02275
G1 X61.911 Y62.704 E.02272
G1 X61.33 Y63.138 E.02274
G1 X60.719 Y63.528 E.02273
G1 X60.081 Y63.873 E.02274
G1 X59.42 Y64.171 E.02273
G1 X58.739 Y64.42 E.02273
G1 X58.042 Y64.619 E.02273
G1 X57.333 Y64.767 E.02271
G1 X56.856 Y64.831 E.01509
G1 X56.458 Y65.786 E.03244
G1 X56.358 Y65.886 E.00443
G1 X56.284 Y65.902 E.00237
G1 X54.989 Y65.901 E.0406
G1 X54.856 Y65.847 E.0045
G1 X54.416 Y64.829 E.03477
G1 X53.459 Y64.663 E.03045
G1 X52.55 Y64.419 E.02951
G1 X51.87 Y64.171 E.02269
G1 X51.211 Y63.874 E.02266
G1 X50.574 Y63.53 E.0227
G1 X49.964 Y63.14 E.0227
G1 X49.384 Y62.708 E.02268
G1 X48.837 Y62.235 E.02267
G1 X48.325 Y61.724 E.02268
G1 X47.851 Y61.177 E.02269
G1 X47.419 Y60.597 E.02268
G1 X47.029 Y59.987 E.0227
G1 X46.685 Y59.351 E.02267
G1 X46.387 Y58.692 E.02268
G1 X46.138 Y58.012 E.02271
G1 X45.938 Y57.317 E.02268
G1 X45.79 Y56.609 E.02268
G1 X45.725 Y56.133 E.01506
G1 X44.76 Y55.731 E.03278
G1 X44.66 Y55.631 E.00443
G1 X44.644 Y55.557 E.00237
G1 X44.644 Y54.262 E.0406
G1 X44.699 Y54.129 E.00451
G1 X45.725 Y53.686 E.03504
G1 X45.892 Y52.719 E.03077
G1 X46.133 Y51.819 E.02921
G1 X46.382 Y51.14 E.02268
G1 X46.679 Y50.48 E.02269
G1 X47.022 Y49.843 E.02268
G1 X47.411 Y49.233 E.02268
G1 X47.843 Y48.653 E.02268
G1 X48.316 Y48.105 E.0227
G1 X48.827 Y47.593 E.02268
G1 X49.374 Y47.119 E.02269
G1 X49.953 Y46.686 E.02267
G1 X50.563 Y46.296 E.0227
G1 X51.199 Y45.951 E.02269
G1 X51.858 Y45.653 E.02268
G1 X52.537 Y45.403 E.02269
G1 X53.232 Y45.204 E.02267
G1 X53.94 Y45.055 E.02269
G1 X54.416 Y44.99 E.01506
G1 X54.815 Y44.033 E.03251
G1 X54.915 Y43.932 E.00446
G1 X54.989 Y43.917 E.00237
G1 X56.284 Y43.917 E.0406
G1 X56.416 Y43.971 E.00447
G1 X56.856 Y44.987 E.03471
G1 X57.811 Y45.151 E.03038
G1 X58.726 Y45.395 E.02969
G1 X59.408 Y45.643 E.02275
G1 X60.069 Y45.94 E.02272
