; generated by PrusaSlicer 2.9.0 on 2025-01-04 at 19:56:40 UTC


;
;
; 

; external perimeters extrusion width = 0.45mm
; perimeters extrusion width = 0.45mm
; infill extrusion width = 0.45mm
; solid infill extrusion width = 0.45mm
; top infill extrusion width = 0.40mm
; first layer extrusion width = 0.42mm

M73 P0 R12
M73 Q0 S12
M201 X1000 Y1000 Z200 E5000 ; sets maximum accelerations, mm/sec^2
M203 X200 Y200 Z12 E120 ; sets maximum feedrates, mm / sec
M204 S1250 T1250 ; sets acceleration (S) and retract acceleration (R), mm/sec^2
M205 X8.00 Y8.00 Z0.40 E4.50 ; sets the jerk limits, mm/sec
M205 S0 T0 ; sets the minimum extruding and travel feed rate, mm/sec

; printing object PennyHolderII v3.stl id:0 copy 0
; stop printing object PennyHolderII v3.stl id:0 copy 0

;TYPE:Custom
M862.3 P "MK3S" ; printer model check
M862.1 P0.4 ; nozzle diameter check
M115 U3.14.1 ; tell printer latest fw version
G90 ; use absolute coordinates
M83 ; extruder relative mode
M104 S215 ; set extruder temp
M140 S60 ; set bed temp
M190 S60 ; wait for bed temp
M109 S215 ; wait for extruder temp
G28 W ; home all without mesh bed level
G80 X173.799 Y38.4538 W43.5542 H43.5542 ; mesh bed levelling

G1 Z0.2 F720
G1 Y-3 F1000 ; go outside print area
G92 E0
G1 X60 E9 F1000 ; intro line
G1 X100 E12.5 F1000 ; intro line

G92 E0
M221 S95

; Don't change E values below. Excessive value can damage the printer.
M907 E430 ; set extruder motor current
G21 ; set units to millimeters
G90 ; use absolute coordinates
M83 ; use relative distances for extrusion

M900 K0.05 ; Filament gcode LA 1.5
M900 K30 ; Filament gcode LA 1.0




M107
;LAYER_CHANGE
;Z:0.2
;HEIGHT:0.2
G1 E-.8 F2100
G1 Z.6 F720
G1 X173.988 Y43.818 F10800
G1 Z.2 F720
G1 E.8 F2100
M204 S800
;TYPE:Skirt/Brim
;WIDTH:0.42
G1 F1200
G1 X174.629 Y42.271 E.0525
G1 X177.617 Y39.283 E.13249
G1 X179.164 Y38.642 E.0525
M73 P1 R12
M73 Q1 S12
G1 X211.989 Y38.642 E1.0292
G1 X213.537 Y39.283 E.05253
G1 X216.524 Y42.271 E.13247
G1 X217.165 Y43.818 E.0525
G1 X217.165 Y76.643 E1.0292
G1 X216.524 Y78.191 E.05253
G1 X213.537 Y81.178 E.13245
G1 X211.989 Y81.819 E.05253
G1 X179.164 Y81.819 E1.0292
G1 X177.617 Y81.178 E.0525
G1 X174.629 Y78.191 E.13247
G1 X173.988 Y76.643 E.05253
G1 X173.988 Y43.878 E1.02732
M204 S1000
;WIPE_START
G1 F8640
M73 P2 R12
M73 Q2 S12
G1 X173.988 Y43.818 E-.01385
G1 X174.629 Y42.271 E-.38666
G1 X175.852 Y41.048 E-.39949
;WIPE_END
G1 Z.6 F720
G1 X176.703 Y44.574 F10800
G1 Z.2 F720
G1 E.8 F2100
M204 S800
G1 F1200
G1 X176.844 Y44.026 E.01774
G1 X177.702 Y42.69 E.04978
G1 X178.881 Y41.728 E.04771
G1 X180.831 Y41.117 E.06407
G1 X210.266 Y41.121 E.92291
G1 X211.286 Y41.315 E.03255
M73 P2 R11
G1 X212.264 Y41.731 E.03332
G1 X213.389 Y42.626 E.04507
G1 X214.282 Y43.965 E.05046
G1 X214.69 Y45.51 E.0501
G1 X214.69 Y74.951 E.9231
G1 X214.309 Y76.435 E.04804
G1 X213.451 Y77.772 E.04981
M73 Q2 S11
G1 X212.272 Y78.733 E.04769
G1 X210.323 Y79.344 E.06404
G1 X180.857 Y79.344 E.92389
G1 X179.372 Y78.964 E.04806
G1 X178.036 Y78.106 E.04978
G1 X177.074 Y76.926 E.04774
G1 X176.463 Y74.977 E.06404
G1 X176.463 Y45.511 E.92389
G1 X176.688 Y44.632 E.02845
M73 P3 R11
M73 Q3 S11
M204 S1000
G1 X176.688 Y44.632 F10800
G1 X177.051 Y44.727
M204 S800
G1 F1200
G1 X177.201 Y44.151 E.01866
G1 X177.975 Y42.951 E.04477
G1 X179.074 Y42.053 E.0445
G1 X180.859 Y41.494 E.05865
G1 X210.248 Y41.498 E.92147
G1 X211.194 Y41.681 E.03021
G1 X212.091 Y42.067 E.03062
G1 X213.13 Y42.902 E.04179
G1 X213.926 Y44.093 E.04492
G1 X214.313 Y45.535 E.04681
G1 X214.313 Y74.926 E.92153
G1 X213.952 Y76.311 E.04488
G1 X213.178 Y77.511 E.04477
G1 X212.629 Y78.02 E.02347
G1 X212.079 Y78.408 E.0211
G1 X210.294 Y78.967 E.05865
G1 X180.881 Y78.967 E.92222
G1 X179.497 Y78.607 E.04484
G1 X178.296 Y77.832 E.04482
G1 X177.787 Y77.283 E.02347
G1 X177.399 Y76.733 E.0211
G1 X176.84 Y74.949 E.05862
G1 X176.84 Y45.536 E.92222
G1 X177.036 Y44.785 E.02434
M73 P4 R11
M73 Q4 S11
M204 S1000
G1 X177.036 Y44.785 F10800
G1 X177.393 Y44.877
M204 S800
G1 F1200
G1 X177.535 Y44.328 E.01778
G1 X178.249 Y43.211 E.04157
G1 X179.267 Y42.379 E.04122
G1 X180.888 Y41.872 E.05325
G1 X210.229 Y41.875 E.91997
G1 X211.1 Y42.047 E.02784
G1 X211.917 Y42.402 E.02793
G1 X212.869 Y43.176 E.03847
G1 X213.594 Y44.274 E.04125
G1 X213.936 Y45.559 E.04169
G1 X213.936 Y74.903 E.92006
G1 X213.618 Y76.133 E.03983
G1 X212.904 Y77.251 E.04159
G1 X211.886 Y78.083 E.04122
G1 X210.266 Y78.59 E.05322
G1 X180.905 Y78.59 E.92059
G1 X179.674 Y78.273 E.03986
G1 X178.556 Y77.558 E.04161
G1 X177.725 Y76.541 E.04118
G1 X177.217 Y74.92 E.05326
G1 X177.217 Y45.559 E.92059
G1 X177.378 Y44.935 E.02021
M73 P5 R11
M73 Q5 S11
M204 S1000
G1 X177.378 Y44.935 F10800
G1 X177.74 Y45.03
M204 S800
G1 F1200
G1 X177.892 Y44.454 E.01868
G1 X178.523 Y43.471 E.03662
G1 X179.459 Y42.705 E.03792
G1 X180.916 Y42.249 E.04787
G1 X210.21 Y42.252 E.91849
G1 X211.005 Y42.412 E.02543
G1 X211.74 Y42.736 E.02519
G1 X212.607 Y43.448 E.03518
G1 X213.261 Y44.454 E.03762
G1 X213.559 Y45.583 E.03661
G1 X213.559 Y74.878 E.91852
G1 X213.262 Y76.008 E.03663
G1 X212.63 Y76.991 E.03664
G1 X212.135 Y77.449 E.02114
G1 X211.694 Y77.757 E.01687
G1 X210.237 Y78.213 E.04787
G1 X180.93 Y78.213 E.9189
G1 X179.799 Y77.916 E.03666
G1 X178.817 Y77.285 E.0366
G1 X178.358 Y76.79 E.02117
G1 X178.05 Y76.349 E.01687
G1 X177.594 Y74.891 E.0479
G1 X177.594 Y45.584 E.9189
G1 X177.725 Y45.088 E.01608
M204 S1000
G1 X177.725 Y45.088 F10800
G1 X178.082 Y45.182
M204 S800
G1 F1200
G1 X178.226 Y44.63 E.01789
G1 X178.797 Y43.731 E.03339
G1 X179.65 Y43.031 E.0346
G1 X180.945 Y42.626 E.04254
G1 X210.191 Y42.629 E.91699
M73 Q6 S11
G1 X210.872 Y42.766 E.02178
M73 P6 R11
G1 X211.564 Y43.07 E.0237
G1 X212.343 Y43.719 E.03179
G1 X212.905 Y44.581 E.03226
G1 X213.182 Y45.609 E.03338
G1 X213.182 Y74.854 E.91696
G1 X212.927 Y75.832 E.03169
G1 X212.356 Y76.731 E.03339
G1 X211.503 Y77.431 E.0346
G1 X210.208 Y77.836 E.04254
G1 X180.953 Y77.836 E.91727
G1 X179.976 Y77.582 E.03165
G1 X179.077 Y77.01 E.03341
G1 X178.377 Y76.158 E.03457
G1 X177.971 Y74.863 E.04255
G1 X177.971 Y45.608 E.91727
G1 X178.067 Y45.24 E.01192
M204 S1000
G1 X178.067 Y45.24 F10800
G1 X178.428 Y45.336
M204 S800
G1 F1200
G1 X178.582 Y44.756 E.01882
G1 X179.071 Y43.991 E.02847
G1 X179.84 Y43.358 E.03123
G1 X180.974 Y43.003 E.03726
G1 X210.171 Y43.006 E.91545
G1 X210.775 Y43.131 E.01934
M73 P7 R11
M73 Q7 S11
G1 X211.385 Y43.403 E.02094
G1 X212.078 Y43.988 E.02844
G1 X212.572 Y44.759 E.02871
G1 X212.805 Y45.633 E.02836
G1 X212.805 Y74.829 E.91542
G1 X212.571 Y75.706 E.02846
G1 X212.082 Y76.47 E.02844
G1 X211.643 Y76.877 E.01877
G1 X211.313 Y77.104 E.01256
G1 X210.18 Y77.459 E.03723
G1 X180.979 Y77.459 E.91558
G1 X180.102 Y77.225 E.02846
G1 X179.337 Y76.736 E.02847
G1 X178.93 Y76.297 E.01877
G1 X178.703 Y75.967 E.01256
G1 X178.348 Y74.834 E.03723
G1 X178.348 Y45.633 E.91558
G1 X178.412 Y45.394 E.00776
M204 S1000
G1 X178.412 Y45.394 F10800
G1 X178.771 Y45.492
M204 S800
G1 F1200
G1 X178.938 Y44.885 E.01974
G1 X179.345 Y44.252 E.0236
G1 X180.029 Y43.685 E.02786
G1 X181.002 Y43.38 E.03197
G1 X210.151 Y43.384 E.91395
G1 X210.676 Y43.495 E.01682
M73 P8 R11
M73 Q8 S11
G1 X211.203 Y43.735 E.01816
G1 X211.811 Y44.256 E.02511
G1 X212.216 Y44.887 E.02351
G1 X212.428 Y45.659 E.0251
G1 X212.428 Y74.803 E.91379
G1 X212.215 Y75.577 E.02517
G1 X211.808 Y76.21 E.0236
G1 X211.124 Y76.777 E.02786
G1 X210.151 Y77.082 E.03197
G1 X181.005 Y77.082 E.91385
G1 X180.23 Y76.87 E.02519
G1 X179.598 Y76.463 E.02357
G1 X179.031 Y75.779 E.02786
G1 X178.726 Y74.805 E.032
G1 X178.726 Y45.659 E.91385
G1 X178.755 Y45.55 E.00354
M204 S1000
G1 X178.755 Y45.55 F10800
G1 X179.112 Y45.651
M204 S800
G1 F1200
G1 X179.293 Y45.015 E.02073
G1 X179.618 Y44.513 E.01875
G1 X180.216 Y44.013 E.02444
G1 X181.031 Y43.757 E.02678
G1 X210.13 Y43.761 E.91238
G1 X210.573 Y43.858 E.01422
G1 X211.019 Y44.065 E.01542
G1 X211.542 Y44.522 E.02178
G1 X211.861 Y45.017 E.01846
G1 X212.051 Y45.686 E.02181
G1 X212.051 Y74.776 E.9121
G1 X211.861 Y75.446 E.02184
M73 P9 R11
M73 Q9 S11
G1 X211.535 Y75.949 E.01879
G1 X210.937 Y76.448 E.02442
G1 X210.122 Y76.705 E.02679
G1 X181.031 Y76.705 E.91213
G1 X180.361 Y76.515 E.02184
G1 X179.858 Y76.189 E.01879
G1 X179.359 Y75.591 E.02442
G1 X179.103 Y74.776 E.02678
G1 X179.103 Y45.71 E.91134
M204 S1000
G1 X179.103 Y45.71 F10800
G1 X179.48 Y45.714
M204 S800
G1 F1200
G1 X179.646 Y45.15 E.01843
G1 X179.891 Y44.774 E.01407
G1 X180.402 Y44.343 E.02096
G1 X181.06 Y44.134 E.02165
G1 X210.107 Y44.138 E.91075
G1 X210.832 Y44.393 E.0241
G1 X211.272 Y44.785 E.01848
G1 X211.508 Y45.15 E.01363
G1 X211.673 Y45.714 E.01843
G1 X211.673 Y74.748 E.91034
G1 X211.507 Y75.312 E.01843
G1 X211.262 Y75.688 E.01407
G1 X210.752 Y76.119 E.02094
G1 X210.093 Y76.328 E.02168
G1 X181.059 Y76.328 E.91034
G1 X180.495 Y76.162 E.01843
M73 P10 R11
M73 Q10 S11
G1 X180.12 Y75.916 E.01406
G1 X179.688 Y75.406 E.02096
G1 X179.48 Y74.747 E.02167
G1 X179.48 Y45.774 E.90843
M204 S1000
G1 X179.48 Y45.774 F10800
G1 X179.857 Y45.774
M204 S800
G1 F1200
G1 X179.857 Y45.743 E.00097
G1 X179.997 Y45.288 E.01493
G1 X180.164 Y45.035 E.0095
G1 X180.584 Y44.673 E.01739
G1 X181.09 Y44.511 E.01666
G1 X210.086 Y44.515 E.90915
G1 X210.644 Y44.721 E.01865
M73 P10 R10
G1 X210.999 Y45.046 E.01509
G1 X211.296 Y45.743 E.02376
G1 X211.296 Y74.719 E.90852
G1 X211.156 Y75.174 E.01493
M73 Q10 S10
G1 X210.989 Y75.427 E.0095
G1 X210.57 Y75.788 E.01734
G1 X210.063 Y75.951 E.0167
G1 X181.089 Y75.951 E.90846
G1 X180.633 Y75.81 E.01497
M73 P11 R10
M73 Q11 S10
G1 X180.381 Y75.644 E.00946
G1 X180.019 Y75.224 E.01739
G1 X179.857 Y74.718 E.01666
G1 X179.857 Y45.834 E.90564
M204 S1000
G1 X179.857 Y45.834 F10800
G1 X180.234 Y45.834
M204 S800
G1 F1200
G1 X180.234 Y45.775 E.00185
G1 X180.436 Y45.297 E.01627
G1 X180.759 Y45.007 E.01361
G1 X181.121 Y44.888 E.01195
G1 X210.064 Y44.892 E.90749
G1 X210.455 Y45.049 E.01321
G1 X210.723 Y45.304 E.0116
G1 X210.919 Y45.775 E.016
G1 X210.919 Y74.687 E.90652
G1 X210.717 Y75.165 E.01627
G1 X210.394 Y75.455 E.01361
G1 X210.032 Y75.574 E.01195
G1 X181.121 Y75.574 E.90648
G1 X180.643 Y75.371 E.01628
G1 X180.353 Y75.048 E.01361
G1 X180.234 Y74.687 E.01192
G1 X180.234 Y45.894 E.90278
M204 S1000
G1 X180.234 Y45.894 F10800
M73 P12 R10
M73 Q12 S10
G1 X180.611 Y45.894
M204 S800
G1 F1200
G1 X180.611 Y45.81 E.00263
G1 X180.708 Y45.559 E.00844
G1 X180.943 Y45.342 E.01003
G1 X181.156 Y45.265 E.0071
G1 X210.012 Y45.265 E.90476
G1 X210.443 Y45.556 E.01631
G1 X210.542 Y45.81 E.00855
G1 X210.542 Y74.652 E.90432
G1 X210.445 Y74.903 E.00844
G1 X210.21 Y75.12 E.01003
G1 X209.997 Y75.197 E.0071
G1 X181.156 Y75.197 E.90429
G1 X180.904 Y75.099 E.00848
G1 X180.687 Y74.865 E.01001
G1 X180.611 Y74.652 E.00709
G1 X180.611 Y45.954 E.89981
M204 S1000
G1 X180.611 Y45.954 F10800
G1 X181.017 Y45.954
M204 S800
G1 F1200
G1 X181.017 Y45.783 E.00536
G1 X181.198 Y45.642 E.00719
G1 X210.025 Y45.671 E.90385
G1 X210.165 Y45.852 E.00717
M73 P13 R10
M73 Q13 S10
G1 X210.136 Y74.679 E.90385
G1 X209.955 Y74.819 E.00717
G1 X181.128 Y74.791 E.90385
G1 X180.988 Y74.61 E.00717
G1 X181.017 Y46.014 E.89661
M204 S1000
;WIPE_START
G1 F8640
G1 X181.017 Y45.954 E-.01385
G1 X181.017 Y45.783 E-.03948
G1 X181.198 Y45.642 E-.05298
G1 X184.202 Y45.645 E-.69369
;WIPE_END
G1 Z.6 F720
; printing object PennyHolderII v3.stl id:0 copy 0
G1 X205.852 Y61.712 F10800
G1 Z.2 F720
G1 E.8 F2100
M204 S800
;TYPE:Perimeter
;WIDTH:0.419999
G1 F1200
G1 X205.713 Y62.47 E.02416
G1 X205.461 Y63.421 E.03085
G1 X205.204 Y64.128 E.02359
G1 X204.896 Y64.814 E.02358
G1 X204.54 Y65.477 E.0236
G1 X204.136 Y66.112 E.0236
G1 X203.688 Y66.716 E.02358
G1 X203.197 Y67.286 E.02359
G1 X202.666 Y67.818 E.02357
G1 X202.098 Y68.311 E.02358
G1 X201.495 Y68.762 E.02361
G1 X200.862 Y69.168 E.02358
G1 X200.2 Y69.526 E.0236
G1 X199.515 Y69.836 E.02357
G1 X198.809 Y70.096 E.02359
G1 X198.086 Y70.303 E.02358
G1 X197.35 Y70.458 E.02358
G1 X197.061 Y70.498 E.00915
G1 X196.746 Y71.252 E.02562
G1 X196.621 Y71.438 E.00703
G1 X196.322 Y71.592 E.01055
G1 X194.929 Y71.6 E.04368
G1 X194.706 Y71.554 E.00714
G1 X194.531 Y71.437 E.0066
G1 X194.407 Y71.252 E.00698
G1 X194.091 Y70.495 E.02572
G1 X193.321 Y70.354 E.02454
G1 X192.386 Y70.103 E.03035
G1 X191.681 Y69.846 E.02353
G1 X190.996 Y69.539 E.02354
G1 X190.335 Y69.183 E.02354
G1 X189.701 Y68.78 E.02355
G1 X189.099 Y68.332 E.02353
G1 X188.53 Y67.842 E.02354
G1 X187.998 Y67.312 E.02355
G1 X187.506 Y66.745 E.02354
G1 X187.057 Y66.144 E.02352
G1 X186.651 Y65.512 E.02355
G1 X186.293 Y64.852 E.02354
G1 X185.983 Y64.168 E.02355
G1 X185.724 Y63.464 E.02352
G1 X185.516 Y62.742 E.02356
G1 X185.361 Y62.008 E.02352
G1 X185.32 Y61.719 E.00915
G1 X184.555 Y61.401 E.02598
G1 X184.371 Y61.277 E.00696
G1 X184.216 Y60.976 E.01062
G1 X184.207 Y59.583 E.04368
G1 X184.253 Y59.36 E.00714
M73 P14 R10
G1 X184.371 Y59.185 E.00662
G1 X184.555 Y59.061 E.00696
G1 X185.32 Y58.742 E.02599
G1 X185.463 Y57.964 E.0248
M73 Q14 S10
G1 X185.711 Y57.037 E.03009
G1 X185.968 Y56.332 E.02353
G1 X186.275 Y55.647 E.02354
G1 X186.631 Y54.985 E.02357
G1 X187.033 Y54.352 E.02351
G1 X187.481 Y53.749 E.02355
G1 X187.971 Y53.18 E.02354
G1 X188.5 Y52.648 E.02352
G1 X189.067 Y52.155 E.02356
G1 X189.668 Y51.705 E.02354
G1 X190.3 Y51.3 E.02354
G1 X190.959 Y50.941 E.02353
G1 X191.643 Y50.631 E.02355
G1 X192.347 Y50.371 E.02353
G1 X193.068 Y50.163 E.02353
G1 X193.803 Y50.007 E.02356
G1 X194.091 Y49.967 E.00912
G1 X194.407 Y49.21 E.02572
G1 X194.531 Y49.025 E.00698
G1 X194.831 Y48.87 E.01059
G1 X196.224 Y48.862 E.04368
G1 X196.447 Y48.907 E.00713
G1 X196.621 Y49.024 E.00657
G1 X196.746 Y49.21 E.00703
G1 X197.061 Y49.964 E.02562
G1 X197.828 Y50.103 E.02444
G1 X198.77 Y50.354 E.03057
G1 X199.477 Y50.61 E.02358
G1 X200.164 Y50.917 E.02359
G1 X200.826 Y51.273 E.02357
G1 X201.461 Y51.677 E.0236
G1 X202.066 Y52.125 E.0236
G1 X202.636 Y52.615 E.02357
G1 X203.169 Y53.146 E.02359
G1 X203.662 Y53.714 E.02358
G1 X204.113 Y54.316 E.02358
G1 X204.519 Y54.95 E.02361
G1 X204.878 Y55.611 E.02358
G1 X205.189 Y56.296 E.02359
G1 X205.448 Y57.002 E.02358
G1 X205.656 Y57.725 E.02359
G1 X205.811 Y58.461 E.02358
G1 X205.852 Y58.75 E.00915
G1 X206.598 Y59.061 E.02534
G1 X206.784 Y59.187 E.00704
G1 X206.901 Y59.361 E.00657
G1 X206.946 Y59.583 E.0071
G1 X206.946 Y60.879 E.04064
G1 X206.901 Y61.1 E.00707
G1 X206.784 Y61.275 E.0066
G1 X206.598 Y61.401 E.00704
G1 X205.907 Y61.689 E.02347
M204 S1000
G1 X205.907 Y61.689 F10800
G1 X205.507 Y61.447
M204 S800
;TYPE:External perimeter
G1 F1200
G1 X205.344 Y62.393 E.0301
G1 X205.098 Y63.317 E.02998
G1 X204.85 Y63.998 E.02272
G1 X204.553 Y64.66 E.02275
G1 X204.208 Y65.298 E.02274
G1 X203.819 Y65.909 E.02271
G1 X203.386 Y66.49 E.02272
G1 X202.912 Y67.039 E.02274
G1 X202.399 Y67.552 E.02275
G1 X201.851 Y68.026 E.02272
G1 X201.27 Y68.459 E.02272
G1 X200.659 Y68.85 E.02274
G1 X200.021 Y69.195 E.02274
G1 X199.36 Y69.492 E.02272
G1 X198.68 Y69.741 E.02271
G1 X197.982 Y69.941 E.02277
G1 X197.273 Y70.089 E.02271
G1 X196.796 Y70.153 E.01509
G1 X196.398 Y71.107 E.03241
G1 X196.298 Y71.208 E.00446
G1 X196.224 Y71.223 E.00237
G1 X194.929 Y71.223 E.0406
G1 X194.796 Y71.169 E.0045
G1 X194.356 Y70.151 E.03477
G1 X193.399 Y69.985 E.03045
G1 X192.49 Y69.741 E.02951
G1 X191.811 Y69.492 E.02268
G1 X191.151 Y69.195 E.02269
G1 X190.514 Y68.851 E.0227
G1 X189.905 Y68.462 E.02266
G1 X189.324 Y68.03 E.0227
G1 X188.777 Y67.557 E.02267
G1 X188.265 Y67.045 E.0227
G1 X187.792 Y66.498 E.02267
G1 X187.359 Y65.918 E.02269
G1 X186.969 Y65.309 E.02267
G1 X186.625 Y64.673 E.02267
G1 X186.327 Y64.013 E.02271
G1 X186.078 Y63.334 E.02268
G1 X185.878 Y62.638 E.02271
G1 X185.73 Y61.93 E.02268
G1 X185.665 Y61.455 E.01503
G1 X184.7 Y61.053 E.03278
G1 X184.6 Y60.953 E.00443
G1 X184.584 Y60.879 E.00237
G1 X184.584 Y59.583 E.04064
G1 X184.639 Y59.45 E.00451
G1 X185.665 Y59.007 E.03504
G1 X185.832 Y58.041 E.03074
G1 X186.074 Y57.141 E.02922
G1 X186.322 Y56.461 E.02269
G1 X186.619 Y55.801 E.02269
G1 X186.962 Y55.165 E.02266
G1 X187.351 Y54.555 E.02268
G1 X187.783 Y53.974 E.0227
G1 X188.256 Y53.426 E.0227
G1 X188.767 Y52.914 E.02268
G1 X189.314 Y52.441 E.02267
G1 X189.893 Y52.008 E.02267
G1 X190.503 Y51.618 E.0227
