; generated by PrusaSlicer 2.9.0 on 2025-01-04 at 19:55:13 UTC


;
;
; 

; external perimeters extrusion width = 0.45mm
; perimeters extrusion width = 0.45mm
; infill extrusion width = 0.45mm
; solid infill extrusion width = 0.45mm
; top infill extrusion width = 0.40mm
; first layer extrusion width = 0.42mm

M73 P0 R12
M73 Q0 S12
M201 X1000 Y1000 Z200 E5000 ; sets maximum accelerations, mm/sec^2
M203 X200 Y200 Z12 E120 ; sets maximum feedrates, mm / sec
M204 S1250 T1250 ; sets acceleration (S) and retract acceleration (R), mm/sec^2
M205 X8.00 Y8.00 Z0.40 E4.50 ; sets the jerk limits, mm/sec
M205 S0 T0 ; sets the minimum extruding and travel feed rate, mm/sec

; printing object PennyHolderII v3.stl id:0 copy 0
; stop printing object PennyHolderII v3.stl id:0 copy 0

;TYPE:Custom
M862.3 P "MK3S" ; printer model check
M862.1 P0.4 ; nozzle diameter check
M115 U3.14.1 ; tell printer latest fw version
G90 ; use absolute coordinates
M83 ; extruder relative mode
M104 S215 ; set extruder temp
M140 S60 ; set bed temp
M190 S60 ; wait for bed temp
M109 S215 ; wait for extruder temp
G28 W ; home all without mesh bed level
G80 X171.918 Y126.356 W43.5542 H43.5542 ; mesh bed levelling

G1 Z0.2 F720
G1 Y-3 F1000 ; go outside print area
G92 E0
G1 X60 E9 F1000 ; intro line
G1 X100 E12.5 F1000 ; intro line

G92 E0
M221 S95

; Don't change E values below. Excessive value can damage the printer.
M907 E430 ; set extruder motor current
G21 ; set units to millimeters
G90 ; use absolute coordinates
M83 ; use relative distances for extrusion

M900 K0.05 ; Filament gcode LA 1.5
M900 K30 ; Filament gcode LA 1.0




M107
;LAYER_CHANGE
;Z:0.2
;HEIGHT:0.2
G1 E-.8 F2100
G1 Z.6 F720
G1 X172.748 Y130.173 F10800
G1 Z.2 F720
M73 Q1 S12
G1 E.8 F2100
M73 P1 R12
M204 S800
;TYPE:Skirt/Brim
;WIDTH:0.42
G1 F1200
G1 X175.735 Y127.186 E.13245
G1 X177.283 Y126.545 E.05253
G1 X210.108 Y126.545 E1.0292
G1 X211.655 Y127.186 E.0525
G1 X214.643 Y130.173 E.13247
G1 X215.284 Y131.721 E.05253
G1 X215.284 Y164.546 E1.0292
G1 X214.643 Y166.093 E.0525
G1 X211.655 Y169.081 E.13249
G1 X210.108 Y169.722 E.0525
G1 X177.283 Y169.722 E1.0292
G1 X175.735 Y169.081 E.05253
G1 X172.748 Y166.093 E.13247
G1 X172.107 Y164.546 E.0525
G1 X172.107 Y131.721 E1.0292
G1 X172.725 Y130.229 E.05063
M73 P2 R12
M73 Q2 S12
M204 S1000
;WIPE_START
G1 F8640
G1 X172.748 Y130.173 E-.01398
G1 X175.155 Y127.766 E-.78602
;WIPE_END
G1 Z.6 F720
G1 X175.082 Y131.742 F10800
G1 Z.2 F720
G1 E.8 F2100
M204 S800
G1 F1200
G1 X175.82 Y130.592 E.04284
G1 X177 Y129.631 E.04772
G1 X178.949 Y129.02 E.06404
G1 X208.384 Y129.023 E.92291
G1 X209.405 Y129.217 E.03259
M73 P2 R11
G1 X210.383 Y129.633 E.03332
G1 X211.507 Y130.529 E.04507
G1 X212.4 Y131.867 E.05044
G1 X212.809 Y133.412 E.05011
G1 X212.809 Y162.853 E.9231
G1 X212.428 Y164.338 E.04807
M73 Q2 S11
G1 X211.57 Y165.674 E.04978
G1 X210.391 Y166.636 E.04771
G1 X208.441 Y167.247 E.06407
G1 X178.975 Y167.247 E.92389
G1 X177.49 Y166.866 E.04807
G1 X176.154 Y166.008 E.04978
G1 X175.193 Y164.829 E.04769
G1 X174.582 Y162.88 E.06404
G1 X174.582 Y133.414 E.92389
G1 X174.962 Y131.929 E.04806
M73 P3 R11
M73 Q3 S11
G1 X175.049 Y131.793 E.00506
M204 S1000
G1 X175.049 Y131.793 F10800
G1 X175.359 Y131.992
M204 S800
G1 F1200
G1 X176.094 Y130.853 E.0425
G1 X177.193 Y129.956 E.04448
G1 X178.978 Y129.397 E.05865
G1 X208.366 Y129.401 E.92144
G1 X209.312 Y129.584 E.03021
G1 X210.21 Y129.969 E.03063
G1 X211.248 Y130.804 E.04177
G1 X212.044 Y131.995 E.04492
G1 X212.431 Y133.437 E.04681
G1 X212.431 Y162.829 E.92157
G1 X212.071 Y164.213 E.04484
G1 X211.296 Y165.414 E.04482
G1 X210.747 Y165.922 E.02345
G1 X210.197 Y166.311 E.02112
G1 X208.413 Y166.87 E.05862
G1 X179 Y166.87 E.92222
G1 X177.615 Y166.509 E.04488
G1 X176.415 Y165.735 E.04477
G1 X175.906 Y165.186 E.02347
G1 X175.518 Y164.636 E.0211
G1 X174.959 Y162.851 E.05865
G1 X174.959 Y133.438 E.92222
G1 X175.319 Y132.053 E.04487
M73 P4 R11
M73 Q4 S11
G1 X175.326 Y132.043 E.00038
M204 S1000
G1 X175.326 Y132.043 F10800
G1 X175.653 Y132.231
M204 S800
G1 F1200
G1 X176.368 Y131.113 E.04161
G1 X177.385 Y130.281 E.0412
G1 X179.006 Y129.774 E.05325
G1 X208.347 Y129.778 E.91997
G1 X209.219 Y129.949 E.02786
G1 X210.035 Y130.304 E.0279
G1 X210.988 Y131.078 E.03849
G1 X211.712 Y132.176 E.04124
G1 X212.054 Y133.462 E.04172
G1 X212.054 Y162.805 E.92003
G1 X211.737 Y164.036 E.03986
G1 X211.022 Y165.154 E.04161
G1 X210.005 Y165.985 E.04118
G1 X208.384 Y166.493 E.05326
G1 X179.023 Y166.493 E.92059
G1 X177.792 Y166.175 E.03986
G1 X176.675 Y165.46 E.04158
G1 X175.843 Y164.443 E.0412
G1 X175.336 Y162.822 E.05325
G1 X175.336 Y133.462 E.92056
G1 X175.638 Y132.289 E.03798
M73 P5 R11
M73 Q5 S11
M204 S1000
G1 X175.638 Y132.289 F10800
G1 X176.003 Y132.385
M204 S800
G1 F1200
G1 X176.01 Y132.356 E.00094
G1 X176.641 Y131.374 E.0366
G1 X177.577 Y130.607 E.03794
G1 X179.035 Y130.151 E.0479
G1 X208.328 Y130.155 E.91846
G1 X209.124 Y130.315 E.02546
G1 X209.859 Y130.638 E.02517
G1 X210.725 Y131.35 E.03515
G1 X211.38 Y132.356 E.03764
G1 X211.677 Y133.486 E.03663
G1 X211.677 Y162.78 E.91849
G1 X211.38 Y163.911 E.03666
G1 X210.749 Y164.893 E.0366
G1 X210.254 Y165.351 E.02114
G1 X209.813 Y165.66 E.01688
G1 X208.355 Y166.116 E.0479
G1 X179.048 Y166.116 E.9189
G1 X177.918 Y165.818 E.03664
G1 X176.935 Y165.187 E.03662
G1 X176.477 Y164.692 E.02114
G1 X176.169 Y164.251 E.01687
G1 X175.713 Y162.794 E.04787
G1 X175.713 Y133.486 E.91893
G1 X175.987 Y132.443 E.03381
M73 P6 R11
M73 Q6 S11
M204 S1000
G1 X175.987 Y132.443 F10800
G1 X176.344 Y132.535
M204 S800
G1 F1200
G1 X176.344 Y132.533 E.00006
G1 X176.916 Y131.633 E.03344
G1 X177.768 Y130.933 E.03457
G1 X179.063 Y130.528 E.04254
G1 X208.31 Y130.532 E.91702
G1 X208.991 Y130.668 E.02177
G1 X209.682 Y130.973 E.02368
G1 X210.462 Y131.622 E.03181
G1 X211.024 Y132.483 E.03224
G1 X211.3 Y133.511 E.03337
G1 X211.3 Y162.757 E.91699
G1 X211.046 Y163.734 E.03165
G1 X210.474 Y164.633 E.03341
G1 X209.622 Y165.333 E.03457
G1 X208.327 Y165.738 E.04254
G1 X179.072 Y165.738 E.91727
G1 X178.094 Y165.484 E.03168
G1 X177.195 Y164.912 E.03341
G1 X176.495 Y164.06 E.03457
G1 X176.09 Y162.765 E.04254
G1 X176.09 Y133.51 E.91727
G1 X176.329 Y132.594 E.02968
M204 S1000
G1 X176.329 Y132.594 F10800
G1 X176.692 Y132.691
M204 S800
G1 F1200
G1 X176.701 Y132.659 E.00104
G1 X177.19 Y131.894 E.02847
G1 X177.959 Y131.26 E.03125
G1 X179.092 Y130.905 E.03723
G1 X208.29 Y130.909 E.91548
G1 X208.894 Y131.033 E.01933
M73 P7 R11
M73 Q7 S11
G1 X209.503 Y131.305 E.02091
G1 X210.196 Y131.89 E.02844
G1 X210.69 Y132.661 E.02871
G1 X210.923 Y133.535 E.02836
G1 X210.923 Y162.731 E.91542
G1 X210.689 Y163.608 E.02846
G1 X210.2 Y164.373 E.02847
G1 X209.762 Y164.779 E.01873
G1 X209.432 Y165.006 E.01256
G1 X208.298 Y165.361 E.03726
G1 X179.097 Y165.361 E.91558
G1 X178.22 Y165.128 E.02845
G1 X177.455 Y164.639 E.02847
G1 X177.049 Y164.2 E.01875
G1 X176.822 Y163.87 E.01256
G1 X176.467 Y162.736 E.03726
G1 X176.467 Y133.535 E.91558
G1 X176.677 Y132.749 E.02551
M204 S1000
G1 X176.677 Y132.749 F10800
G1 X177.04 Y132.848
M204 S800
G1 F1200
G1 X177.056 Y132.787 E.00198
G1 X177.463 Y132.154 E.0236
G1 X178.147 Y131.588 E.02784
G1 X179.121 Y131.282 E.03201
G1 X208.27 Y131.286 E.91395
G1 X208.794 Y131.397 E.01679
M73 P8 R11
M73 Q8 S11
G1 X209.322 Y131.637 E.01819
G1 X209.929 Y132.158 E.02508
G1 X210.334 Y132.789 E.02351
G1 X210.546 Y133.561 E.0251
G1 X210.546 Y162.705 E.91379
G1 X210.334 Y163.48 E.02519
G1 X209.927 Y164.112 E.02357
G1 X209.243 Y164.679 E.02786
G1 X208.269 Y164.984 E.032
G1 X179.123 Y164.984 E.91385
G1 X178.349 Y164.772 E.02516
G1 X177.716 Y164.365 E.0236
G1 X177.149 Y163.681 E.02786
G1 X176.844 Y162.708 E.03197
G1 X176.844 Y133.561 E.91388
G1 X177.024 Y132.906 E.0213
M204 S1000
G1 X177.024 Y132.906 F10800
G1 X177.385 Y133.008
M204 S800
G1 F1200
G1 X177.411 Y132.918 E.00294
G1 X177.737 Y132.415 E.01879
G1 X178.335 Y131.916 E.02442
G1 X179.15 Y131.659 E.02679
G1 X208.248 Y131.663 E.91235
G1 X208.692 Y131.761 E.01426
G1 X209.138 Y131.967 E.0154
G1 X209.661 Y132.424 E.02178
G1 X209.98 Y132.919 E.01846
G1 X210.169 Y133.588 E.0218
G1 X210.169 Y162.678 E.9121
G1 X209.979 Y163.349 E.02187
M73 P9 R11
M73 Q9 S11
G1 X209.654 Y163.851 E.01875
G1 X209.055 Y164.351 E.02446
G1 X208.24 Y164.607 E.02678
G1 X179.15 Y164.607 E.9121
G1 X178.48 Y164.417 E.02184
G1 X177.977 Y164.092 E.01878
G1 X177.478 Y163.494 E.02442
G1 X177.221 Y162.679 E.02679
G1 X177.221 Y133.588 E.91213
G1 X177.369 Y133.066 E.01701
M204 S1000
G1 X177.369 Y133.066 F10800
G1 X177.729 Y133.172
M204 S800
G1 F1200
G1 X177.764 Y133.052 E.00392
G1 X178.01 Y132.676 E.01409
G1 X178.52 Y132.245 E.02094
G1 X179.179 Y132.036 E.02168
G1 X208.226 Y132.04 E.91075
G1 X208.951 Y132.296 E.02411
G1 X209.391 Y132.688 E.01848
G1 X209.626 Y133.053 E.01361
G1 X209.792 Y133.616 E.0184
G1 X209.792 Y162.65 E.91034
G1 X209.626 Y163.215 E.01846
M73 P10 R11
M73 Q10 S11
G1 X209.381 Y163.59 E.01404
G1 X208.87 Y164.022 E.02098
G1 X208.211 Y164.23 E.02167
G1 X179.178 Y164.23 E.91031
G1 X178.614 Y164.064 E.01843
G1 X178.238 Y163.819 E.01407
G1 X177.807 Y163.308 E.02096
G1 X177.598 Y162.65 E.02165
G1 X177.598 Y133.616 E.91034
G1 X177.712 Y133.23 E.01262
M73 P10 R10
M204 S1000
G1 X177.712 Y133.23 F10800
G1 X178.07 Y133.34
M204 S800
G1 F1200
G1 X178.116 Y133.19 E.00492
G1 X178.282 Y132.938 E.00946
G1 X178.702 Y132.576 E.01739
G1 X179.208 Y132.414 E.01666
G1 X208.204 Y132.417 E.90915
G1 X208.763 Y132.624 E.01869
G1 X209.118 Y132.949 E.01509
G1 X209.415 Y133.646 E.02376
G1 X209.415 Y162.621 E.90849
G1 X209.274 Y163.076 E.01494
M73 Q10 S10
G1 X209.108 Y163.329 E.00949
G1 X208.688 Y163.691 E.01739
G1 X208.182 Y163.853 E.01666
G1 X179.207 Y163.853 E.90849
G1 X178.752 Y163.712 E.01494
M73 P11 R10
M73 Q11 S10
G1 X178.499 Y163.546 E.00949
G1 X178.138 Y163.126 E.01736
G1 X177.975 Y162.62 E.01667
G1 X177.975 Y133.646 E.90846
G1 X178.052 Y133.397 E.00817
M204 S1000
G1 X178.052 Y133.397 F10800
G1 X178.407 Y133.548
M204 S800
G1 F1200
G1 X178.555 Y133.199 E.01189
G1 X178.878 Y132.91 E.01359
G1 X179.239 Y132.791 E.01192
G1 X208.182 Y132.794 E.90749
G1 X208.573 Y132.951 E.01321
G1 X208.842 Y133.206 E.01162
G1 X209.038 Y133.677 E.016
G1 X209.038 Y162.589 E.90652
G1 X208.836 Y163.067 E.01627
G1 X208.512 Y163.357 E.01363
G1 X208.151 Y163.476 E.01192
G1 X179.239 Y163.476 E.90652
G1 X178.761 Y163.274 E.01627
G1 X178.471 Y162.951 E.01361
G1 X178.352 Y162.589 E.01195
G1 X178.352 Y133.677 E.90652
G1 X178.384 Y133.603 E.00253
M73 P12 R10
M73 Q12 S10
M204 S1000
G1 X178.384 Y133.603 F10800
G1 X178.729 Y133.713
M204 S800
G1 F1200
G1 X178.827 Y133.461 E.00848
G1 X179.061 Y133.244 E.01001
G1 X179.274 Y133.168 E.00709
G1 X208.13 Y133.168 E.90476
G1 X208.561 Y133.458 E.01629
G1 X208.661 Y133.713 E.00859
G1 X208.661 Y162.554 E.90429
G1 X208.563 Y162.806 E.00848
G1 X208.329 Y163.023 E.01001
G1 X208.116 Y163.099 E.00709
G1 X179.274 Y163.099 E.90432
G1 X179.023 Y163.001 E.00845
G1 X178.806 Y162.767 E.01001
G1 X178.729 Y162.554 E.0071
G1 X178.729 Y133.773 E.90241
M204 S1000
G1 X178.729 Y133.773 F10800
G1 X179.135 Y133.773
M204 S800
G1 F1200
G1 X179.135 Y133.685 E.00276
G1 X179.316 Y133.545 E.00717
G1 X208.143 Y133.573 E.90385
G1 X208.284 Y133.754 E.00719
M73 P13 R10
M73 Q13 S10
G1 X208.255 Y162.582 E.90388
G1 X208.074 Y162.722 E.00717
G1 X179.247 Y162.693 E.90385
G1 X179.107 Y162.512 E.00717
G1 X179.135 Y133.833 E.89921
M204 S1000
;WIPE_START
G1 F8640
G1 X179.135 Y133.773 E-.01385
G1 X179.135 Y133.685 E-.02032
G1 X179.316 Y133.545 E-.05284
G1 X182.404 Y133.548 E-.71299
;WIPE_END
G1 Z.6 F720
; printing object PennyHolderII v3.stl id:0 copy 0
G1 X203.97 Y149.614 F10800
G1 Z.2 F720
G1 E.8 F2100
M204 S800
;TYPE:Perimeter
;WIDTH:0.419999
G1 F1200
G1 X203.832 Y150.373 E.02419
G1 X203.579 Y151.323 E.03082
G1 X203.322 Y152.03 E.02359
G1 X203.015 Y152.717 E.02359
G1 X202.658 Y153.379 E.02358
G1 X202.255 Y154.014 E.02358
G1 X201.806 Y154.618 E.0236
G1 X201.315 Y155.188 E.02359
G1 X200.784 Y155.721 E.02359
G1 X200.216 Y156.214 E.02358
G1 X199.614 Y156.664 E.02357
G1 X198.98 Y157.07 E.02361
G1 X198.319 Y157.429 E.02358
G1 X197.633 Y157.739 E.0236
G1 X196.927 Y157.998 E.02358
G1 X196.204 Y158.206 E.02359
G1 X195.468 Y158.36 E.02358
G1 X195.179 Y158.4 E.00915
G1 X194.865 Y159.155 E.02564
G1 X194.74 Y159.34 E.007
G1 X194.44 Y159.494 E.01057
G1 X193.047 Y159.502 E.04368
G1 X192.824 Y159.457 E.00713
G1 X192.65 Y159.339 E.00659
G1 X192.525 Y159.154 E.007
G1 X192.21 Y158.398 E.02568
G1 X191.44 Y158.256 E.02455
G1 X190.505 Y158.006 E.03035
G1 X189.799 Y157.749 E.02356
G1 X189.114 Y157.441 E.02355
G1 X188.453 Y157.085 E.02354
G1 X187.82 Y156.682 E.02353
G1 X187.217 Y156.234 E.02355
G1 X186.649 Y155.744 E.02352
G1 X186.117 Y155.214 E.02355
M73 Q14 S10
G1 X185.625 Y154.647 E.02354
G1 X185.175 Y154.046 E.02354
G1 X184.77 Y153.414 E.02354
M73 P14 R10
G1 X184.411 Y152.754 E.02356
G1 X184.102 Y152.07 E.02353
G1 X183.842 Y151.366 E.02353
G1 X183.634 Y150.645 E.02353
G1 X183.479 Y149.91 E.02355
G1 X183.439 Y149.622 E.00912
G1 X182.674 Y149.303 E.02599
G1 X182.49 Y149.179 E.00696
G1 X182.334 Y148.879 E.0106
G1 X182.326 Y147.486 E.04368
G1 X182.372 Y147.262 E.00717
G1 X182.49 Y147.087 E.00662
G1 X182.674 Y146.964 E.00694
G1 X183.439 Y146.645 E.02599
G1 X183.582 Y145.866 E.02483
G1 X183.83 Y144.94 E.03006
G1 X184.086 Y144.234 E.02355
G1 X184.393 Y143.549 E.02354
G1 X184.749 Y142.888 E.02354
G1 X185.152 Y142.254 E.02355
G1 X185.599 Y141.651 E.02353
G1 X186.089 Y141.082 E.02354
G1 X186.619 Y140.55 E.02355
G1 X187.185 Y140.058 E.02351
G1 X187.786 Y139.608 E.02354
G1 X188.418 Y139.202 E.02355
G1 X189.078 Y138.844 E.02354
G1 X189.761 Y138.533 E.02353
G1 X190.466 Y138.273 E.02356
G1 X191.187 Y138.065 E.02353
G1 X191.921 Y137.91 E.02352
G1 X192.21 Y137.869 E.00915
G1 X192.525 Y137.112 E.02571
G1 X192.65 Y136.927 E.007
G1 X192.95 Y136.772 E.01059
G1 X194.343 Y136.764 E.04368
G1 X194.565 Y136.81 E.00711
G1 X194.74 Y136.927 E.0066
G1 X194.865 Y137.112 E.007
G1 X195.179 Y137.866 E.02561
G1 X195.946 Y138.006 E.02445
G1 X196.888 Y138.256 E.03056
G1 X197.596 Y138.513 E.02362
G1 X198.282 Y138.82 E.02356
G1 X198.945 Y139.176 E.0236
G1 X199.58 Y139.579 E.02358
G1 X200.184 Y140.027 E.02358
G1 X200.754 Y140.518 E.02359
G1 X201.287 Y141.049 E.02359
G1 X201.781 Y141.617 E.0236
G1 X202.232 Y142.219 E.02358
G1 X202.638 Y142.852 E.02358
G1 X202.997 Y143.513 E.02358
G1 X203.307 Y144.198 E.02357
G1 X203.567 Y144.904 E.02359
G1 X203.775 Y145.627 E.02359
G1 X203.93 Y146.363 E.02358
G1 X203.97 Y146.653 E.00918
G1 X204.716 Y146.964 E.02534
G1 X204.903 Y147.09 E.00707
G1 X205.019 Y147.264 E.00656
G1 X205.064 Y147.486 E.0071
G1 X205.064 Y148.781 E.0406
G1 X205.019 Y149.003 E.0071
G1 X204.903 Y149.177 E.00656
G1 X204.716 Y149.303 E.00707
G1 X204.026 Y149.591 E.02344
M204 S1000
G1 X204.026 Y149.591 F10800
G1 X203.625 Y149.349
M204 S800
;TYPE:External perimeter
G1 F1200
G1 X203.463 Y150.296 E.03012
G1 X203.217 Y151.22 E.02998
G1 X202.968 Y151.901 E.02273
G1 X202.671 Y152.562 E.02272
G1 X202.327 Y153.2 E.02273
G1 X201.937 Y153.811 E.02273
G1 X201.504 Y154.393 E.02274
G1 X201.03 Y154.941 E.02272
G1 X200.518 Y155.454 E.02273
G1 X199.97 Y155.928 E.02272
G1 X199.388 Y156.362 E.02276
G1 X198.777 Y156.752 E.02273
G1 X198.14 Y157.097 E.02271
G1 X197.479 Y157.395 E.02273
G1 X196.798 Y157.644 E.02273
G1 X196.101 Y157.843 E.02273
G1 X195.391 Y157.991 E.02274
G1 X194.914 Y158.055 E.01509
G1 X194.517 Y159.01 E.03243
G1 X194.417 Y159.11 E.00443
G1 X194.343 Y159.126 E.00237
G1 X193.047 Y159.125 E.04064
G1 X192.915 Y159.071 E.00447
G1 X192.475 Y158.053 E.03477
G1 X191.517 Y157.887 E.03048
G1 X190.608 Y157.643 E.02951
G1 X189.929 Y157.395 E.02267
G1 X189.269 Y157.098 E.02269
G1 X188.633 Y156.754 E.02267
G1 X188.023 Y156.364 E.0227
G1 X187.443 Y155.932 E.02268
G1 X186.895 Y155.459 E.0227
G1 X186.384 Y154.948 E.02266
G1 X185.91 Y154.401 E.02269
G1 X185.477 Y153.821 E.02269
G1 X185.088 Y153.211 E.02268
G1 X184.743 Y152.575 E.02269
G1 X184.446 Y151.916 E.02266
G1 X184.196 Y151.236 E.02272
G1 X183.997 Y150.541 E.02267
G1 X183.848 Y149.833 E.02269
G1 X183.784 Y149.357 E.01506
G1 X182.819 Y148.955 E.03278
G1 X182.718 Y148.855 E.00446
G1 X182.703 Y148.781 E.00237
