; generated by PrusaSlicer 2.9.0 on 2025-01-02 at 17:15:29 UTC


;
;
; 

; external perimeters extrusion width = 0.45mm
; perimeters extrusion width = 0.45mm
; infill extrusion width = 0.45mm
; solid infill extrusion width = 0.45mm
; top infill extrusion width = 0.40mm
; first layer extrusion width = 0.42mm

M73 P0 R12
M73 Q0 S12
M201 X1000 Y1000 Z200 E8000 ; sets maximum accelerations, mm/sec^2
M203 X200 Y200 Z12 E120 ; sets maximum feedrates, mm / sec
M204 S1250 T1250 ; sets acceleration (S) and retract acceleration (R), mm/sec^2
M205 X8.00 Y8.00 Z0.40 E4.50 ; sets the jerk limits, mm/sec
M205 S0 T0 ; sets the minimum extruding and travel feed rate, mm/sec

; printing object PennyHolderII v3.stl id:0 copy 0
; stop printing object PennyHolderII v3.stl id:0 copy 0

;TYPE:Custom
M862.3 P "MK3SMMU3" ; printer model check
M862.1 P0.4 ; nozzle diameter check
M115 U3.14.1 ; tell printer latest fw version
G90 ; use absolute coordinates
M83 ; extruder relative mode
M104 S215 ; set extruder temp
M140 S60 ; set bed temp
M190 S60 ; wait for bed temp
M109 S215 ; wait for extruder temp
G28 W ; home all without mesh bed level
G80 X43.3271 Y125.59 W43.5542 H43.5542 ; mesh bed levelling

; Send the filament type to the MMU unit.
; E stands for extruder number, F stands for filament type (0: default; 1:flex; 2: PVA)
M403 E0 F0
M403 E1 F0
M403 E2 F0
M403 E3 F0
M403 E4 F0


;go outside print area
G1 Y-3 F1000
G1 Z0.4 F1000
; select extruder
T0
; initial load
G1 X55 E29 F1073
G1 X5 E29 F1800
G1 X55 E8 F2000
G1 Z0.3 F1000
G92 E0
G1 X240 E25 F2200
G1 Y-2 F1000
M73 P1 R12
M73 Q1 S12
G1 X55 E25 F1400
G1 Z0.2 F1000
M73 P2 R12
M73 Q2 S12
G1 X5 E4 F1000
G92 E0


M221 S95
G92 E0

; Don't change E values below. Excessive value can damage the printer.
M907 E430 ; set extruder motor current
G21 ; set units to millimeters
G90 ; use absolute coordinates
M83 ; use relative distances for extrusion

M900 K0.05 ; Filament gcode LA 1.5
M900 K30 ; Filament gcode LA 1.0




M107
;LAYER_CHANGE
;Z:0.2
;HEIGHT:0.2
G1 E-.8 F2100
M73 P3 R12
M73 Q3 S12
G1 Z.6 F720
G1 X48.692 Y125.778 F10800
G1 Z.2 F720
G1 E.8 F2100
M204 S800
;TYPE:Skirt/Brim
;WIDTH:0.42
G1 F1200
G1 X81.517 Y125.778 E1.0292
G1 X83.064 Y126.419 E.0525
G1 X86.052 Y129.407 E.13249
G1 X86.693 Y130.954 E.0525
G1 X86.693 Y163.779 E1.0292
G1 X86.052 Y165.327 E.05253
G1 X83.064 Y168.314 E.13247
G1 X81.517 Y168.955 E.0525
G1 X48.692 Y168.955 E1.0292
G1 X47.144 Y168.314 E.05253
G1 X44.157 Y165.327 E.13245
G1 X43.516 Y163.779 E.05253
M73 Q4 S12
G1 X43.516 Y130.954 E1.0292
G1 X44.157 Y129.407 E.0525
M73 P4 R12
G1 X47.144 Y126.419 E.13247
G1 X48.636 Y125.801 E.05063
M204 S1000
;WIPE_START
G1 F8640
G1 X48.692 Y125.778 E-.01398
G1 X52.096 Y125.778 E-.78602
;WIPE_END
G1 Z.6 F720
G1 X49.49 Y128.525 F10800
M73 P4 R11
G1 Z.2 F720
G1 E.8 F2100
M204 S800
G1 F1200
G1 X50.358 Y128.253 E.02852
G1 X79.794 Y128.257 E.92295
G1 X80.814 Y128.451 E.03255
G1 X81.792 Y128.866 E.03331
G1 X82.916 Y129.762 E.04507
G1 X83.809 Y131.1 E.05044
G1 X84.218 Y132.645 E.05011
G1 X84.218 Y162.086 E.9231
M73 Q4 S11
G1 X83.837 Y163.571 E.04807
G1 X82.979 Y164.908 E.04981
G1 X81.8 Y165.869 E.04769
G1 X79.85 Y166.48 E.06407
G1 X50.384 Y166.48 E.92389
G1 X48.9 Y166.1 E.04803
M73 Q5 S11
G1 X47.563 Y165.242 E.04981
M73 P5 R11
G1 X46.602 Y164.062 E.04772
G1 X45.991 Y162.113 E.06404
G1 X45.991 Y132.647 E.92389
G1 X46.371 Y131.162 E.04806
G1 X47.229 Y129.826 E.04978
G1 X48.409 Y128.864 E.04774
G1 X49.433 Y128.543 E.03365
M204 S1000
G1 X49.433 Y128.543 F10800
G1 X49.543 Y128.895
M204 S800
G1 F1200
G1 X50.387 Y128.63 E.02774
G1 X79.775 Y128.634 E.92144
G1 X80.722 Y128.817 E.03024
G1 X81.619 Y129.202 E.03061
G1 X82.658 Y130.038 E.04181
G1 X83.453 Y131.228 E.04487
G1 X83.841 Y132.671 E.04685
G1 X83.841 Y162.062 E.92153
G1 X83.48 Y163.447 E.04488
G1 X82.706 Y164.647 E.04477
G1 X82.156 Y165.156 E.0235
G1 X81.606 Y165.544 E.0211
G1 X79.822 Y166.103 E.05862
G1 X50.409 Y166.103 E.92222
G1 X49.024 Y165.743 E.04487
G1 X47.824 Y164.968 E.04479
M73 Q6 S11
G1 X47.315 Y164.419 E.02347
G1 X46.927 Y163.869 E.0211
G1 X46.368 Y162.084 E.05865
G1 X46.368 Y132.671 E.92222
G1 X46.728 Y131.287 E.04484
M73 P6 R11
G1 X47.503 Y130.086 E.04482
G1 X48.602 Y129.189 E.04448
G1 X49.486 Y128.913 E.02904
M204 S1000
G1 X49.486 Y128.913 F10800
G1 X49.596 Y129.264
M204 S800
G1 F1200
G1 X50.415 Y129.007 E.02691
G1 X79.756 Y129.011 E.91997
G1 X80.628 Y129.183 E.02787
G1 X81.444 Y129.537 E.02789
G1 X82.397 Y130.311 E.03849
G1 X83.122 Y131.41 E.04128
G1 X83.463 Y132.695 E.04168
G1 X83.463 Y162.038 E.92003
G1 X83.146 Y163.269 E.03986
G1 X82.431 Y164.387 E.04161
G1 X81.414 Y165.219 E.0412
G1 X79.793 Y165.726 E.05325
G1 X50.432 Y165.726 E.92059
G1 X49.202 Y165.409 E.03983
G1 X48.084 Y164.694 E.04161
G1 X47.252 Y163.676 E.04122
G1 X46.745 Y162.056 E.05322
G1 X46.745 Y132.695 E.92059
G1 X47.062 Y131.464 E.03986
M73 P7 R11
M73 Q7 S11
G1 X47.777 Y130.346 E.04161
G1 X48.795 Y129.515 E.0412
G1 X49.538 Y129.282 E.02441
M204 S1000
G1 X49.538 Y129.282 F10800
G1 X49.648 Y129.633
M204 S800
G1 F1200
G1 X50.444 Y129.384 E.02615
G1 X79.737 Y129.388 E.91846
G1 X80.533 Y129.548 E.02546
G1 X81.268 Y129.872 E.02519
G1 X82.134 Y130.584 E.03515
G1 X82.789 Y131.589 E.03761
G1 X83.086 Y132.719 E.03663
G1 X83.086 Y162.014 E.91852
G1 X82.789 Y163.144 E.03663
G1 X82.158 Y164.126 E.0366
G1 X81.663 Y164.585 E.02117
G1 X81.222 Y164.893 E.01687
G1 X79.765 Y165.349 E.04787
G1 X50.457 Y165.349 E.91893
G1 X49.327 Y165.052 E.03663
G1 X48.344 Y164.42 E.03664
G1 X47.886 Y163.926 E.02112
G1 X47.578 Y163.484 E.01689
G1 X47.122 Y162.027 E.04787
G1 X47.122 Y132.72 E.9189
G1 X47.419 Y131.589 E.03666
M73 P8 R11
M73 Q8 S11
G1 X48.051 Y130.607 E.03662
G1 X48.986 Y129.841 E.0379
G1 X49.591 Y129.651 E.01988
M204 S1000
G1 X49.591 Y129.651 F10800
G1 X49.701 Y130.003
M204 S800
G1 F1200
G1 X50.473 Y129.762 E.02536
G1 X79.719 Y129.765 E.91699
G1 X80.4 Y129.902 E.02178
G1 X81.091 Y130.206 E.02367
G1 X81.871 Y130.855 E.03181
G1 X82.433 Y131.717 E.03226
G1 X82.709 Y132.744 E.03334
G1 X82.709 Y161.99 E.91699
G1 X82.455 Y162.967 E.03165
G1 X81.883 Y163.867 E.03344
G1 X81.031 Y164.567 E.03457
G1 X79.736 Y164.972 E.04254
G1 X50.481 Y164.972 E.91727
G1 X49.504 Y164.717 E.03166
G1 X48.604 Y164.146 E.03342
G1 X47.904 Y163.293 E.0346
G1 X47.499 Y161.998 E.04254
G1 X47.499 Y132.744 E.91724
G1 X47.753 Y131.766 E.03168
G1 X48.325 Y130.867 E.03341
G1 X49.178 Y130.167 E.0346
G1 X49.644 Y130.021 E.01531
M73 Q9 S11
M204 S1000
G1 X49.644 Y130.021 F10800
G1 X49.754 Y130.373
M204 S800
G1 F1200
G1 X50.501 Y130.139 E.02454
G1 X79.699 Y130.142 E.91548
G1 X80.303 Y130.266 E.01933
M73 P9 R11
G1 X80.912 Y130.539 E.02093
G1 X81.605 Y131.124 E.02844
G1 X82.099 Y131.895 E.02871
G1 X82.332 Y132.769 E.02836
G1 X82.332 Y161.965 E.91542
G1 X82.098 Y162.841 E.02843
G1 X81.61 Y163.606 E.02845
G1 X81.171 Y164.013 E.01877
G1 X80.841 Y164.24 E.01256
G1 X79.707 Y164.595 E.03726
G1 X50.506 Y164.595 E.91558
G1 X49.63 Y164.361 E.02843
G1 X48.865 Y163.872 E.02847
G1 X48.458 Y163.433 E.01877
G1 X48.231 Y163.103 E.01256
G1 X47.876 Y161.97 E.03723
G1 X47.876 Y132.769 E.91558
G1 X48.11 Y131.892 E.02846
G1 X48.599 Y131.127 E.02847
G1 X49.368 Y130.494 E.03123
G1 X49.697 Y130.391 E.01081
M204 S1000
G1 X49.697 Y130.391 F10800
G1 X49.807 Y130.742
M204 S800
G1 F1200
G1 X50.53 Y130.516 E.02375
G1 X79.679 Y130.519 E.91395
G1 X80.203 Y130.631 E.0168
M73 P10 R11
M73 Q10 S11
G1 X80.731 Y130.87 E.01817
G1 X81.338 Y131.391 E.02508
G1 X81.743 Y132.022 E.02351
G1 X81.955 Y132.795 E.02513
G1 X81.955 Y161.939 E.91379
G1 X81.743 Y162.713 E.02516
G1 X81.336 Y163.346 E.0236
G1 X80.652 Y163.912 E.02784
G1 X79.678 Y164.218 E.03201
G1 X50.532 Y164.218 E.91385
G1 X49.758 Y164.005 E.02517
G1 X49.125 Y163.599 E.02358
G1 X48.558 Y162.914 E.02788
G1 X48.253 Y161.941 E.03197
G1 X48.253 Y132.795 E.91385
G1 X48.466 Y132.02 E.0252
G1 X48.872 Y131.388 E.02355
G1 X49.556 Y130.821 E.02786
G1 X49.75 Y130.76 E.00638
M204 S1000
G1 X49.75 Y130.76 F10800
G1 X49.861 Y131.112
M204 S800
G1 F1200
G1 X50.559 Y130.893 E.02294
G1 X79.657 Y130.896 E.91235
G1 X80.101 Y130.994 E.01426
G1 X80.547 Y131.201 E.01542
G1 X81.07 Y131.657 E.02176
G1 X81.389 Y132.153 E.01849
G1 X81.578 Y132.822 E.0218
G1 X81.578 Y161.912 E.9121
G1 X81.388 Y162.582 E.02184
M73 P11 R11
M73 Q11 S11
G1 X81.063 Y163.085 E.01878
G1 X80.464 Y163.584 E.02444
G1 X79.65 Y163.841 E.02676
G1 X50.559 Y163.841 E.91213
G1 X49.889 Y163.651 E.02184
G1 X49.386 Y163.325 E.01879
G1 X48.887 Y162.727 E.02442
G1 X48.63 Y161.912 E.02679
G1 X48.63 Y132.822 E.9121
G1 X48.82 Y132.151 E.02187
G1 X49.146 Y131.649 E.01877
G1 X49.744 Y131.149 E.02444
G1 X49.803 Y131.13 E.00194
M204 S1000
G1 X49.803 Y131.13 F10800
G1 X49.929 Y131.478
M204 S800
G1 F1200
G1 X50.588 Y131.27 E.02167
G1 X79.635 Y131.273 E.91075
G1 X80.36 Y131.529 E.02411
G1 X80.8 Y131.921 E.01848
G1 X81.035 Y132.286 E.01361
G1 X81.201 Y132.85 E.01843
G1 X81.201 Y161.884 E.91034
G1 X81.035 Y162.448 E.01843
M73 P12 R11
M73 Q12 S11
G1 X80.79 Y162.824 E.01407
G1 X80.279 Y163.255 E.02096
G1 X79.62 Y163.464 E.02168
G1 X50.587 Y163.464 E.91031
G1 X50.023 Y163.297 E.01844
G1 X49.647 Y163.052 E.01407
G1 X49.216 Y162.542 E.02094
G1 X49.007 Y161.883 E.02168
G1 X49.007 Y132.85 E.91031
G1 X49.173 Y132.285 E.01846
M73 P12 R10
G1 X49.419 Y131.91 E.01406
G1 X49.883 Y131.517 E.01907
M204 S1000
G1 X49.883 Y131.517 F10800
G1 X50.111 Y131.809
M204 S800
G1 F1200
G1 X50.618 Y131.647 E.01669
G1 X79.613 Y131.651 E.90912
G1 X80.172 Y131.857 E.01868
M73 Q12 S10
G1 X80.527 Y132.182 E.01509
G1 X80.824 Y132.879 E.02376
G1 X80.824 Y161.854 E.90849
G1 X80.683 Y162.31 E.01497
G1 X80.517 Y162.562 E.00946
G1 X80.097 Y162.924 E.01739
G1 X79.591 Y163.086 E.01666
G1 X50.617 Y163.086 E.90846
G1 X50.161 Y162.946 E.01496
M73 P13 R10
M73 Q13 S10
G1 X49.909 Y162.78 E.00946
G1 X49.547 Y162.36 E.01739
G1 X49.384 Y161.853 E.0167
G1 X49.384 Y132.879 E.90846
G1 X49.525 Y132.424 E.01494
G1 X49.691 Y132.171 E.00949
G1 X50.066 Y131.848 E.01552
M204 S1000
G1 X50.066 Y131.848 F10800
G1 X50.287 Y132.143
M204 S800
G1 F1200
G1 X50.648 Y132.024 E.01192
G1 X79.591 Y132.028 E.90749
G1 X79.982 Y132.185 E.01321
G1 X80.251 Y132.439 E.0116
G1 X80.447 Y132.911 E.01602
G1 X80.447 Y161.823 E.90652
G1 X80.245 Y162.301 E.01627
G1 X79.921 Y162.59 E.01361
G1 X79.56 Y162.709 E.01192
G1 X50.648 Y162.709 E.90652
G1 X50.17 Y162.507 E.01627
G1 X49.881 Y162.184 E.01359
G1 X49.761 Y161.823 E.01193
G1 X49.761 Y132.911 E.90652
G1 X49.964 Y132.433 E.01628
M73 P14 R10
M73 Q14 S10
G1 X50.242 Y132.183 E.01172
M204 S1000
G1 X50.242 Y132.183 F10800
G1 X50.47 Y132.477
M204 S800
G1 F1200
G1 X50.683 Y132.401 E.00709
G1 X79.539 Y132.401 E.90476
G1 X79.97 Y132.691 E.01629
G1 X80.07 Y132.946 E.00859
G1 X80.07 Y161.788 E.90432
G1 X79.972 Y162.039 E.00845
G1 X79.738 Y162.256 E.01001
G1 X79.525 Y162.332 E.00709
G1 X50.683 Y162.332 E.90432
G1 X50.432 Y162.235 E.00844
G1 X50.215 Y162 E.01003
G1 X50.139 Y161.788 E.00706
G1 X50.139 Y132.946 E.90432
G1 X50.236 Y132.695 E.00844
G1 X50.426 Y132.518 E.00814
M204 S1000
G1 X50.426 Y132.518 F10800
G1 X50.665 Y132.825
M204 S800
G1 F1200
G1 X50.725 Y132.778 E.00239
G1 X79.552 Y132.807 E.90385
G1 X79.693 Y132.988 E.00719
M73 P15 R10
M73 Q15 S10
G1 X79.664 Y161.815 E.90385
G1 X79.483 Y161.955 E.00717
G1 X50.656 Y161.927 E.90385
G1 X50.516 Y161.746 E.00717
G1 X50.544 Y132.918 E.90388
G1 X50.617 Y132.862 E.00288
M204 S1000
;WIPE_START
G1 F8640
G1 X50.665 Y132.825 E-.01399
G1 X50.725 Y132.778 E-.0176
G1 X54.053 Y132.781 E-.76841
;WIPE_END
G1 Z.6 F720
; printing object PennyHolderII v3.stl id:0 copy 0
G1 X75.379 Y148.847 F10800
G1 Z.2 F720
G1 E.8 F2100
M204 S800
;TYPE:Perimeter
;WIDTH:0.419999
G1 F1200
G1 X75.241 Y149.606 E.02419
G1 X74.989 Y150.557 E.03085
G1 X74.732 Y151.264 E.02359
G1 X74.424 Y151.95 E.02358
G1 X74.067 Y152.613 E.02361
G1 X73.664 Y153.248 E.02358
G1 X73.216 Y153.851 E.02355
G1 X72.724 Y154.421 E.02361
G1 X72.193 Y154.954 E.02359
G1 X71.625 Y155.447 E.02358
G1 X71.023 Y155.898 E.02358
G1 X70.389 Y156.303 E.02359
G1 X69.728 Y156.662 E.02358
G1 X69.043 Y156.972 E.02357
G1 X68.336 Y157.231 E.02361
G1 X67.613 Y157.439 E.02359
G1 X66.877 Y157.594 E.02358
G1 X66.588 Y157.634 E.00915
G1 X66.274 Y158.388 E.02561
G1 X66.149 Y158.573 E.007
G1 X65.85 Y158.728 E.01056
G1 X64.457 Y158.736 E.04368
G1 X64.234 Y158.69 E.00714
G1 X64.059 Y158.573 E.0066
G1 X63.934 Y158.388 E.007
G1 X63.619 Y157.631 E.02571
G1 X62.849 Y157.489 E.02455
G1 X61.914 Y157.239 E.03035
G1 X61.208 Y156.982 E.02356
G1 X60.523 Y156.675 E.02354
G1 X59.862 Y156.319 E.02354
G1 X59.229 Y155.916 E.02353
G1 X58.626 Y155.468 E.02355
G1 X58.058 Y154.978 E.02352
G1 X57.526 Y154.448 E.02355
G1 X57.034 Y153.881 E.02354
G1 X56.584 Y153.279 E.02357
G1 X56.179 Y152.647 E.02354
G1 X55.821 Y151.988 E.02351
G1 X55.511 Y151.304 E.02355
G1 X55.251 Y150.599 E.02356
G1 X55.043 Y149.878 E.02353
G1 X54.888 Y149.143 E.02355
G1 X54.848 Y148.855 E.00912
G1 X54.083 Y148.536 E.02599
G1 X53.899 Y148.413 E.00694
G1 X53.743 Y148.112 E.01063
G1 X53.735 Y146.719 E.04368
G1 X53.781 Y146.496 E.00714
G1 X53.899 Y146.321 E.00662
G1 X54.083 Y146.197 E.00696
G1 X54.848 Y145.878 E.02599
G1 X54.991 Y145.099 E.02483
G1 X55.239 Y144.173 E.03006
G1 X55.495 Y143.467 E.02355
G1 X55.802 Y142.782 E.02354
G1 X56.158 Y142.121 E.02354
G1 X56.561 Y141.488 E.02353
G1 X57.008 Y140.885 E.02353
G1 X57.498 Y140.316 E.02354
M73 Q16 S10
G1 X58.028 Y139.784 E.02355
M73 P16 R10
G1 X58.595 Y139.291 E.02356
G1 X59.195 Y138.841 E.02352
G1 X59.827 Y138.436 E.02354
G1 X60.487 Y138.077 E.02356
G1 X61.17 Y137.767 E.02352
G1 X61.875 Y137.507 E.02356
G1 X62.596 Y137.299 E.02353
G1 X63.331 Y137.143 E.02356
G1 X63.619 Y137.102 E.00912
G1 X63.934 Y136.345 E.02571
G1 X64.059 Y136.161 E.00697
G1 X64.359 Y136.006 E.01059
G1 X65.752 Y135.997 E.04368
G1 X65.974 Y136.043 E.00711
G1 X66.149 Y136.16 E.0066
G1 X66.274 Y136.345 E.007
G1 X66.588 Y137.1 E.02564
G1 X67.356 Y137.239 E.02447
G1 X68.297 Y137.489 E.03053
G1 X69.005 Y137.746 E.02362
G1 X69.691 Y138.053 E.02356
G1 X70.354 Y138.409 E.0236
G1 X70.989 Y138.812 E.02358
G1 X71.593 Y139.261 E.0236
G1 X72.163 Y139.751 E.02357
G1 X72.697 Y140.282 E.02361
G1 X73.19 Y140.85 E.02358
G1 X73.641 Y141.452 E.02358
G1 X74.047 Y142.085 E.02358
G1 X74.406 Y142.746 E.02358
G1 X74.716 Y143.432 E.0236
G1 X74.976 Y144.138 E.02359
G1 X75.184 Y144.861 E.02359
G1 X75.339 Y145.597 E.02358
G1 X75.379 Y145.886 E.00915
G1 X76.125 Y146.197 E.02534
G1 X76.312 Y146.323 E.00707
G1 X76.428 Y146.497 E.00656
G1 X76.473 Y146.719 E.0071
G1 X76.473 Y148.014 E.0406
G1 X76.428 Y148.236 E.0071
G1 X76.312 Y148.41 E.00656
G1 X76.125 Y148.536 E.00707
G1 X75.435 Y148.824 E.02344
M204 S1000
G1 X75.435 Y148.824 F10800
G1 X75.034 Y148.583
M204 S800
;TYPE:External perimeter
G1 F1200
G1 X74.872 Y149.529 E.03009
G1 X74.626 Y150.453 E.02998
G1 X74.377 Y151.134 E.02273
G1 X74.08 Y151.795 E.02272
G1 X73.736 Y152.433 E.02273
G1 X73.346 Y153.045 E.02275
G1 X72.913 Y153.626 E.02272
G1 X72.439 Y154.175 E.02274
G1 X71.927 Y154.688 E.02273
G1 X71.379 Y155.162 E.02272
G1 X70.798 Y155.595 E.02272
G1 X70.187 Y155.985 E.02273
G1 X69.549 Y156.33 E.02274
G1 X68.888 Y156.628 E.02273
G1 X68.207 Y156.877 E.02273
G1 X67.51 Y157.076 E.02273
G1 X66.8 Y157.224 E.02274
G1 X66.323 Y157.289 E.01509
G1 X65.926 Y158.243 E.0324
G1 X65.826 Y158.344 E.00446
G1 X65.752 Y158.359 E.00237
G1 X64.457 Y158.359 E.0406
G1 X64.324 Y158.305 E.0045
G1 X63.884 Y157.286 E.0348
G1 X62.926 Y157.12 E.03048
G1 X62.018 Y156.877 E.02947
G1 X61.338 Y156.628 E.02271
G1 X60.678 Y156.331 E.02269
G1 X60.042 Y155.987 E.02267
G1 X59.432 Y155.598 E.02268
G1 X58.852 Y155.166 E.02268
G1 X58.304 Y154.692 E.02272
G1 X57.793 Y154.181 E.02266
G1 X57.319 Y153.634 E.02269
G1 X56.886 Y153.054 E.02269
G1 X56.497 Y152.445 E.02266
G1 X56.152 Y151.808 E.02271
G1 X55.855 Y151.149 E.02266
G1 X55.605 Y150.47 E.02269
G1 X55.406 Y149.774 E.0227
G1 X55.257 Y149.066 E.02269
G1 X55.193 Y148.59 E.01506
G1 X54.228 Y148.188 E.03278
G1 X54.127 Y148.089 E.00443
G1 X54.112 Y148.014 E.0024
G1 X54.112 Y146.719 E.0406
G1 X54.167 Y146.586 E.00451
G1 X55.193 Y146.143 E.03504
G1 X55.36 Y145.177 E.03074
G1 X55.601 Y144.277 E.02921
