; generated by PrusaSlicer 2.9.0 on 2025-01-02 at 17:15:49 UTC


;
;
; 

; external perimeters extrusion width = 0.45mm
; perimeters extrusion width = 0.45mm
; infill extrusion width = 0.45mm
; solid infill extrusion width = 0.45mm
; top infill extrusion width = 0.40mm
; first layer extrusion width = 0.42mm

M73 P0 R12
M73 Q0 S12
M201 X1000 Y1000 Z200 E8000 ; sets maximum accelerations, mm/sec^2
M203 X200 Y200 Z12 E120 ; sets maximum feedrates, mm / sec
M204 S1250 T1250 ; sets acceleration (S) and retract acceleration (R), mm/sec^2
M205 X8.00 Y8.00 Z0.40 E4.50 ; sets the jerk limits, mm/sec
M205 S0 T0 ; sets the minimum extruding and travel feed rate, mm/sec

; printing object PennyHolderII v3.stl id:0 copy 0
; stop printing object PennyHolderII v3.stl id:0 copy 0

;TYPE:Custom
M862.3 P "MK3SMMU3" ; printer model check
M862.1 P0.4 ; nozzle diameter check
M115 U3.14.1 ; tell printer latest fw version
G90 ; use absolute coordinates
M83 ; extruder relative mode
M104 S215 ; set extruder temp
M140 S60 ; set bed temp
M190 S60 ; wait for bed temp
M109 S215 ; wait for extruder temp
G28 W ; home all without mesh bed level
G80 X162.427 Y125.777 W43.5542 H43.5542 ; mesh bed levelling

; Send the filament type to the MMU unit.
; E stands for extruder number, F stands for filament type (0: default; 1:flex; 2: PVA)
M403 E0 F0
M403 E1 F0
M403 E2 F0
M403 E3 F0
M403 E4 F0


;go outside print area
G1 Y-3 F1000
G1 Z0.4 F1000
; select extruder
T0
; initial load
G1 X55 E29 F1073
G1 X5 E29 F1800
G1 X55 E8 F2000
G1 Z0.3 F1000
G92 E0
G1 X240 E25 F2200
G1 Y-2 F1000
M73 P1 R12
M73 Q1 S12
G1 X55 E25 F1400
G1 Z0.2 F1000
M73 P2 R12
M73 Q2 S12
G1 X5 E4 F1000
G92 E0


M221 S95
G92 E0

; Don't change E values below. Excessive value can damage the printer.
M907 E430 ; set extruder motor current
G21 ; set units to millimeters
G90 ; use absolute coordinates
M83 ; use relative distances for extrusion

M900 K0.05 ; Filament gcode LA 1.5
M900 K30 ; Filament gcode LA 1.0




M107
;LAYER_CHANGE
;Z:0.2
;HEIGHT:0.2
G1 E-.8 F2100
M73 P3 R12
M73 Q3 S12
G1 Z.6 F720
G1 X163.257 Y129.594 F10800
G1 Z.2 F720
G1 E.8 F2100
M204 S800
;TYPE:Skirt/Brim
;WIDTH:0.42
G1 F1200
G1 X166.244 Y126.607 E.13245
G1 X167.792 Y125.966 E.05253
G1 X200.617 Y125.966 E1.0292
G1 X202.164 Y126.607 E.0525
G1 X205.152 Y129.594 E.13247
G1 X205.793 Y131.142 E.05253
G1 X205.793 Y163.967 E1.0292
G1 X205.152 Y165.515 E.05253
G1 X202.164 Y168.502 E.13247
G1 X200.617 Y169.143 E.0525
G1 X167.792 Y169.143 E1.0292
G1 X166.244 Y168.502 E.05253
M73 P4 R12
M73 Q4 S12
G1 X163.257 Y165.515 E.13245
G1 X162.616 Y163.967 E.05253
G1 X162.616 Y131.142 E1.0292
G1 X163.234 Y129.65 E.05063
M204 S1000
;WIPE_START
G1 F8640
G1 X163.257 Y129.594 E-.01398
G1 X165.664 Y127.187 E-.78602
;WIPE_END
G1 Z.6 F720
G1 X165.591 Y131.163 F10800
G1 Z.2 F720
G1 E.8 F2100
M204 S800
G1 F1200
G1 X166.33 Y130.014 E.04283
G1 X167.509 Y129.052 E.04771
G1 X169.458 Y128.441 E.06404
G1 X198.894 Y128.445 E.92295
G1 X199.914 Y128.639 E.03255
M73 P4 R11
G1 X200.892 Y129.054 E.03331
G1 X202.017 Y129.95 E.04509
G1 X202.91 Y131.288 E.05044
G1 X203.318 Y132.833 E.0501
G1 X203.318 Y162.274 E.9231
G1 X202.937 Y163.759 E.04807
M73 Q4 S11
G1 X202.079 Y165.095 E.04978
G1 X200.9 Y166.057 E.04771
G1 X198.951 Y166.668 E.06404
G1 X169.485 Y166.668 E.92389
G1 X168 Y166.287 E.04807
M73 P5 R11
M73 Q5 S11
G1 X166.664 Y165.429 E.04978
G1 X165.702 Y164.25 E.04771
G1 X165.091 Y162.301 E.06404
G1 X165.091 Y132.835 E.92389
G1 X165.472 Y131.35 E.04807
G1 X165.559 Y131.214 E.00506
M204 S1000
G1 X165.559 Y131.214 F10800
G1 X165.868 Y131.413
M204 S800
G1 F1200
G1 X166.603 Y130.274 E.0425
G1 X167.702 Y129.377 E.04448
G1 X169.487 Y128.818 E.05865
G1 X198.876 Y128.822 E.92147
G1 X199.822 Y129.005 E.03021
G1 X200.719 Y129.39 E.03061
G1 X201.758 Y130.226 E.04181
G1 X202.554 Y131.416 E.04489
G1 X202.941 Y132.858 E.04681
G1 X202.941 Y162.25 E.92157
G1 X202.58 Y163.634 E.04485
G1 X201.806 Y164.835 E.0448
G1 X201.257 Y165.344 E.02347
G1 X200.707 Y165.732 E.0211
G1 X198.922 Y166.291 E.05865
G1 X169.509 Y166.291 E.92222
G1 X168.125 Y165.93 E.04485
M73 P6 R11
M73 Q6 S11
G1 X166.924 Y165.156 E.0448
G1 X166.415 Y164.607 E.02347
G1 X166.027 Y164.057 E.0211
G1 X165.468 Y162.272 E.05865
G1 X165.468 Y132.859 E.92222
G1 X165.829 Y131.475 E.04485
G1 X165.836 Y131.464 E.00041
M204 S1000
G1 X165.836 Y131.464 F10800
G1 X166.163 Y131.652
M204 S800
G1 F1200
G1 X166.877 Y130.534 E.04159
G1 X167.895 Y129.703 E.0412
G1 X169.516 Y129.195 E.05326
G1 X198.857 Y129.199 E.91997
G1 X199.728 Y129.371 E.02784
G1 X200.545 Y129.725 E.02792
G1 X201.497 Y130.499 E.03847
G1 X202.222 Y131.598 E.04128
G1 X202.564 Y132.883 E.04169
G1 X202.564 Y162.226 E.92003
G1 X202.246 Y163.457 E.03986
G1 X201.532 Y164.575 E.04159
G1 X200.514 Y165.407 E.04122
G1 X198.894 Y165.914 E.05322
G1 X169.533 Y165.914 E.92059
G1 X168.302 Y165.596 E.03986
G1 X167.184 Y164.882 E.04159
G1 X166.352 Y163.864 E.04122
G1 X165.845 Y162.244 E.05322
M73 Q7 S11
G1 X165.845 Y132.883 E.92059
G1 X166.148 Y131.71 E.03799
M73 P7 R11
M204 S1000
G1 X166.148 Y131.71 F10800
G1 X166.512 Y131.806
M204 S800
G1 F1200
G1 X166.52 Y131.777 E.00094
G1 X167.151 Y130.795 E.0366
G1 X168.087 Y130.028 E.03794
G1 X169.544 Y129.572 E.04787
G1 X198.838 Y129.576 E.91849
G1 X199.633 Y129.736 E.02543
G1 X200.368 Y130.059 E.02517
G1 X201.235 Y130.771 E.03518
G1 X201.889 Y131.777 E.03762
G1 X202.187 Y132.907 E.03664
G1 X202.187 Y162.202 E.91852
G1 X201.889 Y163.332 E.03664
G1 X201.258 Y164.314 E.0366
G1 X200.763 Y164.773 E.02117
G1 X200.322 Y165.081 E.01687
G1 X198.865 Y165.537 E.04787
G1 X169.557 Y165.537 E.91893
G1 X168.427 Y165.239 E.03664
G1 X167.445 Y164.608 E.0366
G1 X166.986 Y164.113 E.02117
G1 X166.678 Y163.672 E.01687
G1 X166.222 Y162.215 E.04787
G1 X166.222 Y132.908 E.9189
G1 X166.497 Y131.864 E.03385
M73 P8 R11
M73 Q8 S11
M204 S1000
G1 X166.497 Y131.864 F10800
G1 X166.853 Y131.957
M204 S800
G1 F1200
G1 X166.854 Y131.954 E.0001
G1 X167.425 Y131.055 E.03339
G1 X168.278 Y130.355 E.0346
G1 X169.573 Y129.949 E.04255
G1 X198.819 Y129.953 E.91699
G1 X199.5 Y130.089 E.02177
G1 X200.192 Y130.394 E.02371
G1 X200.971 Y131.043 E.03179
G1 X201.533 Y131.904 E.03224
G1 X201.81 Y132.932 E.03338
G1 X201.81 Y162.178 E.91699
G1 X201.555 Y163.155 E.03166
G1 X200.984 Y164.054 E.03339
G1 X200.131 Y164.754 E.0346
G1 X198.836 Y165.16 E.04255
G1 X169.581 Y165.16 E.91727
G1 X168.604 Y164.905 E.03166
G1 X167.705 Y164.334 E.03339
G1 X167.005 Y163.481 E.0346
G1 X166.599 Y162.186 E.04255
G1 X166.599 Y132.931 E.91727
G1 X166.838 Y132.015 E.02968
M73 P9 R11
M73 Q9 S11
M204 S1000
G1 X166.838 Y132.015 F10800
G1 X167.202 Y132.112
M204 S800
G1 F1200
G1 X167.21 Y132.08 E.00103
G1 X167.699 Y131.315 E.02847
G1 X168.468 Y130.681 E.03125
G1 X169.602 Y130.326 E.03726
G1 X198.799 Y130.33 E.91545
G1 X199.403 Y130.454 E.01933
G1 X200.013 Y130.727 E.02095
G1 X200.706 Y131.312 E.02844
G1 X201.199 Y132.082 E.02867
G1 X201.433 Y132.957 E.0284
G1 X201.433 Y162.153 E.91542
G1 X201.199 Y163.029 E.02843
G1 X200.71 Y163.794 E.02847
G1 X200.271 Y164.201 E.01877
G1 X199.941 Y164.428 E.01256
G1 X198.808 Y164.783 E.03723
G1 X169.606 Y164.783 E.91561
G1 X168.73 Y164.549 E.02843
G1 X167.965 Y164.06 E.02847
G1 X167.558 Y163.621 E.01877
G1 X167.331 Y163.291 E.01256
G1 X166.976 Y162.158 E.03723
G1 X166.976 Y132.956 E.91561
G1 X167.186 Y132.17 E.02551
M204 S1000
G1 X167.186 Y132.17 F10800
G1 X167.549 Y132.269
M204 S800
G1 F1200
G1 X167.566 Y132.208 E.00199
G1 X167.973 Y131.576 E.02357
G1 X168.657 Y131.009 E.02786
G1 X169.63 Y130.703 E.03198
G1 X198.779 Y130.707 E.91395
G1 X199.304 Y130.819 E.01683
M73 P10 R11
M73 Q10 S11
G1 X199.831 Y131.058 E.01814
G1 X200.439 Y131.579 E.02511
G1 X200.844 Y132.21 E.02351
G1 X201.055 Y132.982 E.02509
G1 X201.055 Y162.127 E.91382
G1 X200.843 Y162.901 E.02516
G1 X200.436 Y163.533 E.02357
G1 X199.752 Y164.1 E.02786
G1 X198.779 Y164.406 E.03198
G1 X169.632 Y164.406 E.91388
G1 X168.858 Y164.193 E.02517
G1 X168.226 Y163.786 E.02357
G1 X167.659 Y163.102 E.02786
G1 X167.353 Y162.129 E.03198
G1 X167.353 Y132.982 E.91388
G1 X167.533 Y132.327 E.0213
M204 S1000
G1 X167.533 Y132.327 F10800
G1 X167.895 Y132.43
M204 S800
G1 F1200
G1 X167.92 Y132.339 E.00296
G1 X168.246 Y131.836 E.01879
G1 X168.844 Y131.337 E.02442
G1 X169.659 Y131.081 E.02678
G1 X198.758 Y131.084 E.91238
G1 X199.201 Y131.182 E.01423
G1 X199.647 Y131.388 E.0154
G1 X200.17 Y131.845 E.02178
M73 Q11 S11
G1 X200.489 Y132.341 E.01849
G1 X200.678 Y133.009 E.02177
G1 X200.678 Y162.1 E.91213
M73 P11 R11
G1 X200.488 Y162.77 E.02184
G1 X200.163 Y163.273 E.01878
G1 X199.565 Y163.772 E.02442
G1 X198.75 Y164.028 E.02678
G1 X169.659 Y164.028 E.91213
G1 X168.989 Y163.839 E.02183
G1 X168.486 Y163.513 E.01879
G1 X167.987 Y162.915 E.02442
G1 X167.731 Y162.1 E.02678
G1 X167.731 Y133.009 E.91213
G1 X167.878 Y132.487 E.017
M204 S1000
G1 X167.878 Y132.487 F10800
G1 X168.238 Y132.593
M204 S800
G1 F1200
G1 X168.274 Y132.473 E.00393
G1 X168.519 Y132.098 E.01404
G1 X169.029 Y131.666 E.02096
G1 X169.688 Y131.458 E.02167
G1 X198.735 Y131.461 E.91075
G1 X199.46 Y131.717 E.02411
G1 X199.9 Y132.109 E.01848
G1 X200.135 Y132.474 E.01361
G1 X200.301 Y133.037 E.0184
G1 X200.301 Y162.072 E.91037
G1 X200.135 Y162.636 E.01843
M73 P12 R11
M73 Q12 S11
G1 X199.89 Y163.012 E.01407
G1 X199.38 Y163.443 E.02094
G1 X198.721 Y163.651 E.02167
G1 X169.687 Y163.651 E.91034
G1 X169.123 Y163.485 E.01843
G1 X168.747 Y163.24 E.01407
G1 X168.316 Y162.73 E.02094
G1 X168.108 Y162.071 E.02167
G1 X168.108 Y133.037 E.91034
G1 X168.221 Y132.651 E.01261
M73 P12 R10
M204 S1000
G1 X168.221 Y132.651 F10800
G1 X168.579 Y132.761
M204 S800
G1 F1200
G1 X168.625 Y132.611 E.00492
G1 X168.792 Y132.359 E.00948
G1 X169.211 Y131.997 E.01736
G1 X169.718 Y131.835 E.01669
G1 X198.714 Y131.838 E.90915
G1 X199.272 Y132.045 E.01866
G1 X199.627 Y132.37 E.01509
G1 X199.924 Y133.067 E.02376
G1 X199.924 Y162.042 E.90849
G1 X199.784 Y162.498 E.01496
M73 Q12 S10
G1 X199.617 Y162.75 E.00948
G1 X199.197 Y163.112 E.01739
G1 X198.691 Y163.274 E.01666
G1 X169.717 Y163.274 E.90846
G1 X169.261 Y163.134 E.01496
M73 P13 R10
M73 Q13 S10
G1 X169.009 Y162.967 E.00948
G1 X168.647 Y162.548 E.01736
G1 X168.485 Y162.041 E.01669
G1 X168.485 Y133.067 E.90846
G1 X168.561 Y132.819 E.00813
M204 S1000
G1 X168.561 Y132.819 F10800
G1 X168.917 Y132.969
M204 S800
G1 F1200
G1 X169.064 Y132.621 E.01184
G1 X169.387 Y132.331 E.01361
G1 X169.749 Y132.212 E.01195
G1 X198.692 Y132.215 E.90749
G1 X199.083 Y132.372 E.01321
G1 X199.351 Y132.627 E.0116
G1 X199.547 Y133.099 E.01602
G1 X199.547 Y162.01 E.90648
G1 X199.345 Y162.488 E.01627
G1 X199.022 Y162.778 E.01361
G1 X198.66 Y162.897 E.01195
G1 X169.749 Y162.897 E.90648
G1 X169.271 Y162.695 E.01627
G1 X168.981 Y162.372 E.01361
G1 X168.862 Y162.01 E.01195
G1 X168.862 Y133.099 E.90648
G1 X168.893 Y133.024 E.00254
M73 P14 R10
M73 Q14 S10
M204 S1000
G1 X168.893 Y133.024 F10800
G1 X169.239 Y133.134
M204 S800
G1 F1200
G1 X169.336 Y132.882 E.00847
G1 X169.571 Y132.665 E.01003
G1 X169.784 Y132.589 E.00709
G1 X198.639 Y132.589 E.90473
G1 X199.071 Y132.879 E.01631
G1 X199.17 Y133.134 E.00858
G1 X199.17 Y161.975 E.90429
G1 X199.073 Y162.227 E.00847
G1 X198.838 Y162.444 E.01003
G1 X198.625 Y162.52 E.00709
G1 X169.784 Y162.52 E.90429
G1 X169.532 Y162.423 E.00847
G1 X169.315 Y162.188 E.01003
G1 X169.239 Y161.975 E.00709
G1 X169.239 Y133.194 E.90241
M204 S1000
G1 X169.239 Y133.194 F10800
G1 X169.645 Y133.194
M204 S800
G1 F1200
G1 X169.645 Y133.106 E.00276
G1 X169.826 Y132.966 E.00717
G1 X198.653 Y132.995 E.90385
G1 X198.793 Y133.176 E.00717
M73 P15 R10
M73 Q15 S10
G1 X198.764 Y162.003 E.90385
G1 X198.583 Y162.143 E.00717
G1 X169.756 Y162.114 E.90385
G1 X169.616 Y161.933 E.00717
G1 X169.644 Y133.254 E.89921
M204 S1000
;WIPE_START
G1 F8640
G1 X169.645 Y133.194 E-.01386
G1 X169.645 Y133.106 E-.02032
G1 X169.826 Y132.966 E-.05284
G1 X172.914 Y132.969 E-.71298
;WIPE_END
G1 Z.6 F720
; printing object PennyHolderII v3.stl id:0 copy 0
G1 X194.48 Y149.035 F10800
G1 Z.2 F720
G1 E.8 F2100
M204 S800
;TYPE:Perimeter
;WIDTH:0.419999
G1 F1200
G1 X194.341 Y149.794 E.02419
G1 X194.089 Y150.745 E.03085
G1 X193.832 Y151.452 E.02359
G1 X193.524 Y152.138 E.02358
G1 X193.168 Y152.8 E.02357
G1 X192.764 Y153.435 E.0236
G1 X192.316 Y154.039 E.02358
G1 X191.825 Y154.609 E.02359
G1 X191.294 Y155.142 E.02359
G1 X190.726 Y155.635 E.02358
G1 X190.123 Y156.086 E.02361
G1 X189.49 Y156.491 E.02356
G1 X188.828 Y156.85 E.02361
G1 X188.143 Y157.16 E.02357
G1 X187.437 Y157.419 E.02358
G1 X186.714 Y157.627 E.02359
G1 X185.978 Y157.781 E.02358
G1 X185.689 Y157.822 E.00915
G1 X185.374 Y158.576 E.02562
G1 X185.249 Y158.761 E.007
G1 X184.95 Y158.915 E.01055
G1 X183.557 Y158.924 E.04368
G1 X183.334 Y158.878 E.00714
G1 X183.159 Y158.761 E.0066
G1 X183.035 Y158.576 E.00698
G1 X182.719 Y157.819 E.02572
G1 X181.949 Y157.677 E.02455
G1 X181.014 Y157.427 E.03035
G1 X180.309 Y157.17 E.02353
G1 X179.624 Y156.862 E.02355
G1 X178.963 Y156.506 E.02354
G1 X178.329 Y156.103 E.02355
G1 X177.727 Y155.656 E.02351
G1 X177.158 Y155.165 E.02356
G1 X176.626 Y154.635 E.02355
G1 X176.134 Y154.068 E.02354
G1 X175.684 Y153.467 E.02354
G1 X175.279 Y152.835 E.02354
G1 X174.921 Y152.176 E.02351
G1 X174.611 Y151.492 E.02355
G1 X174.352 Y150.787 E.02355
G1 X174.144 Y150.066 E.02353
G1 X173.989 Y149.331 E.02355
G1 X173.948 Y149.043 E.00912
G1 X173.183 Y148.724 E.02599
G1 X172.999 Y148.601 E.00694
G1 X172.844 Y148.3 E.01062
G1 X172.835 Y146.907 E.04368
G1 X172.881 Y146.683 E.00717
G1 X172.999 Y146.508 E.00662
G1 X173.183 Y146.385 E.00694
G1 X173.948 Y146.066 E.02599
G1 X174.091 Y145.287 E.02483
G1 X174.339 Y144.361 E.03006
G1 X174.596 Y143.655 E.02356
G1 X174.903 Y142.97 E.02354
M73 P16 R10
M73 Q16 S10
G1 X175.259 Y142.309 E.02354
G1 X175.661 Y141.675 E.02354
G1 X176.109 Y141.072 E.02355
G1 X176.598 Y140.504 E.0235
G1 X177.128 Y139.971 E.02357
G1 X177.695 Y139.479 E.02354
G1 X178.296 Y139.029 E.02354
G1 X178.928 Y138.623 E.02355
G1 X179.587 Y138.265 E.02351
G1 X180.271 Y137.955 E.02355
G1 X180.975 Y137.695 E.02353
G1 X181.696 Y137.486 E.02354
G1 X182.431 Y137.331 E.02355
G1 X182.719 Y137.29 E.00912
G1 X183.035 Y136.533 E.02572
G1 X183.159 Y136.348 E.00698
G1 X183.459 Y136.194 E.01057
G1 X184.852 Y136.185 E.04368
G1 X185.075 Y136.231 E.00714
G1 X185.249 Y136.348 E.00657
G1 X185.374 Y136.533 E.007
G1 X185.689 Y137.287 E.02562
G1 X186.456 Y137.427 E.02445
G1 X187.398 Y137.677 E.03056
G1 X188.105 Y137.934 E.02359
G1 X188.792 Y138.241 E.02359
G1 X189.454 Y138.597 E.02357
G1 X190.089 Y139 E.02358
G1 X190.694 Y139.448 E.0236
G1 X191.264 Y139.939 E.02359
G1 X191.797 Y140.47 E.02359
G1 X192.29 Y141.038 E.02358
G1 X192.741 Y141.64 E.02358
G1 X193.147 Y142.273 E.02358
G1 X193.506 Y142.934 E.02358
G1 X193.816 Y143.62 E.0236
G1 X194.076 Y144.326 E.02359
G1 X194.284 Y145.048 E.02356
G1 X194.439 Y145.785 E.02361
G1 X194.48 Y146.074 E.00915
G1 X195.226 Y146.385 E.02534
G1 X195.412 Y146.511 E.00704
G1 X195.529 Y146.685 E.00657
G1 X195.574 Y146.907 E.0071
G1 X195.574 Y148.202 E.0406
G1 X195.529 Y148.424 E.0071
G1 X195.412 Y148.598 E.00657
G1 X195.226 Y148.724 E.00704
G1 X194.535 Y149.012 E.02347
M204 S1000
G1 X194.535 Y149.012 F10800
G1 X194.135 Y148.77
M204 S800
;TYPE:External perimeter
G1 F1200
G1 X193.972 Y149.717 E.03013
G1 X193.726 Y150.641 E.02998
G1 X193.478 Y151.322 E.02272
G1 X193.18 Y151.983 E.02273
G1 X192.836 Y152.621 E.02273
G1 X192.446 Y153.232 E.02273
G1 X192.014 Y153.814 E.02273
G1 X191.54 Y154.363 E.02274
G1 X191.027 Y154.875 E.02273
G1 X190.479 Y155.35 E.02274
G1 X189.898 Y155.783 E.02272
G1 X189.287 Y156.173 E.02273
G1 X188.649 Y156.518 E.02274
G1 X187.988 Y156.816 E.02273
G1 X187.307 Y157.065 E.02273
G1 X186.61 Y157.264 E.02273
G1 X185.901 Y157.412 E.02271
G1 X185.424 Y157.476 E.01509
G1 X185.026 Y158.431 E.03244
G1 X184.926 Y158.532 E.00446
G1 X184.852 Y158.547 E.00237
G1 X183.557 Y158.547 E.0406
G1 X183.424 Y158.492 E.00451
G1 X182.984 Y157.474 E.03477
G1 X182.027 Y157.308 E.03045
G1 X181.118 Y157.065 E.0295
G1 X180.438 Y156.816 E.02271
G1 X179.779 Y156.519 E.02266
G1 X179.142 Y156.175 E.0227
G1 X178.532 Y155.786 E.02268
G1 X177.952 Y155.353 E.02269
