; generated by PrusaSlicer 2.9.0 on 2025-01-02 at 17:15:05 UTC


;
;
; 

; external perimeters extrusion width = 0.45mm
; perimeters extrusion width = 0.45mm
; infill extrusion width = 0.45mm
; solid infill extrusion width = 0.45mm
; top infill extrusion width = 0.40mm
; first layer extrusion width = 0.42mm

M73 P0 R12
M73 Q0 S12
M201 X1000 Y1000 Z200 E8000 ; sets maximum accelerations, mm/sec^2
M203 X200 Y200 Z12 E120 ; sets maximum feedrates, mm / sec
M204 S1250 T1250 ; sets acceleration (S) and retract acceleration (R), mm/sec^2
M205 X8.00 Y8.00 Z0.40 E4.50 ; sets the jerk limits, mm/sec
M205 S0 T0 ; sets the minimum extruding and travel feed rate, mm/sec

; printing object PennyHolderII v3.stl id:0 copy 0
; stop printing object PennyHolderII v3.stl id:0 copy 0

;TYPE:Custom
M862.3 P "MK3SMMU3" ; printer model check
M862.1 P0.4 ; nozzle diameter check
M115 U3.14.1 ; tell printer latest fw version
G90 ; use absolute coordinates
M83 ; extruder relative mode
M104 S215 ; set extruder temp
M140 S60 ; set bed temp
M190 S60 ; wait for bed temp
M109 S215 ; wait for extruder temp
G28 W ; home all without mesh bed level
G80 X161.818 Y33.4657 W43.5542 H43.5542 ; mesh bed levelling

; Send the filament type to the MMU unit.
; E stands for extruder number, F stands for filament type (0: default; 1:flex; 2: PVA)
M403 E0 F0
M403 E1 F0
M403 E2 F0
M403 E3 F0
M403 E4 F0


;go outside print area
G1 Y-3 F1000
G1 Z0.4 F1000
; select extruder
T0
; initial load
G1 X55 E29 F1073
G1 X5 E29 F1800
G1 X55 E8 F2000
G1 Z0.3 F1000
G92 E0
G1 X240 E25 F2200
G1 Y-2 F1000
M73 P1 R12
M73 Q1 S12
G1 X55 E25 F1400
G1 Z0.2 F1000
M73 P2 R12
M73 Q2 S12
G1 X5 E4 F1000
G92 E0


M221 S95
G92 E0

; Don't change E values below. Excessive value can damage the printer.
M907 E430 ; set extruder motor current
G21 ; set units to millimeters
G90 ; use absolute coordinates
M83 ; use relative distances for extrusion

M900 K0.05 ; Filament gcode LA 1.5
M900 K30 ; Filament gcode LA 1.0




M107
;LAYER_CHANGE
;Z:0.2
;HEIGHT:0.2
G1 E-.8 F2100
M73 P3 R12
M73 Q3 S12
G1 Z.6 F720
G1 X162.007 Y38.83 F10800
G1 Z.2 F720
G1 E.8 F2100
M204 S800
;TYPE:Skirt/Brim
;WIDTH:0.42
G1 F1200
G1 X162.648 Y37.283 E.0525
G1 X165.635 Y34.295 E.13247
G1 X167.183 Y33.654 E.05253
G1 X200.008 Y33.654 E1.0292
G1 X201.555 Y34.295 E.0525
G1 X204.543 Y37.283 E.13249
G1 X205.184 Y38.83 E.0525
G1 X205.184 Y71.655 E1.0292
G1 X204.543 Y73.203 E.05253
G1 X201.555 Y76.19 E.13247
G1 X200.008 Y76.831 E.0525
G1 X167.183 Y76.831 E1.0292
G1 X165.635 Y76.19 E.05253
M73 Q4 S12
G1 X162.648 Y73.203 E.13245
M73 P4 R12
G1 X162.007 Y71.655 E.05253
G1 X162.007 Y38.89 E1.02732
M204 S1000
;WIPE_START
G1 F8640
G1 X162.007 Y38.83 E-.01385
G1 X162.648 Y37.283 E-.38666
G1 X163.871 Y36.06 E-.39949
;WIPE_END
G1 Z.6 F720
G1 X164.722 Y39.586 F10800
G1 Z.2 F720
G1 E.8 F2100
M204 S800
G1 F1200
G1 X164.862 Y39.038 E.01773
G1 X165.721 Y37.702 E.0498
G1 X166.9 Y36.74 E.04771
G1 X168.849 Y36.129 E.06404
G1 X198.285 Y36.133 E.92295
G1 X199.305 Y36.327 E.03255
M73 P4 R11
G1 X200.283 Y36.742 E.03331
G1 X201.408 Y37.638 E.04509
G1 X202.301 Y38.976 E.05044
G1 X202.709 Y40.521 E.0501
G1 X202.709 Y69.962 E.9231
G1 X202.328 Y71.447 E.04807
M73 Q4 S11
G1 X201.47 Y72.784 E.04981
G1 X200.291 Y73.745 E.04769
G1 X198.342 Y74.356 E.06404
G1 X168.876 Y74.356 E.92389
G1 X167.391 Y73.976 E.04806
M73 P5 R11
M73 Q5 S11
G1 X166.054 Y73.118 E.04981
G1 X165.093 Y71.938 E.04772
G1 X164.482 Y69.989 E.06404
G1 X164.482 Y40.523 E.92389
G1 X164.707 Y39.644 E.02845
M204 S1000
G1 X164.707 Y39.644 F10800
G1 X165.07 Y39.739
M204 S800
G1 F1200
G1 X165.22 Y39.163 E.01866
G1 X165.994 Y37.962 E.0448
G1 X167.093 Y37.065 E.04448
G1 X168.878 Y36.506 E.05865
G1 X198.266 Y36.51 E.92144
G1 X199.213 Y36.693 E.03024
G1 X200.11 Y37.078 E.03061
G1 X201.149 Y37.914 E.04181
G1 X201.945 Y39.104 E.04489
G1 X202.332 Y40.547 E.04684
G1 X202.332 Y69.938 E.92153
G1 X201.971 Y71.323 E.04488
G1 X201.197 Y72.523 E.04477
G1 X200.648 Y73.032 E.02347
G1 X200.098 Y73.42 E.0211
G1 X198.313 Y73.979 E.05865
G1 X168.9 Y73.979 E.92222
G1 X167.515 Y73.619 E.04487
M73 Q6 S11
G1 X166.315 Y72.844 E.04479
M73 P6 R11
G1 X165.806 Y72.295 E.02347
G1 X165.418 Y71.745 E.0211
G1 X164.859 Y69.96 E.05865
G1 X164.859 Y40.547 E.92222
G1 X165.054 Y39.797 E.0243
M204 S1000
G1 X165.054 Y39.797 F10800
G1 X165.412 Y39.889
M204 S800
G1 F1200
G1 X165.554 Y39.34 E.01778
G1 X166.268 Y38.222 E.04159
G1 X167.286 Y37.391 E.0412
G1 X168.907 Y36.883 E.05326
G1 X198.248 Y36.887 E.91997
G1 X199.119 Y37.059 E.02784
G1 X199.935 Y37.413 E.02789
G1 X200.888 Y38.187 E.03849
G1 X201.613 Y39.286 E.04128
G1 X201.955 Y40.571 E.04169
G1 X201.955 Y69.914 E.92003
G1 X201.637 Y71.145 E.03986
G1 X200.923 Y72.263 E.04159
G1 X199.905 Y73.095 E.04122
G1 X198.284 Y73.602 E.05325
G1 X168.924 Y73.602 E.92056
G1 X167.693 Y73.285 E.03986
G1 X166.575 Y72.57 E.04161
G1 X165.743 Y71.552 E.04122
M73 Q7 S11
G1 X165.236 Y69.932 E.05322
G1 X165.236 Y40.571 E.92059
G1 X165.397 Y39.947 E.02021
M73 P7 R11
M204 S1000
G1 X165.759 Y40.042 F10800
M204 S800
G1 F1200
G1 X165.91 Y39.465 E.0187
G1 X166.542 Y38.483 E.03662
G1 X167.478 Y37.717 E.03792
G1 X168.935 Y37.26 E.04788
G1 X198.229 Y37.264 E.91849
G1 X199.024 Y37.424 E.02543
G1 X199.759 Y37.748 E.02519
G1 X200.625 Y38.46 E.03515
G1 X201.28 Y39.465 E.03761
G1 X201.578 Y40.595 E.03664
G1 X201.578 Y69.89 E.91852
G1 X201.28 Y71.02 E.03664
G1 X200.649 Y72.002 E.0366
G1 X200.154 Y72.461 E.02117
G1 X199.713 Y72.769 E.01687
G1 X198.256 Y73.225 E.04787
G1 X168.948 Y73.225 E.91893
G1 X167.818 Y72.928 E.03663
G1 X166.836 Y72.296 E.03662
G1 X166.377 Y71.802 E.02114
G1 X166.069 Y71.36 E.01689
G1 X165.613 Y69.903 E.04787
G1 X165.613 Y40.596 E.9189
G1 X165.743 Y40.1 E.01608
M73 P8 R11
M73 Q8 S11
M204 S1000
G1 X165.743 Y40.1 F10800
G1 X166.101 Y40.193
M204 S800
G1 F1200
G1 X166.245 Y39.642 E.01786
G1 X166.816 Y38.743 E.03339
G1 X167.669 Y38.043 E.0346
G1 X168.964 Y37.638 E.04254
G1 X198.21 Y37.641 E.91699
G1 X198.891 Y37.778 E.02178
G1 X199.582 Y38.082 E.02367
G1 X200.362 Y38.731 E.03181
G1 X200.924 Y39.593 E.03226
G1 X201.201 Y40.62 E.03335
G1 X201.201 Y69.866 E.91699
G1 X200.946 Y70.843 E.03166
G1 X200.374 Y71.743 E.03344
G1 X199.522 Y72.443 E.03457
G1 X198.227 Y72.848 E.04254
G1 X168.972 Y72.848 E.91727
G1 X167.995 Y72.593 E.03166
G1 X167.095 Y72.022 E.03342
G1 X166.395 Y71.169 E.0346
G1 X165.99 Y69.874 E.04254
G1 X165.99 Y40.62 E.91724
G1 X166.086 Y40.251 E.01195
M73 Q9 S11
M204 S1000
G1 X166.086 Y40.251 F10800
G1 X166.447 Y40.348
M204 S800
G1 F1200
G1 X166.601 Y39.768 E.01882
G1 X167.09 Y39.003 E.02847
G1 X167.859 Y38.37 E.03123
G1 X168.992 Y38.015 E.03723
M73 P9 R11
G1 X198.19 Y38.018 E.91548
G1 X198.794 Y38.143 E.01934
G1 X199.403 Y38.415 E.02091
G1 X200.096 Y39 E.02844
G1 X200.59 Y39.771 E.02871
G1 X200.823 Y40.645 E.02836
G1 X200.823 Y69.841 E.91542
G1 X200.59 Y70.717 E.02842
G1 X200.101 Y71.482 E.02847
G1 X199.662 Y71.889 E.01877
G1 X199.332 Y72.116 E.01256
G1 X198.198 Y72.471 E.03726
G1 X168.997 Y72.471 E.91558
G1 X168.121 Y72.237 E.02843
G1 X167.356 Y71.748 E.02847
G1 X166.949 Y71.309 E.01877
G1 X166.722 Y70.979 E.01256
G1 X166.367 Y69.846 E.03723
G1 X166.367 Y40.645 E.91558
G1 X166.431 Y40.406 E.00776
M204 S1000
G1 X166.431 Y40.406 F10800
G1 X166.79 Y40.504
M204 S800
G1 F1200
G1 X166.957 Y39.896 E.01977
G1 X167.364 Y39.264 E.02357
G1 X168.048 Y38.697 E.02786
G1 X169.021 Y38.392 E.03197
G1 X198.17 Y38.395 E.91395
G1 X198.694 Y38.507 E.0168
M73 P10 R11
M73 Q10 S11
G1 X199.222 Y38.746 E.01817
G1 X199.83 Y39.267 E.02511
G1 X200.235 Y39.899 E.02354
G1 X200.446 Y40.671 E.02509
G1 X200.446 Y69.815 E.91379
G1 X200.234 Y70.589 E.02516
G1 X199.827 Y71.222 E.0236
G1 X199.143 Y71.788 E.02784
G1 X198.17 Y72.094 E.03198
G1 X169.023 Y72.094 E.91388
G1 X168.249 Y71.881 E.02517
G1 X167.616 Y71.475 E.02358
G1 X167.05 Y70.79 E.02786
G1 X166.744 Y69.817 E.03198
G1 X166.744 Y40.671 E.91385
G1 X166.774 Y40.562 E.00354
M204 S1000
G1 X166.774 Y40.562 F10800
G1 X167.131 Y40.663
M204 S800
G1 F1200
G1 X167.311 Y40.027 E.02072
G1 X167.637 Y39.525 E.01877
G1 X168.235 Y39.025 E.02444
G1 X169.05 Y38.769 E.02678
G1 X198.149 Y38.772 E.91238
G1 X198.592 Y38.87 E.01423
G1 X199.038 Y39.077 E.01542
M73 Q11 S11
G1 X199.561 Y39.533 E.02176
G1 X199.88 Y40.029 E.01849
G1 X200.069 Y40.698 E.0218
G1 X200.069 Y69.788 E.9121
G1 X199.879 Y70.458 E.02184
M73 P11 R11
G1 X199.554 Y70.961 E.01878
G1 X198.956 Y71.46 E.02442
G1 X198.141 Y71.717 E.02679
G1 X169.05 Y71.717 E.91213
G1 X168.38 Y71.527 E.02184
G1 X167.877 Y71.201 E.01879
G1 X167.378 Y70.603 E.02442
G1 X167.121 Y69.788 E.02679
G1 X167.121 Y40.722 E.91134
M204 S1000
G1 X167.121 Y40.722 F10800
G1 X167.499 Y40.726
M204 S800
G1 F1200
G1 X167.665 Y40.161 E.01846
G1 X167.91 Y39.786 E.01404
G1 X168.42 Y39.354 E.02096
G1 X169.079 Y39.146 E.02167
G1 X198.126 Y39.15 E.91075
G1 X198.851 Y39.405 E.0241
G1 X199.291 Y39.797 E.01848
G1 X199.526 Y40.162 E.01361
G1 X199.692 Y40.726 E.01843
G1 X199.692 Y69.76 E.91034
G1 X199.526 Y70.324 E.01843
M73 P12 R11
M73 Q12 S11
G1 X199.281 Y70.7 E.01407
G1 X198.77 Y71.131 E.02096
G1 X198.112 Y71.34 E.02165
G1 X169.078 Y71.34 E.91034
G1 X168.514 Y71.173 E.01844
G1 X168.138 Y70.928 E.01407
G1 X167.707 Y70.418 E.02094
G1 X167.499 Y69.759 E.02167
G1 X167.499 Y40.786 E.90843
M204 S1000
G1 X167.499 Y40.786 F10800
M73 P12 R10
G1 X167.876 Y40.786
M204 S800
G1 F1200
G1 X167.876 Y40.755 E.00097
G1 X168.016 Y40.3 E.01493
G1 X168.183 Y40.047 E.0095
G1 X168.602 Y39.685 E.01736
G1 X169.109 Y39.523 E.01669
G1 X198.105 Y39.527 E.90915
G1 X198.663 Y39.733 E.01865
G1 X199.018 Y40.058 E.01509
G1 X199.315 Y40.755 E.02376
G1 X199.315 Y69.73 E.90849
G1 X199.174 Y70.186 E.01497
M73 Q12 S10
G1 X199.008 Y70.438 E.00946
G1 X198.588 Y70.8 E.01739
G1 X198.082 Y70.963 E.01667
G1 X169.108 Y70.963 E.90846
G1 X168.652 Y70.822 E.01497
M73 P13 R10
M73 Q13 S10
G1 X168.4 Y70.656 E.00946
G1 X168.038 Y70.236 E.01739
G1 X167.876 Y69.729 E.01669
G1 X167.876 Y40.846 E.90561
M204 S1000
G1 X167.876 Y40.846 F10800
G1 X168.253 Y40.846
M204 S800
G1 F1200
G1 X168.253 Y40.787 E.00185
G1 X168.455 Y40.309 E.01627
G1 X168.778 Y40.019 E.01361
G1 X169.14 Y39.9 E.01195
G1 X198.082 Y39.904 E.90746
G1 X198.473 Y40.061 E.01321
G1 X198.742 Y40.315 E.0116
G1 X198.938 Y40.787 E.01602
G1 X198.938 Y69.699 E.90652
G1 X198.736 Y70.177 E.01627
G1 X198.413 Y70.466 E.01359
G1 X198.051 Y70.585 E.01195
G1 X169.139 Y70.585 E.90652
G1 X168.661 Y70.383 E.01627
G1 X168.372 Y70.06 E.01359
G1 X168.253 Y69.699 E.01192
G1 X168.253 Y40.906 E.90278
M204 S1000
G1 X168.253 Y40.906 F10800
M73 P14 R10
M73 Q14 S10
G1 X168.63 Y40.906
M204 S800
G1 F1200
G1 X168.63 Y40.822 E.00263
G1 X168.727 Y40.571 E.00844
G1 X168.962 Y40.353 E.01005
G1 X169.175 Y40.277 E.00709
G1 X198.03 Y40.277 E.90473
G1 X198.461 Y40.568 E.01631
G1 X198.561 Y40.822 E.00856
G1 X198.561 Y69.664 E.90432
G1 X198.463 Y69.915 E.00845
G1 X198.229 Y70.132 E.01001
G1 X198.016 Y70.208 E.00709
G1 X169.175 Y70.208 E.90429
G1 X168.923 Y70.111 E.00847
G1 X168.706 Y69.876 E.01003
G1 X168.63 Y69.664 E.00706
G1 X168.63 Y40.966 E.89981
M204 S1000
G1 X168.63 Y40.966 F10800
G1 X169.035 Y40.966
M204 S800
G1 F1200
G1 X169.036 Y40.795 E.00536
G1 X169.216 Y40.654 E.00717
G1 X198.044 Y40.683 E.90388
G1 X198.184 Y40.864 E.00717
M73 P15 R10
M73 Q15 S10
G1 X198.155 Y69.691 E.90385
G1 X197.974 Y69.831 E.00717
G1 X169.147 Y69.803 E.90385
G1 X169.007 Y69.622 E.00717
G1 X169.035 Y41.026 E.89661
M204 S1000
;WIPE_START
G1 F8640
G1 X169.035 Y40.966 E-.01385
G1 X169.036 Y40.795 E-.03949
G1 X169.216 Y40.654 E-.0528
G1 X172.221 Y40.657 E-.69386
;WIPE_END
G1 Z.6 F720
; printing object PennyHolderII v3.stl id:0 copy 0
G1 X193.87 Y56.723 F10800
G1 Z.2 F720
G1 E.8 F2100
M204 S800
;TYPE:Perimeter
;WIDTH:0.419999
G1 F1200
G1 X193.732 Y57.482 E.02419
G1 X193.48 Y58.433 E.03085
G1 X193.223 Y59.14 E.02359
G1 X192.915 Y59.826 E.02358
G1 X192.559 Y60.489 E.0236
G1 X192.155 Y61.124 E.0236
G1 X191.707 Y61.728 E.02358
G1 X191.216 Y62.297 E.02356
G1 X190.685 Y62.83 E.02359
G1 X190.116 Y63.323 E.02361
G1 X189.514 Y63.774 E.02358
G1 X188.88 Y64.179 E.02359
G1 X188.219 Y64.538 E.02358
G1 X187.534 Y64.848 E.02357
G1 X186.828 Y65.107 E.02358
G1 X186.105 Y65.315 E.02359
G1 X185.368 Y65.47 E.02361
G1 X185.079 Y65.51 E.00915
G1 X184.765 Y66.264 E.02561
G1 X184.64 Y66.449 E.007
G1 X184.341 Y66.604 E.01056
G1 X182.948 Y66.612 E.04368
G1 X182.725 Y66.566 E.00714
G1 X182.55 Y66.449 E.0066
G1 X182.426 Y66.264 E.00698
G1 X182.11 Y65.507 E.02572
G1 X181.34 Y65.365 E.02455
G1 X180.405 Y65.115 E.03035
G1 X179.7 Y64.858 E.02353
G1 X179.015 Y64.551 E.02354
G1 X178.354 Y64.195 E.02354
G1 X177.72 Y63.792 E.02355
G1 X177.118 Y63.344 E.02353
G1 X176.549 Y62.854 E.02354
G1 X176.017 Y62.324 E.02355
G1 X175.525 Y61.757 E.02354
G1 X175.075 Y61.156 E.02354
G1 X174.67 Y60.523 E.02356
G1 X174.312 Y59.864 E.02351
G1 X174.002 Y59.18 E.02355
G1 X173.743 Y58.475 E.02355
G1 X173.535 Y57.754 E.02353
G1 X173.379 Y57.019 E.02356
G1 X173.339 Y56.731 E.00912
G1 X172.574 Y56.412 E.02599
G1 X172.39 Y56.289 E.00694
G1 X172.235 Y55.988 E.01062
G1 X172.226 Y54.595 E.04368
G1 X172.272 Y54.372 E.00714
G1 X172.39 Y54.197 E.00662
G1 X172.574 Y54.073 E.00696
G1 X173.339 Y53.754 E.02599
G1 X173.482 Y52.975 E.02483
G1 X173.73 Y52.049 E.03006
G1 X173.987 Y51.343 E.02356
G1 X174.294 Y50.658 E.02354
M73 Q16 S10
G1 X174.649 Y49.997 E.02353
G1 X175.052 Y49.364 E.02353
G1 X175.499 Y48.761 E.02353
G1 X175.989 Y48.192 E.02354
G1 X176.519 Y47.66 E.02355
G1 X177.086 Y47.167 E.02356
M73 P16 R10
G1 X177.687 Y46.717 E.02354
G1 X178.318 Y46.312 E.02351
G1 X178.978 Y45.953 E.02356
G1 X179.662 Y45.643 E.02355
G1 X180.366 Y45.383 E.02353
G1 X181.087 Y45.175 E.02353
G1 X181.822 Y45.019 E.02356
G1 X182.11 Y44.978 E.00912
G1 X182.426 Y44.221 E.02572
G1 X182.55 Y44.037 E.00696
G1 X182.85 Y43.882 E.01059
G1 X184.243 Y43.873 E.04368
G1 X184.465 Y43.919 E.00711
G1 X184.64 Y44.036 E.0066
G1 X184.765 Y44.221 E.007
G1 X185.079 Y44.976 E.02564
G1 X185.847 Y45.115 E.02447
G1 X186.789 Y45.365 E.03056
G1 X187.496 Y45.622 E.02359
G1 X188.183 Y45.929 E.02359
G1 X188.845 Y46.285 E.02357
G1 X189.48 Y46.688 E.02358
G1 X190.084 Y47.137 E.0236
G1 X190.655 Y47.627 E.02359
G1 X191.188 Y48.158 E.02359
G1 X191.681 Y48.726 E.02358
G1 X192.132 Y49.328 E.02358
G1 X192.538 Y49.961 E.02358
G1 X192.897 Y50.622 E.02358
G1 X193.207 Y51.308 E.0236
G1 X193.467 Y52.014 E.02359
G1 X193.675 Y52.737 E.02359
G1 X193.83 Y53.473 E.02358
G1 X193.87 Y53.762 E.00915
G1 X194.617 Y54.073 E.02537
G1 X194.803 Y54.199 E.00704
G1 X194.919 Y54.373 E.00656
G1 X194.965 Y54.595 E.00711
G1 X194.965 Y55.89 E.0406
G1 X194.919 Y56.112 E.00711
G1 X194.803 Y56.286 E.00656
G1 X194.617 Y56.412 E.00704
G1 X193.926 Y56.7 E.02347
M204 S1000
G1 X193.926 Y56.7 F10800
G1 X193.525 Y56.459
M204 S800
;TYPE:External perimeter
G1 F1200
G1 X193.363 Y57.405 E.03009
G1 X193.117 Y58.329 E.02998
G1 X192.869 Y59.01 E.02272
G1 X192.571 Y59.671 E.02273
G1 X192.227 Y60.309 E.02273
G1 X191.837 Y60.921 E.02275
G1 X191.404 Y61.502 E.02272
G1 X190.93 Y62.051 E.02274
G1 X190.418 Y62.564 E.02273
G1 X189.87 Y63.038 E.02272
G1 X189.289 Y63.471 E.02272
G1 X188.678 Y63.861 E.02273
G1 X188.04 Y64.206 E.02274
G1 X187.379 Y64.504 E.02273
G1 X186.698 Y64.753 E.02273
G1 X186.001 Y64.952 E.02273
G1 X185.292 Y65.101 E.02272
G1 X184.815 Y65.165 E.01509
G1 X184.417 Y66.119 E.03241
G1 X184.317 Y66.22 E.00446
G1 X184.243 Y66.235 E.00237
G1 X182.948 Y66.235 E.0406
G1 X182.815 Y66.181 E.0045
G1 X182.375 Y65.162 E.0348
G1 X181.417 Y64.996 E.03048
G1 X180.509 Y64.753 E.02947
G1 X179.829 Y64.504 E.02271
G1 X179.17 Y64.207 E.02266
G1 X178.533 Y63.863 E.0227
G1 X177.923 Y63.474 E.02268
G1 X177.343 Y63.042 E.02268
G1 X176.796 Y62.569 E.02267
G1 X176.284 Y62.057 E.0227
G1 X175.81 Y61.51 E.02269
G1 X175.378 Y60.93 E.02268
G1 X174.988 Y60.321 E.02267
G1 X174.643 Y59.684 E.02271
G1 X174.346 Y59.025 E.02266
G1 X174.097 Y58.346 E.02268
G1 X173.897 Y57.65 E.02271
G1 X173.749 Y56.942 E.02268
G1 X173.684 Y56.466 E.01506
G1 X172.719 Y56.064 E.03278
G1 X172.618 Y55.965 E.00443
G1 X172.603 Y55.89 E.0024
G1 X172.603 Y54.595 E.0406
G1 X172.658 Y54.462 E.00451
G1 X173.684 Y54.019 E.03504
G1 X173.851 Y53.053 E.03074
