; generated by PrusaSlicer 2.9.0 on 2025-01-04 at 19:56:12 UTC


;
;
; 

; external perimeters extrusion width = 0.45mm
; perimeters extrusion width = 0.45mm
; infill extrusion width = 0.45mm
; solid infill extrusion width = 0.45mm
; top infill extrusion width = 0.40mm
; first layer extrusion width = 0.42mm

M73 P0 R12
M73 Q0 S12
M201 X1000 Y1000 Z200 E5000 ; sets maximum accelerations, mm/sec^2
M203 X200 Y200 Z12 E120 ; sets maximum feedrates, mm / sec
M204 S1250 T1250 ; sets acceleration (S) and retract acceleration (R), mm/sec^2
M205 X8.00 Y8.00 Z0.40 E4.50 ; sets the jerk limits, mm/sec
M205 S0 T0 ; sets the minimum extruding and travel feed rate, mm/sec

; printing object PennyHolderII v3.stl id:0 copy 0
; stop printing object PennyHolderII v3.stl id:0 copy 0

;TYPE:Custom
M862.3 P "MK3S" ; printer model check
M862.1 P0.4 ; nozzle diameter check
M115 U3.14.1 ; tell printer latest fw version
G90 ; use absolute coordinates
M83 ; extruder relative mode
M104 S215 ; set extruder temp
M140 S60 ; set bed temp
M190 S60 ; wait for bed temp
M109 S215 ; wait for extruder temp
G28 W ; home all without mesh bed level
G80 X43.5344 Y37.7929 W43.5542 H43.5542 ; mesh bed levelling

G1 Z0.2 F720
G1 Y-3 F1000 ; go outside print area
G92 E0
G1 X60 E9 F1000 ; intro line
G1 X100 E12.5 F1000 ; intro line

G92 E0
M221 S95

; Don't change E values below. Excessive value can damage the printer.
M907 E430 ; set extruder motor current
G21 ; set units to millimeters
G90 ; use absolute coordinates
M83 ; use relative distances for extrusion

M900 K0.05 ; Filament gcode LA 1.5
M900 K30 ; Filament gcode LA 1.0




M107
;LAYER_CHANGE
;Z:0.2
;HEIGHT:0.2
G1 E-.8 F2100
G1 Z.6 F720
G1 X44.364 Y41.61 F10800
G1 Z.2 F720
G1 E.8 F2100
M204 S800
;TYPE:Skirt/Brim
;WIDTH:0.42
G1 F1200
G1 X47.351 Y38.622 E.13247
G1 X48.899 Y37.981 E.05253
G1 X81.724 Y37.981 E1.0292
M73 Q1 S12
G1 X83.272 Y38.622 E.05253
M73 P1 R12
G1 X86.259 Y41.61 E.13247
G1 X86.9 Y43.157 E.0525
G1 X86.9 Y75.982 E1.0292
G1 X86.259 Y77.53 E.05253
G1 X83.272 Y80.518 E.13247
G1 X81.724 Y81.159 E.05253
G1 X48.899 Y81.159 E1.0292
G1 X47.351 Y80.518 E.05253
G1 X44.364 Y77.53 E.13247
G1 X43.723 Y75.982 E.05253
G1 X43.723 Y43.157 E1.0292
G1 X44.341 Y41.665 E.05063
M73 P2 R12
M73 Q2 S12
M204 S1000
;WIPE_START
G1 F8640
G1 X44.364 Y41.61 E-.01377
G1 X46.772 Y39.202 E-.78623
;WIPE_END
G1 Z.6 F720
G1 X46.698 Y43.179 F10800
G1 Z.2 F720
G1 E.8 F2100
M204 S800
G1 F1200
G1 X47.437 Y42.029 E.04286
G1 X48.616 Y41.067 E.04771
G1 X50.566 Y40.456 E.06407
M73 P2 R11
G1 X80.001 Y40.46 E.92291
G1 X81.021 Y40.654 E.03255
G1 X81.999 Y41.07 E.03332
G1 X83.124 Y41.965 E.04507
G1 X84.017 Y43.304 E.05046
G1 X84.425 Y44.849 E.0501
G1 X84.425 Y74.29 E.9231
G1 X84.044 Y75.775 E.04807
M73 Q2 S11
G1 X83.186 Y77.111 E.04978
G1 X82.007 Y78.072 E.04769
G1 X80.058 Y78.683 E.06404
G1 X50.592 Y78.683 E.92389
G1 X49.107 Y78.303 E.04806
G1 X47.771 Y77.445 E.04978
G1 X46.809 Y76.265 E.04774
G1 X46.198 Y74.316 E.06404
G1 X46.198 Y44.85 E.92389
G1 X46.579 Y43.365 E.04807
M73 P3 R11
M73 Q3 S11
G1 X46.666 Y43.229 E.00506
M204 S1000
G1 X46.666 Y43.229 F10800
G1 X46.975 Y43.429
M204 S800
G1 F1200
G1 X47.71 Y42.29 E.0425
G1 X48.809 Y41.393 E.04448
G1 X50.594 Y40.834 E.05865
G1 X79.983 Y40.837 E.92147
G1 X80.929 Y41.02 E.03021
G1 X81.826 Y41.406 E.03062
G1 X82.865 Y42.241 E.04179
G1 X83.661 Y43.432 E.04492
G1 X84.048 Y44.874 E.04681
G1 X84.048 Y74.265 E.92153
G1 X83.687 Y75.65 E.04488
G1 X82.913 Y76.85 E.04477
G1 X82.364 Y77.359 E.02347
G1 X81.814 Y77.747 E.0211
G1 X80.029 Y78.306 E.05865
G1 X50.616 Y78.306 E.92222
G1 X49.232 Y77.946 E.04484
G1 X48.031 Y77.171 E.04482
G1 X47.522 Y76.622 E.02347
G1 X47.134 Y76.072 E.0211
G1 X46.575 Y74.288 E.05862
G1 X46.575 Y44.875 E.92222
G1 X46.936 Y43.49 E.04488
M73 P4 R11
M73 Q4 S11
G1 X46.943 Y43.479 E.00041
M204 S1000
G1 X46.943 Y43.479 F10800
G1 X47.27 Y43.667
M204 S800
G1 F1200
G1 X47.984 Y42.55 E.04157
G1 X49.002 Y41.718 E.04122
G1 X50.623 Y41.211 E.05325
G1 X79.964 Y41.214 E.91997
G1 X80.835 Y41.386 E.02784
G1 X81.652 Y41.741 E.02793
G1 X82.604 Y42.515 E.03847
G1 X83.329 Y43.613 E.04125
G1 X83.671 Y44.898 E.04169
G1 X83.671 Y74.242 E.92006
G1 X83.353 Y75.473 E.03986
G1 X82.639 Y76.59 E.04157
G1 X81.621 Y77.422 E.04122
G1 X80.001 Y77.929 E.05322
G1 X50.64 Y77.929 E.92059
G1 X49.409 Y77.612 E.03986
G1 X48.291 Y76.897 E.04161
G1 X47.46 Y75.88 E.04118
G1 X46.952 Y74.259 E.05326
G1 X46.952 Y44.898 E.92059
G1 X47.255 Y43.725 E.03799
M73 P5 R11
M73 Q5 S11
M204 S1000
G1 X47.255 Y43.725 F10800
G1 X47.619 Y43.821
M204 S800
G1 F1200
G1 X47.627 Y43.793 E.00091
G1 X48.258 Y42.81 E.03662
G1 X49.194 Y42.044 E.03792
G1 X50.651 Y41.588 E.04787
G1 X79.945 Y41.591 E.91849
G1 X80.74 Y41.751 E.02543
G1 X81.475 Y42.075 E.02519
G1 X82.342 Y42.787 E.03518
G1 X82.996 Y43.793 E.03762
G1 X83.294 Y44.922 E.03661
G1 X83.294 Y74.217 E.91852
G1 X82.996 Y75.347 E.03664
G1 X82.365 Y76.33 E.03662
G1 X81.87 Y76.788 E.02114
G1 X81.429 Y77.096 E.01687
G1 X79.972 Y77.552 E.04787
G1 X50.665 Y77.552 E.9189
G1 X49.534 Y77.255 E.03666
G1 X48.552 Y76.624 E.0366
G1 X48.093 Y76.129 E.02117
G1 X47.785 Y75.688 E.01687
G1 X47.329 Y74.23 E.0479
G1 X47.329 Y44.923 E.9189
G1 X47.604 Y43.879 E.03385
M204 S1000
G1 X47.604 Y43.879 F10800
G1 X47.96 Y43.972
M204 S800
G1 F1200
G1 X47.961 Y43.969 E.0001
G1 X48.532 Y43.07 E.03339
G1 X49.385 Y42.37 E.0346
G1 X50.68 Y41.965 E.04254
G1 X79.926 Y41.968 E.91699
G1 X80.607 Y42.105 E.02178
M73 P6 R11
M73 Q6 S11
G1 X81.299 Y42.409 E.0237
G1 X82.078 Y43.058 E.03179
G1 X82.64 Y43.92 E.03226
G1 X82.917 Y44.948 E.03338
G1 X82.917 Y74.193 E.91696
G1 X82.662 Y75.171 E.03169
G1 X82.091 Y76.07 E.03339
G1 X81.238 Y76.77 E.0346
G1 X79.943 Y77.175 E.04254
G1 X50.688 Y77.175 E.91727
G1 X49.711 Y76.921 E.03165
G1 X48.812 Y76.349 E.03341
G1 X48.112 Y75.497 E.03457
G1 X47.706 Y74.202 E.04255
G1 X47.706 Y44.947 E.91727
G1 X47.945 Y44.03 E.02971
M204 S1000
G1 X47.945 Y44.03 F10800
G1 X48.309 Y44.127
M204 S800
G1 F1200
G1 X48.317 Y44.095 E.00103
G1 X48.806 Y43.33 E.02847
G1 X49.575 Y42.697 E.03123
G1 X50.709 Y42.342 E.03726
G1 X79.906 Y42.346 E.91545
G1 X80.51 Y42.47 E.01933
M73 P7 R11
M73 Q7 S11
G1 X81.12 Y42.742 E.02094
G1 X81.813 Y43.327 E.02844
G1 X82.306 Y44.098 E.02869
G1 X82.54 Y44.972 E.02837
G1 X82.54 Y74.168 E.91542
G1 X82.306 Y75.045 E.02846
G1 X81.817 Y75.81 E.02847
G1 X81.378 Y76.216 E.01875
G1 X81.048 Y76.443 E.01256
G1 X79.915 Y76.798 E.03723
G1 X50.714 Y76.798 E.91558
G1 X49.837 Y76.564 E.02846
G1 X49.072 Y76.075 E.02847
G1 X48.665 Y75.637 E.01875
G1 X48.438 Y75.307 E.01256
G1 X48.083 Y74.173 E.03726
G1 X48.083 Y44.972 E.91558
G1 X48.293 Y44.185 E.02554
M204 S1000
G1 X48.293 Y44.185 F10800
G1 X48.656 Y44.285
M204 S800
G1 F1200
G1 X48.673 Y44.224 E.00199
G1 X49.08 Y43.591 E.0236
G1 X49.764 Y43.024 E.02786
G1 X50.737 Y42.719 E.03197
G1 X79.886 Y42.723 E.91395
G1 X80.411 Y42.834 E.01682
M73 P8 R11
M73 Q8 S11
G1 X80.938 Y43.074 E.01816
G1 X81.546 Y43.595 E.02511
G1 X81.951 Y44.226 E.02351
G1 X82.163 Y44.998 E.0251
G1 X82.163 Y74.142 E.91379
G1 X81.95 Y74.916 E.02517
G1 X81.543 Y75.549 E.0236
G1 X80.859 Y76.116 E.02786
G1 X79.886 Y76.421 E.03197
G1 X50.739 Y76.421 E.91388
G1 X49.965 Y76.209 E.02516
G1 X49.333 Y75.802 E.02357
G1 X48.766 Y75.118 E.02786
G1 X48.461 Y74.144 E.032
G1 X48.461 Y44.998 E.91385
G1 X48.64 Y44.343 E.02129
M204 S1000
G1 X48.64 Y44.343 F10800
G1 X49.002 Y44.445
M204 S800
G1 F1200
G1 X49.027 Y44.355 E.00293
G1 X49.353 Y43.852 E.01879
G1 X49.951 Y43.352 E.02444
G1 X50.766 Y43.096 E.02678
G1 X79.865 Y43.1 E.91238
G1 X80.308 Y43.197 E.01422
G1 X80.754 Y43.404 E.01542
G1 X81.277 Y43.861 E.02178
G1 X81.596 Y44.356 E.01846
G1 X81.785 Y45.025 E.0218
G1 X81.785 Y74.115 E.9121
G1 X81.596 Y74.785 E.02183
M73 P9 R11
M73 Q9 S11
G1 X81.27 Y75.288 E.01879
G1 X80.672 Y75.787 E.02442
G1 X79.857 Y76.044 E.02679
G1 X50.766 Y76.044 E.91213
G1 X50.096 Y75.854 E.02184
G1 X49.593 Y75.529 E.01878
G1 X49.094 Y74.93 E.02444
G1 X48.838 Y74.115 E.02678
G1 X48.838 Y45.025 E.9121
G1 X48.985 Y44.503 E.017
M204 S1000
G1 X48.985 Y44.503 F10800
G1 X49.345 Y44.609
M204 S800
G1 F1200
G1 X49.381 Y44.489 E.00393
G1 X49.626 Y44.113 E.01407
G1 X50.136 Y43.682 E.02094
G1 X50.795 Y43.473 E.02168
G1 X79.842 Y43.477 E.91075
G1 X80.567 Y43.732 E.0241
G1 X81.007 Y44.124 E.01848
G1 X81.243 Y44.49 E.01365
G1 X81.408 Y45.053 E.01839
G1 X81.408 Y74.087 E.91034
G1 X81.242 Y74.651 E.01843
G1 X80.997 Y75.027 E.01407
G1 X80.487 Y75.458 E.02094
G1 X79.828 Y75.667 E.02168
G1 X50.794 Y75.667 E.91034
M73 P10 R11
G1 X50.23 Y75.501 E.01843
M73 Q10 S11
G1 X49.855 Y75.256 E.01404
G1 X49.423 Y74.745 E.02098
G1 X49.215 Y74.086 E.02167
G1 X49.215 Y45.053 E.91031
G1 X49.328 Y44.666 E.01264
M73 P10 R10
M204 S1000
G1 X49.328 Y44.666 F10800
G1 X49.686 Y44.777
M204 S800
G1 F1200
G1 X49.732 Y44.627 E.00492
G1 X49.899 Y44.374 E.0095
G1 X50.319 Y44.013 E.01736
G1 X50.825 Y43.85 E.01667
G1 X79.821 Y43.854 E.90915
G1 X80.379 Y44.061 E.01866
M73 Q10 S10
G1 X80.734 Y44.385 E.01507
G1 X81.031 Y45.082 E.02376
G1 X81.031 Y74.058 E.90852
G1 X80.891 Y74.513 E.01493
G1 X80.724 Y74.766 E.0095
G1 X80.305 Y75.127 E.01734
G1 X79.798 Y75.29 E.0167
G1 X50.824 Y75.29 E.90846
G1 X50.368 Y75.149 E.01497
M73 P11 R10
M73 Q11 S10
G1 X50.116 Y74.983 E.00946
G1 X49.754 Y74.563 E.01739
G1 X49.592 Y74.057 E.01666
G1 X49.592 Y45.082 E.90849
G1 X49.668 Y44.834 E.00813
M204 S1000
G1 X49.668 Y44.834 F10800
G1 X50.024 Y44.984
M204 S800
G1 F1200
G1 X50.171 Y44.636 E.01184
G1 X50.494 Y44.346 E.01361
G1 X50.856 Y44.227 E.01195
G1 X79.799 Y44.231 E.90749
G1 X80.19 Y44.388 E.01321
G1 X80.458 Y44.643 E.0116
G1 X80.654 Y45.114 E.016
G1 X80.654 Y74.026 E.90652
G1 X80.452 Y74.504 E.01627
G1 X80.129 Y74.794 E.01361
G1 X79.767 Y74.913 E.01195
G1 X50.856 Y74.913 E.90648
G1 X50.378 Y74.71 E.01628
G1 X50.088 Y74.387 E.01361
G1 X49.969 Y74.026 E.01192
G1 X49.969 Y45.114 E.90652
G1 X50 Y45.04 E.00252
M73 P12 R10
M73 Q12 S10
M204 S1000
G1 X50 Y45.04 F10800
G1 X50.346 Y45.149
M204 S800
G1 F1200
G1 X50.443 Y44.898 E.00844
G1 X50.678 Y44.681 E.01003
G1 X50.891 Y44.604 E.0071
G1 X79.747 Y44.604 E.90476
G1 X80.178 Y44.895 E.01631
G1 X80.277 Y45.149 E.00855
G1 X80.277 Y73.991 E.90432
G1 X80.18 Y74.242 E.00844
G1 X79.945 Y74.459 E.01003
G1 X79.732 Y74.536 E.0071
G1 X50.891 Y74.536 E.90429
G1 X50.639 Y74.438 E.00848
G1 X50.422 Y74.204 E.01001
G1 X50.346 Y73.991 E.00709
G1 X50.346 Y45.209 E.90244
M204 S1000
G1 X50.346 Y45.209 F10800
G1 X50.752 Y45.21
M204 S800
G1 F1200
G1 X50.752 Y45.122 E.00276
G1 X50.933 Y44.981 E.00719
G1 X79.76 Y45.01 E.90385
G1 X79.9 Y45.191 E.00717
M73 P13 R10
M73 Q13 S10
G1 X79.871 Y74.018 E.90385
G1 X79.69 Y74.159 E.00719
G1 X50.863 Y74.13 E.90385
G1 X50.723 Y73.949 E.00717
G1 X50.752 Y45.27 E.89921
M204 S1000
;WIPE_START
G1 F8640
G1 X50.752 Y45.21 E-.01385
G1 X50.752 Y45.122 E-.02032
G1 X50.933 Y44.981 E-.05298
G1 X54.02 Y44.984 E-.71285
;WIPE_END
G1 Z.6 F720
; printing object PennyHolderII v3.stl id:0 copy 0
G1 X75.587 Y61.051 F10800
G1 Z.2 F720
G1 E.8 F2100
M204 S800
;TYPE:Perimeter
;WIDTH:0.419999
G1 F1200
G1 X75.448 Y61.809 E.02416
G1 X75.196 Y62.76 E.03085
G1 X74.939 Y63.467 E.02359
G1 X74.631 Y64.154 E.02361
G1 X74.275 Y64.816 E.02357
G1 X73.871 Y65.451 E.0236
G1 X73.423 Y66.055 E.02358
G1 X72.932 Y66.625 E.02359
G1 X72.401 Y67.158 E.02359
G1 X71.833 Y67.65 E.02356
G1 X71.23 Y68.101 E.02361
G1 X70.597 Y68.507 E.02358
G1 X69.935 Y68.865 E.0236
G1 X69.25 Y69.175 E.02357
G1 X68.544 Y69.435 E.02359
G1 X67.821 Y69.642 E.02358
G1 X67.085 Y69.797 E.02358
G1 X66.796 Y69.837 E.00915
G1 X66.481 Y70.591 E.02562
G1 X66.356 Y70.777 E.00703
G1 X66.057 Y70.931 E.01055
G1 X64.664 Y70.939 E.04368
G1 X64.441 Y70.893 E.00714
G1 X64.266 Y70.776 E.0066
G1 X64.142 Y70.591 E.00698
G1 X63.826 Y69.834 E.02572
G1 X63.056 Y69.693 E.02454
G1 X62.121 Y69.443 E.03035
G1 X61.416 Y69.185 E.02354
G1 X60.731 Y68.878 E.02354
G1 X60.07 Y68.522 E.02354
G1 X59.436 Y68.119 E.02355
G1 X58.834 Y67.671 E.02353
G1 X58.265 Y67.181 E.02354
G1 X57.733 Y66.651 E.02355
G1 X57.241 Y66.084 E.02354
G1 X56.791 Y65.483 E.02354
G1 X56.386 Y64.851 E.02354
G1 X56.028 Y64.191 E.02354
G1 X55.718 Y63.507 E.02355
G1 X55.459 Y62.803 E.02352
G1 X55.251 Y62.081 E.02356
G1 X55.096 Y61.347 E.02352
G1 X55.055 Y61.058 E.00915
G1 X54.29 Y60.74 E.02598
G1 X54.106 Y60.616 E.00696
M73 P14 R10
G1 X53.951 Y60.315 E.01062
G1 X53.942 Y58.922 E.04368
G1 X53.988 Y58.699 E.00714
G1 X54.106 Y58.524 E.00662
G1 X54.29 Y58.4 E.00696
G1 X55.055 Y58.081 E.02599
G1 X55.198 Y57.303 E.0248
M73 Q14 S10
G1 X55.446 Y56.376 E.03009
G1 X55.703 Y55.671 E.02353
G1 X56.01 Y54.986 E.02354
G1 X56.366 Y54.325 E.02354
G1 X56.768 Y53.691 E.02354
G1 X57.216 Y53.088 E.02355
G1 X57.705 Y52.519 E.02352
G1 X58.235 Y51.987 E.02355
G1 X58.802 Y51.495 E.02354
G1 X59.403 Y51.044 E.02356
G1 X60.035 Y50.639 E.02354
G1 X60.694 Y50.28 E.02353
G1 X61.378 Y49.97 E.02355
G1 X62.082 Y49.71 E.02353
G1 X62.803 Y49.502 E.02353
G1 X63.538 Y49.346 E.02356
G1 X63.826 Y49.306 E.00912
G1 X64.142 Y48.549 E.02572
G1 X64.266 Y48.364 E.00698
G1 X64.566 Y48.209 E.01059
G1 X65.959 Y48.201 E.04368
G1 X66.182 Y48.246 E.00713
G1 X66.356 Y48.364 E.00659
G1 X66.481 Y48.549 E.007
G1 X66.796 Y49.303 E.02562
G1 X67.563 Y49.443 E.02445
G1 X68.505 Y49.693 E.03056
G1 X69.212 Y49.949 E.02358
G1 X69.899 Y50.256 E.02359
G1 X70.561 Y50.613 E.02358
G1 X71.196 Y51.016 E.02358
G1 X71.801 Y51.464 E.0236
G1 X72.371 Y51.955 E.02359
G1 X72.904 Y52.485 E.02357
G1 X73.397 Y53.053 E.02358
G1 X73.848 Y53.655 E.02358
G1 X74.254 Y54.289 E.02361
G1 X74.613 Y54.95 E.02358
G1 X74.923 Y55.635 E.02357
G1 X75.183 Y56.341 E.02359
G1 X75.391 Y57.064 E.02359
G1 X75.546 Y57.8 E.02358
G1 X75.587 Y58.089 E.00915
G1 X76.333 Y58.4 E.02534
G1 X76.519 Y58.526 E.00704
G1 X76.636 Y58.7 E.00657
G1 X76.681 Y58.922 E.0071
G1 X76.681 Y60.218 E.04064
G1 X76.636 Y60.439 E.00707
G1 X76.519 Y60.614 E.0066
G1 X76.333 Y60.74 E.00704
G1 X75.642 Y61.028 E.02347
M204 S1000
G1 X75.642 Y61.028 F10800
G1 X75.242 Y60.786
M204 S800
;TYPE:External perimeter
G1 F1200
G1 X75.079 Y61.732 E.0301
G1 X74.833 Y62.656 E.02998
G1 X74.585 Y63.337 E.02272
G1 X74.288 Y63.999 E.02275
G1 X73.943 Y64.637 E.02274
G1 X73.554 Y65.248 E.02271
G1 X73.121 Y65.829 E.02272
G1 X72.647 Y66.378 E.02274
G1 X72.134 Y66.891 E.02275
G1 X71.586 Y67.365 E.02272
G1 X71.005 Y67.799 E.02274
G1 X70.394 Y68.189 E.02273
G1 X69.756 Y68.534 E.02274
G1 X69.095 Y68.831 E.02272
G1 X68.414 Y69.08 E.02273
G1 X67.717 Y69.28 E.02274
G1 X67.008 Y69.428 E.02271
G1 X66.531 Y69.492 E.01509
G1 X66.133 Y70.446 E.03241
G1 X66.033 Y70.547 E.00446
G1 X65.959 Y70.562 E.00237
G1 X64.664 Y70.562 E.0406
G1 X64.531 Y70.508 E.0045
G1 X64.091 Y69.49 E.03477
G1 X63.134 Y69.324 E.03045
G1 X62.225 Y69.08 E.02951
G1 X61.546 Y68.831 E.02268
G1 X60.886 Y68.534 E.02269
G1 X60.249 Y68.19 E.0227
G1 X59.639 Y67.801 E.02268
G1 X59.059 Y67.369 E.02268
G1 X58.512 Y66.896 E.02267
G1 X58 Y66.384 E.0227
G1 X57.527 Y65.837 E.02267
G1 X57.094 Y65.257 E.02269
G1 X56.704 Y64.648 E.02267
G1 X56.36 Y64.012 E.02267
G1 X56.062 Y63.352 E.02271
G1 X55.813 Y62.673 E.02268
G1 X55.613 Y61.978 E.02268
G1 X55.465 Y61.269 E.02271
G1 X55.4 Y60.794 E.01503
G1 X54.435 Y60.392 E.03278
G1 X54.335 Y60.292 E.00443
G1 X54.319 Y60.218 E.00237
G1 X54.319 Y58.922 E.04064
G1 X54.374 Y58.79 E.00448
G1 X55.4 Y58.346 E.03505
G1 X55.567 Y57.38 E.03074
G1 X55.809 Y56.48 E.02922
G1 X56.057 Y55.8 E.02269
G1 X56.354 Y55.141 E.02266
G1 X56.697 Y54.504 E.02268
G1 X57.086 Y53.894 E.02268
G1 X57.518 Y53.313 E.0227
G1 X57.991 Y52.766 E.02267
G1 X58.502 Y52.253 E.0227
G1 X59.049 Y51.78 E.02267
G1 X59.628 Y51.347 E.02267
G1 X60.238 Y50.957 E.0227
G1 X60.874 Y50.612 E.02269
G1 X61.533 Y50.314 E.02268
G1 X62.212 Y50.064 E.02269
G1 X62.907 Y49.864 E.02268
G1 X63.615 Y49.715 E.02269
G1 X64.091 Y49.65 E.01506
G1 X64.49 Y48.694 E.03248
G1 X64.59 Y48.593 E.00446
G1 X64.664 Y48.578 E.00237
G1 X65.959 Y48.578 E.0406
G1 X66.092 Y48.632 E.0045
G1 X66.531 Y49.648 E.0347
G1 X67.486 Y49.812 E.03038
G1 X68.401 Y50.055 E.02968
G1 X69.083 Y50.303 E.02275
G1 X69.744 Y50.6 E.02272
G1 X70.382 Y50.944 E.02273
G1 X70.994 Y51.334 E.02275
G1 X71.575 Y51.766 E.0227
G1 X72.124 Y52.24 E.02274
