; generated by PrusaSlicer 2.9.0 on 2025-01-12 at 16:59:21 UTC


;
;
; 

; external perimeters extrusion width = 0.60mm
; perimeters extrusion width = 0.50mm
; infill extrusion width = 0.50mm
; solid infill extrusion width = 0.50mm
; top infill extrusion width = 0.45mm
; first layer extrusion width = 0.42mm

M73 P0 R12
M73 Q0 S12
M201 X1000 Y1000 Z200 E5000 ; sets maximum accelerations, mm/sec^2
M203 X200 Y200 Z12 E120 ; sets maximum feedrates, mm / sec
M204 S1250 T1250 ; sets acceleration (S) and retract acceleration (R), mm/sec^2
M205 X8.00 Y8.00 Z0.40 E4.50 ; sets the jerk limits, mm/sec
M205 S0 T0 ; sets the minimum extruding and travel feed rate, mm/sec

; printing object Another_Hollow_Cube.stl id:0 copy 0
; stop printing object Another_Hollow_Cube.stl id:0 copy 0

;TYPE:Custom
M862.3 P "MK3S" ; printer model check
M862.1 P0.4 ; nozzle diameter check
M115 U3.14.1 ; tell printer latest fw version
G90 ; use absolute coordinates
M83 ; extruder relative mode
M104 S215 ; set extruder temp
M140 S60 ; set bed temp
M190 S60 ; wait for bed temp
M109 S215 ; wait for extruder temp
G28 W ; home all without mesh bed level
G80 X67.9241 Y119.909 W35.3083 H35.3083 ; mesh bed levelling

G1 Z0.2 F720
G1 Y-3 F1000 ; go outside print area
G92 E0
G1 X60 E9 F1000 ; intro line
G1 X100 E12.5 F1000 ; intro line

G92 E0
M221 S95

; Don't change E values below. Excessive value can damage the printer.

M907 E538 ; set extruder motor current
G21 ; set units to millimeters
G90 ; use absolute coordinates
M83 ; use relative distances for extrusion

M900 K0.05 ; Filament gcode LA 1.5
M900 K30 ; Filament gcode LA 1.0




M107
;LAYER_CHANGE
;Z:0.2
;HEIGHT:0.2
G1 E-.8 F2100
G1 Z.6 F720
G1 X71.852 Y120.849 F10800
G1 Z.2 F720
M73 Q1 S12
G1 E.8 F2100
M204 S800
;TYPE:Skirt/Brim
;WIDTH:0.42
G1 F1200
G1 X73.666 Y120.097 E.06157
G1 X97.491 Y120.097 E.74702
G1 X99.305 Y120.849 E.06157
M73 P1 R12
G1 X102.292 Y123.836 E.13245
G1 X103.044 Y125.65 E.06157
G1 X103.044 Y149.475 E.74702
G1 X102.292 Y151.29 E.0616
G1 X99.305 Y154.277 E.13245
G1 X97.491 Y155.029 E.06157
G1 X73.666 Y155.029 E.74702
G1 X71.852 Y154.277 E.06157
G1 X68.864 Y151.29 E.13247
G1 X68.113 Y149.475 E.06159
G1 X68.113 Y125.65 E.74702
G1 X68.864 Y123.836 E.06156
G1 X71.809 Y120.891 E.13059
M204 S1000
G1 X71.809 Y120.891 F10800
G1 X72.076 Y121.158
M204 S800
G1 F1200
G1 X72.118 Y121.115 E.00188
G1 X73.666 Y120.474 E.05253
G1 X97.491 Y120.474 E.74702
G1 X99.038 Y121.115 E.0525
M73 Q2 S12
G1 X102.026 Y124.103 E.13249
M73 P2 R12
G1 X102.667 Y125.65 E.0525
G1 X102.667 Y149.475 E.74702
G1 X102.026 Y151.023 E.05253
G1 X99.038 Y154.01 E.13247
G1 X97.491 Y154.651 E.0525
G1 X73.666 Y154.651 E.74702
G1 X72.118 Y154.01 E.05253
G1 X69.131 Y151.023 E.13245
G1 X68.49 Y149.475 E.05253
G1 X68.49 Y125.65 E.74702
G1 X69.131 Y124.103 E.0525
G1 X72.033 Y121.2 E.1287
M204 S1000
;WIPE_START
G1 F8640
G1 X72.076 Y121.158 E-.01388
G1 X72.118 Y121.115 E-.01388
G1 X73.666 Y120.474 E-.38687
G1 X75.335 Y120.474 E-.38537
;WIPE_END
G1 Z.6 F720
G1 X73.383 Y123.56 F10800
G1 Z.2 F720
G1 E.8 F2100
M204 S800
G1 F1200
G1 X75.332 Y122.949 E.06404
G1 X95.768 Y122.953 E.64076
G1 X96.788 Y123.147 E.03255
G1 X97.766 Y123.563 E.03332
G1 X98.891 Y124.458 E.04507
G1 X99.783 Y125.797 E.05045
G1 X100.192 Y127.342 E.05011
G1 X100.192 Y147.783 E.64091
G1 X99.835 Y149.212 E.04618
M73 P3 R12
M73 Q3 S12
G1 X99.015 Y150.53 E.04867
G1 X98.378 Y151.137 E.02759
G1 X97.774 Y151.565 E.02321
G1 X95.825 Y152.176 E.06404
G1 X75.359 Y152.176 E.6417
G1 X73.929 Y151.82 E.04621
G1 X72.611 Y150.999 E.04869
G1 X72.005 Y150.363 E.02754
G1 X71.576 Y149.758 E.02325
G1 X70.965 Y147.809 E.06404
G1 X70.965 Y127.343 E.6417
G1 X71.321 Y125.914 E.04617
G1 X72.142 Y124.596 E.04869
G1 X72.779 Y123.989 E.02759
G1 X73.334 Y123.595 E.02134
M204 S1000
G1 X73.334 Y123.595 F10800
G1 X73.551 Y123.903
M204 S800
G1 F1200
G1 X73.576 Y123.885 E.00097
G1 X75.361 Y123.326 E.05865
G1 X95.75 Y123.33 E.63928
G1 X96.696 Y123.513 E.03021
G1 X97.593 Y123.899 E.03062
G1 X98.632 Y124.734 E.04179
G1 X99.428 Y125.925 E.04492
G1 X99.815 Y127.367 E.04681
G1 X99.815 Y147.759 E.63938
G1 X99.477 Y149.09 E.04306
G1 X98.709 Y150.308 E.04515
G1 X98.13 Y150.852 E.02491
G1 X97.581 Y151.24 E.02108
G1 X95.796 Y151.799 E.05865
G1 X75.382 Y151.799 E.64007
G1 X74.052 Y151.462 E.04302
G1 X72.834 Y150.694 E.04515
G1 X72.289 Y150.115 E.02493
M73 Q4 S12
G1 X71.901 Y149.565 E.0211
G1 X71.342 Y147.781 E.05862
G1 X71.342 Y127.367 E.64007
G1 X71.679 Y126.036 E.04305
M73 P4 R12
G1 X72.447 Y124.818 E.04515
G1 X73.027 Y124.273 E.02495
G1 X73.502 Y123.938 E.01822
M204 S1000
G1 X73.502 Y123.938 F10800
G1 X73.743 Y124.232
M204 S800
G1 F1200
G1 X73.769 Y124.211 E.00105
G1 X75.39 Y123.704 E.05325
G1 X95.731 Y123.707 E.63778
G1 X96.602 Y123.879 E.02784
G1 X97.418 Y124.234 E.0279
G1 X98.371 Y125.008 E.03849
G1 X99.096 Y126.106 E.04125
G1 X99.438 Y127.391 E.04169
G1 X99.438 Y147.735 E.63787
G1 X99.12 Y148.965 E.03983
G1 X98.405 Y150.083 E.04161
G1 X97.388 Y150.915 E.0412
G1 X95.767 Y151.422 E.05325
G1 X75.407 Y151.422 E.63837
G1 X74.176 Y151.105 E.03986
M73 P4 R11
G1 X73.058 Y150.39 E.04161
G1 X72.226 Y149.373 E.0412
G1 X71.719 Y147.752 E.05325
G1 X71.719 Y127.391 E.6384
G1 X72.037 Y126.16 E.03986
G1 X72.751 Y125.043 E.04157
G1 X73.696 Y124.27 E.03828
M204 S1000
G1 X73.696 Y124.27 F10800
G1 X73.933 Y124.559
M204 S800
G1 F1200
G1 X73.961 Y124.537 E.00112
G1 X75.418 Y124.081 E.04787
G1 X95.712 Y124.084 E.6363
G1 X96.507 Y124.244 E.02543
M73 Q5 S11
G1 X97.242 Y124.568 E.02519
G1 X98.108 Y125.28 E.03515
G1 X98.763 Y126.286 E.03764
M73 P5 R11
G1 X99.061 Y127.415 E.03661
G1 X99.061 Y147.71 E.63634
G1 X98.763 Y148.84 E.03664
G1 X98.132 Y149.823 E.03662
G1 X97.637 Y150.281 E.02114
G1 X97.196 Y150.589 E.01687
G1 X95.739 Y151.045 E.04787
G1 X75.431 Y151.045 E.63674
G1 X74.301 Y150.748 E.03663
G1 X73.319 Y150.116 E.03662
G1 X72.86 Y149.622 E.02114
G1 X72.552 Y149.181 E.01687
G1 X72.096 Y147.723 E.0479
G1 X72.096 Y127.416 E.63671
G1 X72.393 Y126.286 E.03663
G1 X73.025 Y125.303 E.03664
G1 X73.887 Y124.597 E.03494
M204 S1000
G1 X73.887 Y124.597 F10800
G1 X74.124 Y124.886
M204 S800
G1 F1200
G1 X74.152 Y124.863 E.00114
G1 X75.447 Y124.458 E.04254
G1 X95.693 Y124.461 E.6348
G1 X96.374 Y124.598 E.02178
G1 X97.065 Y124.902 E.02367
G1 X97.845 Y125.551 E.03181
G1 X98.407 Y126.413 E.03226
G1 X98.683 Y127.441 E.03337
G1 X98.683 Y147.686 E.63477
G1 X98.429 Y148.664 E.03168
G1 X97.857 Y149.563 E.03341
G1 X97.005 Y150.263 E.03457
G1 X95.71 Y150.668 E.04254
G1 X75.455 Y150.668 E.63508
G1 X74.478 Y150.414 E.03165
M73 Q6 S11
G1 X73.578 Y149.842 E.03344
M73 P6 R11
G1 X72.878 Y148.99 E.03457
G1 X72.473 Y147.695 E.04254
G1 X72.473 Y127.44 E.63508
G1 X72.728 Y126.462 E.03169
G1 X73.299 Y125.563 E.03339
G1 X74.077 Y124.924 E.03157
M204 S1000
G1 X74.077 Y124.924 F10800
G1 X74.315 Y125.212
M204 S800
G1 F1200
G1 X74.342 Y125.19 E.00109
G1 X75.475 Y124.835 E.03723
G1 X95.673 Y124.838 E.63329
G1 X96.277 Y124.963 E.01934
G1 X96.886 Y125.235 E.02091
G1 X97.579 Y125.82 E.02844
G1 X98.073 Y126.591 E.02871
G1 X98.306 Y127.465 E.02836
G1 X98.306 Y147.661 E.63323
G1 X98.073 Y148.538 E.02845
G1 X97.584 Y149.302 E.02844
G1 X97.145 Y149.709 E.01877
G1 X96.815 Y149.936 E.01256
G1 X95.681 Y150.291 E.03726
G1 X75.48 Y150.291 E.63339
G1 X74.604 Y150.057 E.02843
G1 X73.839 Y149.568 E.02847
G1 X73.432 Y149.129 E.01877
G1 X73.205 Y148.799 E.01256
G1 X72.85 Y147.666 E.03723
G1 X72.85 Y127.465 E.63339
G1 X73.084 Y126.588 E.02846
G1 X73.573 Y125.823 E.02847
G1 X74.269 Y125.25 E.02827
M204 S1000
G1 X74.269 Y125.25 F10800
G1 X74.506 Y125.537
M204 S800
G1 F1200
G1 X74.531 Y125.517 E.001
G1 X75.504 Y125.212 E.03197
G1 X95.653 Y125.216 E.63176
G1 X96.177 Y125.327 E.01679
G1 X96.705 Y125.567 E.01819
G1 X97.313 Y126.088 E.02511
M73 Q7 S11
G1 X97.718 Y126.719 E.02351
G1 X97.929 Y127.491 E.02509
G1 X97.929 Y147.635 E.6316
G1 X97.717 Y148.409 E.02516
M73 P7 R11
G1 X97.31 Y149.042 E.0236
G1 X96.626 Y149.609 E.02786
G1 X95.653 Y149.914 E.03197
G1 X75.506 Y149.914 E.6317
G1 X74.732 Y149.702 E.02516
G1 X74.099 Y149.295 E.0236
G1 X73.533 Y148.611 E.02784
G1 X73.227 Y147.637 E.03201
G1 X73.227 Y127.491 E.63166
G1 X73.44 Y126.717 E.02517
G1 X73.846 Y126.084 E.02358
G1 X74.46 Y125.576 E.02499
M204 S1000
G1 X74.46 Y125.576 F10800
G1 X74.699 Y125.861
M204 S800
G1 F1200
G1 X74.718 Y125.845 E.00078
G1 X75.533 Y125.589 E.02678
G1 X95.632 Y125.593 E.63019
G1 X96.075 Y125.69 E.01422
G1 X96.521 Y125.897 E.01542
G1 X97.044 Y126.354 E.02178
G1 X97.363 Y126.849 E.01846
G1 X97.552 Y127.518 E.0218
G1 X97.552 Y147.608 E.62991
G1 X97.362 Y148.278 E.02184
G1 X97.037 Y148.781 E.01878
G1 X96.654 Y149.136 E.01637
G1 X96.439 Y149.28 E.00811
G1 X95.624 Y149.537 E.02679
G1 X75.533 Y149.537 E.62994
G1 X74.863 Y149.347 E.02184
G1 X74.36 Y149.021 E.01879
G1 X74.006 Y148.639 E.01633
G1 X73.861 Y148.423 E.00816
G1 X73.604 Y147.608 E.02679
G1 X73.604 Y127.518 E.62991
G1 X73.794 Y126.847 E.02187
M73 P8 R11
M73 Q8 S11
G1 X74.12 Y126.345 E.01877
G1 X74.653 Y125.9 E.02177
M204 S1000
G1 X74.653 Y125.9 F10800
G1 X74.893 Y126.184
M204 S800
G1 F1200
G1 X74.903 Y126.175 E.00042
G1 X75.562 Y125.966 E.02168
G1 X95.609 Y125.97 E.62856
G1 X96.334 Y126.225 E.0241
G1 X96.774 Y126.617 E.01848
G1 X97.009 Y126.982 E.01361
G1 X97.175 Y127.546 E.01843
G1 X97.175 Y147.58 E.62815
G1 X97.009 Y148.144 E.01843
G1 X96.764 Y148.52 E.01407
G1 X96.253 Y148.951 E.02096
G1 X95.595 Y149.16 E.02165
G1 X75.561 Y149.16 E.62815
G1 X74.997 Y148.994 E.01843
G1 X74.621 Y148.748 E.01409
G1 X74.19 Y148.238 E.02094
G1 X73.981 Y147.579 E.02168
G1 X73.981 Y127.546 E.62812
G1 X74.148 Y126.982 E.01844
G1 X74.393 Y126.606 E.01407
G1 X74.847 Y126.222 E.01864
M204 S1000
G1 X74.847 Y126.222 F10800
G1 X75.085 Y126.505
M204 S800
G1 F1200
G1 X75.592 Y126.343 E.01669
G1 X95.588 Y126.347 E.62696
G1 X96.146 Y126.553 E.01865
G1 X96.501 Y126.878 E.01509
G1 X96.798 Y127.575 E.02376
G1 X96.798 Y147.551 E.62633
G1 X96.657 Y148.006 E.01494
G1 X96.491 Y148.259 E.00949
G1 X96.071 Y148.62 E.01736
G1 X95.565 Y148.783 E.01667
G1 X75.591 Y148.783 E.62627
G1 X75.135 Y148.642 E.01497
M73 P9 R11
M73 Q9 S11
G1 X74.883 Y148.476 E.00946
G1 X74.521 Y148.056 E.01739
G1 X74.359 Y147.55 E.01666
G1 X74.359 Y127.575 E.6263
G1 X74.499 Y127.12 E.01493
G1 X74.665 Y126.867 E.00949
G1 X75.04 Y126.545 E.0155
M204 S1000
G1 X75.04 Y126.545 F10800
G1 X75.261 Y126.839
M204 S800
G1 F1200
G1 X75.622 Y126.72 E.01192
G1 X95.565 Y126.724 E.6253
G1 X95.956 Y126.881 E.01321
G1 X96.225 Y127.136 E.01162
G1 X96.421 Y127.607 E.016
G1 X96.421 Y147.519 E.62433
G1 X96.219 Y147.997 E.01627
G1 X95.896 Y148.287 E.01361
G1 X95.534 Y148.406 E.01195
G1 X75.622 Y148.406 E.62433
G1 X75.144 Y148.203 E.01628
G1 X74.855 Y147.88 E.01359
G1 X74.736 Y147.519 E.01192
G1 X74.736 Y127.607 E.62433
G1 X74.938 Y127.129 E.01627
G1 X75.216 Y126.879 E.01172
M204 S1000
G1 X75.216 Y126.879 F10800
G1 X75.445 Y127.174
M204 S800
G1 F1200
G1 X75.657 Y127.097 E.00707
G1 X95.513 Y127.097 E.62257
G1 X95.944 Y127.388 E.01631
G1 X96.044 Y127.642 E.00856
G1 X96.044 Y147.484 E.62213
G1 X95.946 Y147.735 E.00845
M73 P10 R11
M73 Q10 S11
G1 X95.712 Y147.952 E.01001
G1 X95.499 Y148.029 E.0071
G1 X75.657 Y148.029 E.62213
G1 X75.406 Y147.931 E.00845
G1 X75.189 Y147.697 E.01001
G1 X75.113 Y147.484 E.00709
G1 X75.113 Y127.642 E.62213
G1 X75.21 Y127.391 E.00844
G1 X75.401 Y127.214 E.00816
M204 S1000
G1 X75.401 Y127.214 F10800
G1 X75.639 Y127.521
M204 S800
G1 F1200
G1 X75.699 Y127.474 E.00239
G1 X95.527 Y127.503 E.62169
G1 X95.667 Y127.684 E.00717
G1 X95.638 Y147.511 E.62166
G1 X95.457 Y147.651 E.00717
G1 X75.63 Y147.623 E.62166
G1 X75.49 Y147.442 E.00717
G1 X75.518 Y127.615 E.62166
G1 X75.591 Y127.558 E.0029
M204 S1000
;WIPE_START
G1 F8640
G1 X75.639 Y127.521 E-.01399
G1 X75.699 Y127.474 E-.0176
G1 X79.027 Y127.479 E-.76841
;WIPE_END
G1 Z.6 F720
; printing object Another_Hollow_Cube.stl id:0 copy 0
G1 X93.509 Y145.53 F10800
G1 Z.2 F720
G1 E.8 F2100
M204 S800
;TYPE:Perimeter
;WIDTH:0.419999
G1 F1200
G1 X93.231 Y145.675 E.00983
G1 X93.133 Y145.683 E.00308
M73 Q11 S11
G1 X78.024 Y145.683 E.47373
G1 X77.624 Y145.518 E.01357
M73 P11 R11
G1 X77.466 Y145.215 E.01071
G1 X77.458 Y145.118 E.00305
G1 X77.458 Y130.008 E.47376
G1 X77.624 Y129.608 E.01358
G1 X77.926 Y129.451 E.01067
G1 X78.024 Y129.442 E.00309
G1 X93.133 Y129.442 E.47373
G1 X93.533 Y129.608 E.01358
G1 X93.699 Y130.008 E.01358
G1 X93.699 Y145.118 E.47376
G1 X93.69 Y145.215 E.00305
G1 X93.548 Y145.489 E.00968
M204 S1000
G1 X93.234 Y145.264 F10800
M204 S800
;TYPE:External perimeter
G1 F1200
G1 X93.133 Y145.306 E.00343
G1 X78.024 Y145.306 E.47373
G1 X77.89 Y145.251 E.00454
G1 X77.835 Y145.118 E.00451
G1 X77.835 Y130.008 E.47376
G1 X77.89 Y129.875 E.00451
G1 X78.024 Y129.82 E.00454
G1 X93.133 Y129.82 E.47373
G1 X93.266 Y129.875 E.00451
G1 X93.322 Y130.008 E.00452
G1 X93.322 Y145.118 E.47376
G1 X93.276 Y145.228 E.00374
M204 S1000
;WIPE_START
G1 F8640
G1 X93.234 Y145.264 E-.01277
G1 X93.133 Y145.306 E-.02526
G1 X89.833 Y145.306 E-.76197
;WIPE_END
G1 Z.6 F720
G1 X94.791 Y128.35 F10800
G1 Z.2 F720
G1 E.8 F2100
M204 S800
;TYPE:Perimeter
G1 F1200
G1 X94.791 Y129.087 E.02311
G1 X94.791 Y146.776 E.55463
G1 X76.365 Y146.776 E.57773
M73 P12 R11
M73 Q12 S11
G1 X76.365 Y128.35 E.57773
G1 X94.731 Y128.35 E.57585
M204 S1000
G1 X94.731 Y128.35 F10800
G1 X95.168 Y127.973
M204 S800
;TYPE:External perimeter
G1 F1200
G1 X95.168 Y129.087 E.03493
G1 X95.168 Y147.153 E.56645
G1 X75.988 Y147.153 E.60137
M73 P12 R10
G1 X75.988 Y127.973 E.60137
G1 X95.108 Y127.973 E.59949
M204 S1000
;WIPE_START
G1 F8640
M73 Q12 S10
G1 X95.168 Y127.973 E-.01385
G1 X95.168 Y129.087 E-.25723
G1 X95.168 Y131.378 E-.52892
;WIPE_END
G1 Z.6 F720
G1 X93.848 Y128.52 F10800
G1 Z.2 F720
G1 E.8 F2100
M204 S800
;TYPE:Solid infill
;WIDTH:0.425479
G1 F1200
G1 X94.452 Y129.124 E.02717
G1 X94.452 Y129.665 E.01721
G1 X93.476 Y128.689 E.04391
G1 X92.935 Y128.689 E.01721
G1 X94.622 Y130.376 E.07589
M204 S1000
G1 X94.622 Y130.376 F10800
M73 P13 R10
M73 Q13 S10
G1 X93.868 Y130.163
M204 S800
G1 F1200
G1 X94.452 Y130.747 E.02627
G1 X94.452 Y131.288 E.01721
G1 X94.038 Y130.874 E.01862
G1 X94.038 Y131.415 E.01721
G1 X94.452 Y131.829 E.01862
G1 X94.452 Y132.37 E.01721
G1 X94.038 Y131.956 E.01862
G1 X94.038 Y132.497 E.01721
G1 X94.452 Y132.911 E.01862
G1 X94.452 Y133.452 E.01721
G1 X94.038 Y133.038 E.01862
G1 X94.038 Y133.579 E.01721
G1 X94.452 Y133.993 E.01862
G1 X94.452 Y134.534 E.01721
G1 X94.038 Y134.12 E.01862
G1 X94.038 Y134.661 E.01721
G1 X94.452 Y135.075 E.01862
G1 X94.452 Y135.616 E.01721
G1 X94.038 Y135.202 E.01862
G1 X94.038 Y135.743 E.01721
G1 X94.452 Y136.157 E.01862
G1 X94.452 Y136.698 E.01721
G1 X94.038 Y136.284 E.01862
G1 X94.038 Y136.825 E.01721
G1 X94.452 Y137.239 E.01862
G1 X94.452 Y137.78 E.01721
G1 X94.038 Y137.366 E.01862
G1 X94.038 Y137.907 E.01721
G1 X94.452 Y138.321 E.01862
G1 X94.452 Y138.862 E.01721
G1 X94.038 Y138.448 E.01862
G1 X94.038 Y138.989 E.01721
G1 X94.452 Y139.403 E.01862
G1 X94.452 Y139.944 E.01721
G1 X94.038 Y139.531 E.0186
G1 X94.038 Y140.072 E.01721
G1 X94.452 Y140.485 E.0186
G1 X94.452 Y141.026 E.01721
G1 X94.038 Y140.613 E.0186
G1 X94.038 Y141.154 E.01721
G1 X94.452 Y141.567 E.0186
G1 X94.452 Y142.108 E.01721
G1 X94.038 Y141.695 E.0186
G1 X94.038 Y142.236 E.01721
G1 X94.452 Y142.649 E.0186
G1 X94.452 Y143.19 E.01721
G1 X94.038 Y142.777 E.0186
G1 X94.038 Y143.318 E.01721
G1 X94.452 Y143.731 E.0186
G1 X94.452 Y144.272 E.01721
G1 X94.038 Y143.859 E.0186
G1 X94.038 Y144.4 E.01721
G1 X94.452 Y144.813 E.0186
G1 X94.452 Y145.354 E.01721
G1 X94.038 Y144.941 E.0186
G1 X94.024 Y145.291 E.01114
G1 X93.963 Y145.407 E.00417
G1 X94.452 Y145.896 E.022
G1 X94.452 Y146.436 E.01718
G1 X93.778 Y145.763 E.0303
G1 X93.422 Y145.948 E.01276
G1 X93.911 Y146.436 E.02198
G1 X93.37 Y146.436 E.01721
G1 X92.956 Y146.023 E.0186
G1 X92.415 Y146.023 E.01721
G1 X92.829 Y146.436 E.0186
G1 X92.288 Y146.436 E.01721
G1 X91.874 Y146.023 E.0186
G1 X91.333 Y146.023 E.01721
G1 X91.747 Y146.436 E.0186
G1 X91.206 Y146.436 E.01721
G1 X90.792 Y146.023 E.0186
G1 X90.251 Y146.023 E.01721
G1 X90.665 Y146.436 E.0186
G1 X90.124 Y146.436 E.01721
G1 X89.71 Y146.023 E.0186
