; generated by PrusaSlicer 2.9.0 on 2025-01-12 at 16:55:22 UTC


;
;
; 

; external perimeters extrusion width = 0.45mm
; perimeters extrusion width = 0.45mm
; infill extrusion width = 0.45mm
; solid infill extrusion width = 0.45mm
; top infill extrusion width = 0.40mm
; first layer extrusion width = 0.42mm

M73 P0 R22
M73 Q0 S22
M201 X1000 Y1000 Z200 E5000 ; sets maximum accelerations, mm/sec^2
M203 X200 Y200 Z12 E120 ; sets maximum feedrates, mm / sec
M204 S1250 T1250 ; sets acceleration (S) and retract acceleration (R), mm/sec^2
M205 X8.00 Y8.00 Z0.40 E4.50 ; sets the jerk limits, mm/sec
M205 S0 T0 ; sets the minimum extruding and travel feed rate, mm/sec

; printing object Another_Hollow_Cube.stl id:0 copy 0
; stop printing object Another_Hollow_Cube.stl id:0 copy 0

;TYPE:Custom
M862.3 P "MK3S" ; printer model check
M862.1 P0.4 ; nozzle diameter check
M115 U3.14.1 ; tell printer latest fw version
G90 ; use absolute coordinates
M83 ; extruder relative mode
M104 S215 ; set extruder temp
M140 S60 ; set bed temp
M190 S60 ; wait for bed temp
M109 S215 ; wait for extruder temp
G28 W ; home all without mesh bed level
G80 X55.2103 Y37.3403 W35.3083 H35.3083 ; mesh bed levelling

G1 Z0.2 F720
G1 Y-3 F1000 ; go outside print area
G92 E0
G1 X60 E9 F1000 ; intro line
G1 X100 E12.5 F1000 ; intro line

G92 E0
M221 S95

; Don't change E values below. Excessive value can damage the printer.
M907 E430 ; set extruder motor current
G21 ; set units to millimeters
G90 ; use absolute coordinates
M83 ; use relative distances for extrusion

M900 K0.05 ; Filament gcode LA 1.5
M900 K30 ; Filament gcode LA 1.0




M107
;LAYER_CHANGE
;Z:0.2
;HEIGHT:0.2
G1 E-.8 F2100
G1 Z.6 F720
G1 X56.15 Y41.268 F10800
G1 Z.2 F720
G1 E.8 F2100
M204 S800
;TYPE:Skirt/Brim
;WIDTH:0.42
G1 F1200
G1 X59.138 Y38.28 E.13249
G1 X60.952 Y37.529 E.06156
G1 X84.777 Y37.529 E.74702
G1 X86.591 Y38.28 E.06156
G1 X89.579 Y41.268 E.13249
G1 X90.33 Y43.082 E.06156
G1 X90.33 Y66.907 E.74702
G1 X89.579 Y68.721 E.06156
G1 X86.591 Y71.709 E.13249
G1 X84.777 Y72.46 E.06156
G1 X60.952 Y72.46 E.74702
G1 X59.138 Y71.709 E.06156
G1 X56.15 Y68.721 E.13249
G1 X55.399 Y66.907 E.06156
G1 X55.399 Y43.082 E.74702
G1 X56.127 Y41.323 E.05969
M204 S1000
G1 X56.127 Y41.323 F10800
G1 X56.417 Y41.534
M204 S800
G1 F1200
G1 X59.404 Y38.547 E.13245
G1 X60.952 Y37.906 E.05253
M73 P1 R22
M73 Q1 S22
G1 X84.777 Y37.906 E.74702
G1 X86.325 Y38.547 E.05253
G1 X89.312 Y41.534 E.13245
G1 X89.953 Y43.082 E.05253
G1 X89.953 Y66.907 E.74702
G1 X89.312 Y68.454 E.0525
G1 X86.325 Y71.442 E.13247
G1 X84.777 Y72.083 E.05253
G1 X60.952 Y72.083 E.74702
G1 X59.404 Y71.442 E.05253
G1 X56.417 Y68.454 E.13247
G1 X55.776 Y66.907 E.0525
G1 X55.776 Y43.082 E.74702
G1 X56.394 Y41.59 E.05063
M204 S1000
;WIPE_START
G1 F8640
G1 X56.417 Y41.534 E-.01398
G1 X58.824 Y39.127 E-.78602
;WIPE_END
G1 Z.6 F720
G1 X58.777 Y43.073 F10800
G1 Z.2 F720
G1 E.8 F2100
M204 S800
G1 F1200
G1 X59.428 Y42.027 E.03863
G1 X60.065 Y41.421 E.02757
G1 X60.669 Y40.992 E.02323
G1 X62.619 Y40.381 E.06407
G1 X83.054 Y40.385 E.64073
G1 X84.074 Y40.579 E.03255
G1 X85.052 Y40.994 E.03331
G1 X86.177 Y41.89 E.04509
G1 X87.07 Y43.228 E.05044
G1 X87.478 Y44.773 E.0501
G1 X87.478 Y65.214 E.64091
G1 X87.121 Y66.643 E.04618
G1 X86.301 Y67.961 E.04867
G1 X85.664 Y68.568 E.02759
G1 X85.06 Y68.997 E.02323
G1 X83.111 Y69.608 E.06404
G1 X62.645 Y69.608 E.6417
G1 X61.216 Y69.251 E.04618
G1 X59.898 Y68.431 E.04867
G1 X59.291 Y67.794 E.02759
G1 X58.862 Y67.19 E.02323
G1 X58.251 Y65.241 E.06404
G1 X58.251 Y44.775 E.6417
G1 X58.607 Y43.346 E.04617
G1 X58.745 Y43.124 E.0082
M204 S1000
G1 X58.745 Y43.124 F10800
G1 X59.058 Y43.321
M204 S800
G1 F1200
G1 X59.733 Y42.25 E.03969
G1 X60.313 Y41.705 E.02495
G1 X60.862 Y41.317 E.02108
G1 X62.647 Y40.758 E.05865
G1 X83.036 Y40.762 E.63928
G1 X83.982 Y40.945 E.03021
G1 X84.879 Y41.33 E.03061
G1 X85.918 Y42.165 E.04179
G1 X86.714 Y43.356 E.04492
G1 X87.101 Y44.798 E.04681
M73 P2 R22
G1 X87.101 Y65.19 E.63938
M73 Q2 S22
G1 X86.764 Y66.521 E.04305
G1 X85.996 Y67.739 E.04515
G1 X85.416 Y68.284 E.02495
G1 X84.867 Y68.672 E.02108
G1 X83.082 Y69.231 E.05865
G1 X62.669 Y69.231 E.64004
G1 X61.338 Y68.894 E.04305
G1 X60.12 Y68.126 E.04515
G1 X59.575 Y67.546 E.02495
G1 X59.187 Y66.997 E.02108
G1 X58.628 Y65.212 E.05865
G1 X58.628 Y44.798 E.64007
M73 P2 R21
G1 X58.965 Y43.468 E.04302
G1 X59.026 Y43.372 E.00357
M204 S1000
G1 X59.026 Y43.372 F10800
G1 X59.336 Y43.57
M204 S800
G1 F1200
G1 X60.037 Y42.474 E.04079
G1 X61.055 Y41.642 E.04122
G1 X62.676 Y41.135 E.05325
G1 X83.017 Y41.139 E.63778
G1 X83.888 Y41.311 E.02784
G1 X84.705 Y41.665 E.02792
G1 X85.657 Y42.439 E.03847
G1 X86.382 Y43.538 E.04128
G1 X86.724 Y44.823 E.04169
G1 X86.724 Y65.166 E.63784
G1 X86.406 Y66.397 E.03986
G1 X85.692 Y67.515 E.04159
G1 X84.674 Y68.346 E.0412
G1 X83.054 Y68.854 E.05323
G1 X62.693 Y68.854 E.6384
G1 X61.462 Y68.536 E.03986
G1 X60.344 Y67.822 E.04159
G1 X59.512 Y66.804 E.04122
G1 X59.005 Y65.183 E.05325
G1 X59.005 Y44.823 E.63837
G1 X59.314 Y43.625 E.03879
M204 S1000
G1 X59.314 Y43.625 F10800
G1 X59.678 Y43.721
M204 S800
G1 F1200
G1 X59.68 Y43.717 E.00014
G1 X60.311 Y42.735 E.0366
G1 X61.247 Y41.968 E.03794
G1 X62.704 Y41.512 E.04787
G1 X82.998 Y41.516 E.6363
G1 X83.793 Y41.676 E.02543
M73 Q2 S21
G1 X84.528 Y41.999 E.02517
G1 X85.395 Y42.711 E.03518
G1 X86.049 Y43.717 E.03762
G1 X86.347 Y44.847 E.03664
G1 X86.347 Y65.141 E.6363
G1 X86.049 Y66.272 E.03667
G1 X85.418 Y67.254 E.0366
G1 X84.923 Y67.713 E.02117
G1 X84.482 Y68.021 E.01687
G1 X83.025 Y68.477 E.04787
G1 X62.717 Y68.477 E.63674
G1 X61.587 Y68.179 E.03664
G1 X60.605 Y67.548 E.0366
G1 X60.146 Y67.053 E.02117
G1 X59.838 Y66.612 E.01687
G1 X59.382 Y65.155 E.04787
G1 X59.382 Y44.847 E.63674
G1 X59.663 Y43.779 E.03463
M73 P3 R21
M73 Q3 S21
M204 S1000
G1 X59.663 Y43.779 F10800
G1 X60.014 Y43.894
M204 S800
G1 F1200
G1 X60.585 Y42.994 E.03342
G1 X61.438 Y42.294 E.0346
G1 X62.733 Y41.889 E.04254
G1 X82.979 Y41.893 E.6348
G1 X83.66 Y42.029 E.02177
G1 X84.352 Y42.334 E.02371
G1 X85.131 Y42.983 E.03179
G1 X85.693 Y43.844 E.03224
G1 X85.97 Y44.872 E.03338
G1 X85.97 Y65.118 E.6348
G1 X85.715 Y66.095 E.03166
G1 X85.144 Y66.994 E.03339
G1 X84.291 Y67.694 E.0346
G1 X82.996 Y68.1 E.04255
G1 X62.741 Y68.1 E.63508
G1 X61.764 Y67.845 E.03166
G1 X60.865 Y67.274 E.03339
G1 X60.165 Y66.421 E.0346
G1 X59.759 Y65.126 E.04255
G1 X59.759 Y44.871 E.63508
G1 X59.999 Y43.952 E.02978
M204 S1000
G1 X59.999 Y43.952 F10800
G1 X60.362 Y44.049
M204 S800
G1 F1200
G1 X60.37 Y44.02 E.00094
G1 X60.859 Y43.255 E.02847
G1 X61.628 Y42.621 E.03125
G1 X62.762 Y42.266 E.03726
G1 X82.959 Y42.27 E.63326
G1 X83.563 Y42.394 E.01933
G1 X84.173 Y42.667 E.02095
G1 X84.866 Y43.251 E.02842
G1 X85.359 Y44.022 E.02869
G1 X85.593 Y44.896 E.02837
G1 X85.593 Y65.092 E.63323
G1 X85.359 Y65.969 E.02846
G1 X84.87 Y66.734 E.02847
G1 X84.431 Y67.141 E.01877
G1 X84.101 Y67.368 E.01256
G1 X82.968 Y67.723 E.03723
G1 X62.766 Y67.723 E.63342
G1 X61.89 Y67.489 E.02843
G1 X61.125 Y67 E.02847
G1 X60.718 Y66.561 E.01877
G1 X60.491 Y66.231 E.01256
G1 X60.136 Y65.098 E.03723
G1 X60.136 Y44.896 E.63342
G1 X60.347 Y44.107 E.02561
M204 S1000
G1 X60.71 Y44.206 F10800
M204 S800
G1 F1200
G1 X60.726 Y44.148 E.00189
G1 X61.133 Y43.515 E.0236
G1 X61.817 Y42.949 E.02784
G1 X62.79 Y42.643 E.03198
G1 X82.939 Y42.647 E.63176
G1 X83.464 Y42.758 E.01682
G1 X83.991 Y42.998 E.01816
G1 X84.599 Y43.519 E.02511
G1 X85.004 Y44.15 E.02351
G1 X85.215 Y44.922 E.02509
G1 X85.215 Y65.066 E.6316
G1 X85.003 Y65.841 E.02519
G1 X84.596 Y66.473 E.02357
G1 X83.912 Y67.04 E.02786
G1 X82.939 Y67.345 E.03197
G1 X62.792 Y67.345 E.6317
G1 X62.018 Y67.133 E.02516
M73 P4 R21
M73 Q4 S21
G1 X61.386 Y66.726 E.02357
G1 X60.819 Y66.042 E.02786
G1 X60.513 Y65.069 E.03198
G1 X60.513 Y44.922 E.6317
G1 X60.694 Y44.264 E.0214
M204 S1000
G1 X60.694 Y44.264 F10800
G1 X61.056 Y44.367
M204 S800
G1 F1200
G1 X61.08 Y44.279 E.00286
G1 X61.406 Y43.776 E.01879
G1 X62.004 Y43.277 E.02442
G1 X62.819 Y43.02 E.02679
G1 X82.918 Y43.024 E.63019
G1 X83.361 Y43.122 E.01423
G1 X83.807 Y43.328 E.0154
G1 X84.33 Y43.785 E.02178
G1 X84.649 Y44.281 E.01849
G1 X84.838 Y44.949 E.02177
G1 X84.838 Y65.04 E.62994
G1 X84.649 Y65.71 E.02183
G1 X84.323 Y66.213 E.01879
G1 X83.94 Y66.567 E.01635
G1 X83.725 Y66.712 E.00813
G1 X82.91 Y66.968 E.02678
G1 X62.819 Y66.968 E.62994
G1 X62.149 Y66.778 E.02184
G1 X61.646 Y66.453 E.01878
G1 X61.292 Y66.07 E.01635
G1 X61.147 Y65.855 E.00813
G1 X60.891 Y65.04 E.02678
G1 X60.891 Y44.949 E.62994
G1 X61.039 Y44.424 E.0171
M204 S1000
G1 X61.039 Y44.424 F10800
G1 X61.399 Y44.53
M204 S800
G1 F1200
G1 X61.434 Y44.413 E.00383
G1 X61.679 Y44.037 E.01407
G1 X62.189 Y43.606 E.02094
G1 X62.848 Y43.398 E.02167
G1 X82.895 Y43.401 E.62856
G1 X83.62 Y43.657 E.02411
G1 X84.06 Y44.049 E.01848
G1 X84.295 Y44.414 E.01361
G1 X84.461 Y44.977 E.0184
G1 X84.461 Y65.012 E.62818
G1 X84.295 Y65.576 E.01843
G1 X84.05 Y65.951 E.01404
G1 X83.54 Y66.383 E.02096
G1 X82.881 Y66.591 E.02167
G1 X62.847 Y66.591 E.62815
G1 X62.283 Y66.425 E.01843
G1 X61.907 Y66.18 E.01407
G1 X61.476 Y65.669 E.02096
G1 X61.268 Y65.011 E.02164
G1 X61.268 Y44.977 E.62815
G1 X61.382 Y44.588 E.01271
M204 S1000
G1 X61.382 Y44.588 F10800
G1 X61.74 Y44.698
M204 S800
G1 F1200
G1 X61.785 Y44.551 E.00482
G1 X61.952 Y44.299 E.00948
G1 X62.371 Y43.937 E.01736
G1 X62.878 Y43.775 E.01669
G1 X82.874 Y43.778 E.62696
G1 X83.432 Y43.985 E.01866
G1 X83.787 Y44.31 E.01509
G1 X84.084 Y45.007 E.02376
G1 X84.084 Y64.982 E.6263
G1 X83.944 Y65.438 E.01496
G1 X83.777 Y65.69 E.00948
G1 X83.357 Y66.052 E.01739
G1 X82.851 Y66.214 E.01666
G1 X62.877 Y66.214 E.62627
G1 X62.421 Y66.074 E.01496
M73 P5 R21
M73 Q5 S21
G1 X62.169 Y65.907 E.00948
G1 X61.807 Y65.487 E.01739
G1 X61.645 Y64.981 E.01666
G1 X61.645 Y45.007 E.62627
G1 X61.722 Y44.756 E.00823
M204 S1000
G1 X61.722 Y44.756 F10800
G1 X62.078 Y44.906
M204 S800
G1 F1200
G1 X62.224 Y44.561 E.01175
G1 X62.547 Y44.271 E.01361
G1 X62.909 Y44.152 E.01195
G1 X82.852 Y44.155 E.6253
G1 X83.243 Y44.312 E.01321
G1 X83.511 Y44.567 E.0116
G1 X83.707 Y45.039 E.01602
G1 X83.707 Y64.95 E.6243
G1 X83.505 Y65.428 E.01627
G1 X83.182 Y65.718 E.01361
G1 X82.82 Y65.837 E.01195
G1 X62.909 Y65.837 E.6243
G1 X62.431 Y65.635 E.01627
G1 X62.141 Y65.312 E.01361
G1 X62.022 Y64.95 E.01195
G1 X62.022 Y45.039 E.6243
G1 X62.054 Y44.961 E.00264
M204 S1000
G1 X62.054 Y44.961 F10800
G1 X62.399 Y45.074
M204 S800
G1 F1200
G1 X62.496 Y44.822 E.00847
G1 X62.731 Y44.605 E.01003
G1 X62.944 Y44.529 E.00709
G1 X82.799 Y44.529 E.62254
G1 X83.231 Y44.819 E.01631
G1 X83.33 Y45.074 E.00858
G1 X83.33 Y64.915 E.6221
G1 X83.233 Y65.167 E.00847
G1 X82.998 Y65.384 E.01003
G1 X82.785 Y65.46 E.00709
G1 X62.944 Y65.46 E.6221
G1 X62.692 Y65.363 E.00847
G1 X62.475 Y65.128 E.01003
G1 X62.399 Y64.915 E.00709
G1 X62.399 Y45.134 E.62022
M204 S1000
G1 X62.399 Y45.134 F10800
G1 X62.805 Y45.134
M204 S800
G1 F1200
G1 X62.805 Y45.046 E.00276
G1 X62.986 Y44.906 E.00717
G1 X82.813 Y44.935 E.62166
G1 X82.953 Y45.116 E.00717
G1 X82.924 Y64.943 E.62166
G1 X82.743 Y65.083 E.00717
G1 X62.916 Y65.054 E.62166
G1 X62.776 Y64.873 E.00717
G1 X62.804 Y45.194 E.61702
M204 S1000
;WIPE_START
G1 F8640
M73 P6 R21
M73 Q6 S21
G1 X62.805 Y45.134 E-.01386
G1 X62.805 Y45.046 E-.02032
G1 X62.986 Y44.906 E-.05284
G1 X66.074 Y44.91 E-.71298
;WIPE_END
G1 Z.6 F720
; printing object Another_Hollow_Cube.stl id:0 copy 0
G1 X80.795 Y62.962 F10800
G1 Z.2 F720
G1 E.8 F2100
M204 S800
;TYPE:Perimeter
;WIDTH:0.419999
G1 F1200
G1 X80.517 Y63.106 E.00982
G1 X80.419 Y63.115 E.00309
G1 X65.31 Y63.115 E.47373
G1 X64.91 Y62.949 E.01358
G1 X64.753 Y62.647 E.01067
G1 X64.744 Y62.549 E.00309
G1 X64.744 Y47.44 E.47373
G1 X64.91 Y47.04 E.01358
G1 X65.212 Y46.883 E.01067
G1 X65.31 Y46.874 E.00309
G1 X80.419 Y46.874 E.47373
G1 X80.819 Y47.04 E.01358
G1 X80.985 Y47.44 E.01358
G1 X80.985 Y62.549 E.47373
G1 X80.976 Y62.647 E.00309
G1 X80.834 Y62.92 E.00965
M204 S1000
G1 X80.834 Y62.92 F10800
G1 X80.52 Y62.696
M204 S800
;TYPE:External perimeter
G1 F1200
G1 X80.419 Y62.738 E.00343
G1 X65.31 Y62.738 E.47373
G1 X65.176 Y62.683 E.00454
G1 X65.121 Y62.549 E.00454
G1 X65.121 Y47.44 E.47373
G1 X65.176 Y47.306 E.00454
G1 X65.31 Y47.251 E.00454
G1 X80.419 Y47.251 E.47373
G1 X80.553 Y47.306 E.00454
G1 X80.608 Y47.44 E.00454
G1 X80.608 Y62.549 E.47373
G1 X80.562 Y62.66 E.00377
M204 S1000
;WIPE_START
G1 F8640
G1 X80.52 Y62.696 E-.01277
G1 X80.419 Y62.738 E-.02526
G1 X77.119 Y62.738 E-.76197
;WIPE_END
G1 Z.6 F720
G1 X82.077 Y64.207 F10800
G1 Z.2 F720
G1 E.8 F2100
M204 S800
;TYPE:Perimeter
G1 F1200
G1 X63.652 Y64.207 E.5777
G1 X63.652 Y45.782 E.5777
M73 P6 R20
G1 X82.077 Y45.782 E.5777
G1 X82.077 Y46.519 E.02311
G1 X82.077 Y64.147 E.55271
M204 S1000
G1 X82.077 Y64.147 F10800
G1 X82.454 Y64.584
M204 S800
;TYPE:External perimeter
G1 F1200
G1 X63.274 Y64.584 E.60137
G1 X63.274 Y45.404 E.60137
G1 X82.454 Y45.404 E.60137
M73 P7 R20
M73 Q7 S21
G1 X82.454 Y46.519 E.03496
G1 X82.454 Y64.524 E.56453
M204 S1000
;WIPE_START
G1 F8640
G1 X82.454 Y64.584 E-.01385
G1 X79.049 Y64.584 E-.78615
;WIPE_END
G1 Z.6 F720
M73 Q7 S20
G1 X81.134 Y45.951 F10800
G1 Z.2 F720
G1 E.8 F2100
M204 S800
;TYPE:Solid infill
;WIDTH:0.425479
G1 F1200
G1 X81.738 Y46.555 E.02717
G1 X81.738 Y47.096 E.01721
G1 X80.762 Y46.121 E.04388
G1 X80.221 Y46.121 E.01721
G1 X81.908 Y47.807 E.07587
M204 S1000
G1 X81.908 Y47.807 F10800
G1 X81.155 Y47.595
M204 S800
G1 F1200
G1 X81.738 Y48.178 E.02623
G1 X81.738 Y48.719 E.01721
G1 X81.324 Y48.306 E.0186
G1 X81.324 Y48.847 E.01721
G1 X81.738 Y49.261 E.01862
G1 X81.738 Y49.802 E.01721
G1 X81.324 Y49.388 E.01862
G1 X81.324 Y49.929 E.01721
G1 X81.738 Y50.343 E.01862
G1 X81.738 Y50.884 E.01721
G1 X81.324 Y50.47 E.01862
G1 X81.324 Y51.011 E.01721
G1 X81.738 Y51.425 E.01862
G1 X81.738 Y51.966 E.01721
G1 X81.324 Y51.552 E.01862
G1 X81.324 Y52.093 E.01721
G1 X81.738 Y52.507 E.01862
G1 X81.738 Y53.048 E.01721
G1 X81.324 Y52.634 E.01862
G1 X81.324 Y53.175 E.01721
G1 X81.738 Y53.589 E.01862
G1 X81.738 Y54.13 E.01721
G1 X81.324 Y53.716 E.01862
G1 X81.324 Y54.257 E.01721
G1 X81.738 Y54.671 E.01862
G1 X81.738 Y55.212 E.01721
G1 X81.324 Y54.798 E.01862
G1 X81.324 Y55.339 E.01721
G1 X81.738 Y55.753 E.01862
G1 X81.738 Y56.294 E.01721
G1 X81.324 Y55.88 E.01862
G1 X81.324 Y56.421 E.01721
G1 X81.738 Y56.835 E.01862
G1 X81.738 Y57.376 E.01721
G1 X81.324 Y56.962 E.01862
G1 X81.324 Y57.503 E.01721
G1 X81.738 Y57.917 E.01862
G1 X81.738 Y58.458 E.01721
G1 X81.324 Y58.044 E.01862
G1 X81.324 Y58.585 E.01721
G1 X81.738 Y58.999 E.01862
G1 X81.738 Y59.54 E.01721
G1 X81.324 Y59.126 E.01862
G1 X81.324 Y59.667 E.01721
G1 X81.738 Y60.081 E.01862
G1 X81.738 Y60.622 E.01721
G1 X81.324 Y60.208 E.01862
G1 X81.324 Y60.749 E.01721
G1 X81.738 Y61.163 E.01862
G1 X81.738 Y61.704 E.01721
G1 X81.324 Y61.29 E.01862
G1 X81.324 Y61.831 E.01721
G1 X81.738 Y62.245 E.01862
G1 X81.738 Y62.786 E.01721
G1 X81.324 Y62.372 E.01862
G1 X81.31 Y62.723 E.01117
G1 X81.249 Y62.838 E.00414
G1 X81.738 Y63.327 E.022
G1 X81.738 Y63.868 E.01721
G1 X81.064 Y63.194 E.03032
G1 X80.708 Y63.379 E.01276
G1 X81.197 Y63.868 E.022
G1 X80.656 Y63.868 E.01721
G1 X80.242 Y63.454 E.01862
G1 X79.701 Y63.454 E.01721
G1 X80.115 Y63.868 E.01862
G1 X79.574 Y63.868 E.01721
G1 X79.16 Y63.454 E.01862
G1 X78.619 Y63.454 E.01721
G1 X79.033 Y63.868 E.01862
G1 X78.492 Y63.868 E.01721
G1 X78.078 Y63.454 E.01862
G1 X77.537 Y63.454 E.01721
G1 X77.951 Y63.868 E.01862
G1 X77.41 Y63.868 E.01721
G1 X76.996 Y63.454 E.01862
G1 X76.455 Y63.454 E.01721
G1 X76.869 Y63.868 E.01862
G1 X76.328 Y63.868 E.01721
G1 X75.914 Y63.454 E.01862
G1 X75.373 Y63.454 E.01721
G1 X75.787 Y63.868 E.01862
G1 X75.246 Y63.868 E.01721
G1 X74.832 Y63.454 E.01862
G1 X74.291 Y63.454 E.01721
G1 X74.705 Y63.868 E.01862
G1 X74.164 Y63.868 E.01721
G1 X73.75 Y63.454 E.01862
G1 X73.209 Y63.454 E.01721
G1 X73.623 Y63.868 E.01862
G1 X73.082 Y63.868 E.01721
G1 X72.668 Y63.454 E.01862
G1 X72.127 Y63.454 E.01721
G1 X72.541 Y63.868 E.01862
G1 X72 Y63.868 E.01721
G1 X71.586 Y63.454 E.01862
G1 X71.045 Y63.454 E.01721
G1 X71.459 Y63.868 E.01862
G1 X70.918 Y63.868 E.01721
G1 X70.504 Y63.454 E.01862
