; generated by PrusaSlicer 2.9.0 on 2025-01-12 at 16:56:37 UTC


;
;
; 

; external perimeters extrusion width = 0.45mm
; perimeters extrusion width = 0.45mm
; infill extrusion width = 0.45mm
; solid infill extrusion width = 0.45mm
; top infill extrusion width = 0.40mm
; first layer extrusion width = 0.42mm

M73 P0 R51
M73 Q0 S51
M201 X1000 Y1000 Z200 E5000 ; sets maximum accelerations, mm/sec^2
M203 X200 Y200 Z12 E120 ; sets maximum feedrates, mm / sec
M204 S1250 T1250 ; sets acceleration (S) and retract acceleration (R), mm/sec^2
M205 X8.00 Y8.00 Z0.40 E4.50 ; sets the jerk limits, mm/sec
M205 S0 T0 ; sets the minimum extruding and travel feed rate, mm/sec

; printing object Another_Hollow_Cube.stl id:0 copy 0
; stop printing object Another_Hollow_Cube.stl id:0 copy 0

;TYPE:Custom
M862.3 P "MK3S" ; printer model check
M862.1 P0.4 ; nozzle diameter check
M115 U3.14.1 ; tell printer latest fw version
G90 ; use absolute coordinates
M83 ; extruder relative mode
M104 S215 ; set extruder temp
M140 S60 ; set bed temp
M190 S60 ; wait for bed temp
M109 S215 ; wait for extruder temp
G28 W ; home all without mesh bed level
G80 X118.35 Y37.2867 W35.3083 H35.3083 ; mesh bed levelling

G1 Z0.2 F720
G1 Y-3 F1000 ; go outside print area
G92 E0
G1 X60 E9 F1000 ; intro line
G1 X100 E12.5 F1000 ; intro line

G92 E0
M221 S100

; Don't change E values below. Excessive value can damage the printer.
M907 E430 ; set extruder motor current
G21 ; set units to millimeters
G90 ; use absolute coordinates
M83 ; use relative distances for extrusion

M900 K0.05 ; Filament gcode LA 1.5
M900 K30 ; Filament gcode LA 1.0




M107
;LAYER_CHANGE
;Z:0.2
;HEIGHT:0.2
G1 E-.8 F2100
G1 Z.6 F720
G1 X118.539 Y43.028 F10800
G1 Z.2 F720
G1 E.8 F2100
M204 S800
;TYPE:Skirt/Brim
;WIDTH:0.42
G1 F1200
G1 X119.29 Y41.214 E.06156
G1 X122.278 Y38.227 E.13247
G1 X124.092 Y37.475 E.06157
G1 X147.917 Y37.475 E.74702
G1 X149.731 Y38.227 E.06157
G1 X152.719 Y41.214 E.13247
G1 X153.47 Y43.028 E.06156
G1 X153.47 Y66.853 E.74702
G1 X152.719 Y68.668 E.06159
G1 X149.731 Y71.655 E.13247
G1 X147.917 Y72.406 E.06156
G1 X124.092 Y72.406 E.74702
G1 X122.278 Y71.655 E.06156
G1 X119.29 Y68.668 E.13247
G1 X118.539 Y66.853 E.06159
G1 X118.539 Y43.088 E.74513
M204 S1000
G1 X118.539 Y43.088 F10800
G1 X118.916 Y43.088
M204 S800
G1 F1200
G1 X118.916 Y43.028 E.00188
G1 X119.557 Y41.481 E.0525
G1 X122.545 Y38.493 E.13249
G1 X124.092 Y37.852 E.0525
G1 X147.917 Y37.852 E.74702
G1 X149.465 Y38.493 E.05253
G1 X152.452 Y41.481 E.13247
G1 X153.093 Y43.028 E.0525
G1 X153.093 Y66.853 E.74702
G1 X152.452 Y68.401 E.05253
G1 X149.465 Y71.388 E.13245
G1 X147.917 Y72.029 E.05253
G1 X124.092 Y72.029 E.74702
G1 X122.545 Y71.388 E.0525
G1 X119.557 Y68.401 E.13247
G1 X118.916 Y66.853 E.05253
G1 X118.916 Y43.148 E.74325
M204 S1000
;WIPE_START
G1 F8640
G1 X118.916 Y43.088 E-.01385
G1 X118.916 Y43.028 E-.01385
G1 X119.557 Y41.481 E-.38666
G1 X120.738 Y40.3 E-.38564
;WIPE_END
G1 Z.6 F720
G1 X121.615 Y43.822 F10800
G1 Z.2 F720
G1 E.8 F2100
M204 S800
G1 F1200
G1 X121.748 Y43.292 E.01713
G1 X122.568 Y41.974 E.04867
G1 X123.205 Y41.367 E.02759
G1 X123.809 Y40.938 E.02323
G1 X125.759 Y40.327 E.06407
G1 X146.194 Y40.331 E.64073
G1 X147.214 Y40.525 E.03255
G1 X148.192 Y40.941 E.03332
G1 X149.317 Y41.836 E.04507
G1 X150.21 Y43.174 E.05044
G1 X150.618 Y44.72 E.05013
G1 X150.618 Y65.161 E.64091
G1 X150.262 Y66.59 E.04617
G1 X149.441 Y67.908 E.04869
G1 X148.804 Y68.515 E.02759
G1 X148.2 Y68.943 E.02321
G1 X146.251 Y69.554 E.06404
G1 X125.785 Y69.554 E.6417
G1 X124.356 Y69.198 E.04617
G1 X123.038 Y68.377 E.04869
G1 X122.431 Y67.741 E.02757
G1 X122.002 Y67.136 E.02325
G1 X121.391 Y65.187 E.06404
G1 X121.391 Y44.721 E.6417
G1 X121.601 Y43.88 E.02718
M204 S1000
G1 X121.964 Y43.972 F10800
M204 S800
G1 F1200
G1 X122.106 Y43.414 E.01805
G1 X122.874 Y42.196 E.04515
G1 X123.453 Y41.651 E.02493
G1 X124.002 Y41.263 E.02108
G1 X125.787 Y40.704 E.05865
G1 X146.176 Y40.708 E.63928
G1 X147.122 Y40.891 E.03021
G1 X148.019 Y41.276 E.03061
G1 X149.058 Y42.112 E.04181
G1 X149.854 Y43.302 E.04489
G1 X150.241 Y44.745 E.04684
G1 X150.241 Y65.137 E.63938
G1 X149.904 Y66.467 E.04302
G1 X149.136 Y67.686 E.04517
G1 X148.556 Y68.23 E.02493
G1 X148.007 Y68.618 E.02108
G1 X146.222 Y69.177 E.05865
G1 X125.809 Y69.177 E.64004
G1 X124.478 Y68.84 E.04305
G1 X123.26 Y68.072 E.04515
G1 X122.715 Y67.492 E.02495
G1 X122.327 Y66.943 E.02108
G1 X121.768 Y65.159 E.05862
G1 X121.768 Y44.745 E.64007
G1 X121.949 Y44.03 E.02313
M204 S1000
G1 X121.949 Y44.03 F10800
G1 X122.312 Y44.124
M204 S800
G1 F1200
G1 X122.463 Y43.538 E.01897
G1 X123.177 Y42.421 E.04157
G1 X124.195 Y41.589 E.04122
M73 P1 R51
G1 X125.816 Y41.081 E.05326
M73 Q1 S51
G1 X146.157 Y41.085 E.63778
G1 X147.029 Y41.257 E.02787
G1 X147.845 Y41.612 E.0279
G1 X148.797 Y42.386 E.03847
G1 X149.522 Y43.484 E.04125
G1 X149.864 Y44.769 E.04169
G1 X149.864 Y65.113 E.63787
G1 X149.546 Y66.343 E.03983
G1 X148.832 Y67.461 E.04159
G1 X147.814 Y68.293 E.04122
G1 X146.194 Y68.8 E.05322
G1 X125.833 Y68.8 E.6384
G1 X124.602 Y68.483 E.03986
M73 P1 R50
G1 X123.484 Y67.768 E.04161
G1 X122.653 Y66.75 E.0412
G1 X122.145 Y65.13 E.05323
G1 X122.145 Y44.769 E.6384
G1 X122.297 Y44.182 E.01901
M204 S1000
G1 X122.297 Y44.182 F10800
G1 X122.658 Y44.277
M204 S800
G1 F1200
G1 X122.82 Y43.663 E.01991
G1 X123.451 Y42.681 E.0366
G1 X124.387 Y41.915 E.03792
G1 X125.845 Y41.459 E.0479
G1 X146.138 Y41.462 E.63627
G1 X146.933 Y41.622 E.02543
G1 X147.668 Y41.946 E.02519
G1 X148.535 Y42.658 E.03518
G1 X149.189 Y43.664 E.03762
G1 X149.487 Y44.793 E.03661
G1 X149.487 Y65.088 E.63634
G1 X149.19 Y66.218 E.03663
G1 X148.558 Y67.201 E.03664
G1 X148.063 Y67.659 E.02114
G1 X147.622 Y67.967 E.01687
G1 X146.165 Y68.423 E.04787
G1 X125.858 Y68.423 E.63671
G1 X124.727 Y68.126 E.03666
G1 X123.745 Y67.494 E.03662
G1 X123.287 Y67 E.02112
G1 X122.978 Y66.559 E.01688
G1 X122.522 Y65.101 E.0479
G1 X122.522 Y44.794 E.63671
G1 X122.643 Y44.335 E.01488
M204 S1000
G1 X122.643 Y44.335 F10800
G1 X123.001 Y44.428
M204 S800
G1 F1200
G1 X123.154 Y43.84 E.01905
G1 X123.725 Y42.941 E.03339
G1 X124.578 Y42.241 E.0346
G1 X125.873 Y41.836 E.04254
G1 X146.119 Y41.839 E.6348
G1 X146.8 Y41.976 E.02178
G1 X147.492 Y42.28 E.0237
G1 X148.271 Y42.929 E.03179
G1 X148.833 Y43.791 E.03226
G1 X149.11 Y44.818 E.03335
G1 X149.11 Y65.064 E.6348
G1 X148.855 Y66.041 E.03166
G1 X148.284 Y66.941 E.03342
G1 X147.431 Y67.641 E.0346
G1 X146.136 Y68.046 E.04254
G1 X125.881 Y68.046 E.63508
G1 X124.904 Y67.792 E.03165
G1 X124.005 Y67.22 E.03341
G1 X123.305 Y66.367 E.0346
G1 X122.899 Y65.073 E.04252
G1 X122.899 Y44.818 E.63508
G1 X122.986 Y44.486 E.01076
M204 S1000
G1 X122.986 Y44.486 F10800
G1 X123.346 Y44.582
M204 S800
G1 F1200
G1 X123.51 Y43.966 E.01999
G1 X123.999 Y43.201 E.02847
G1 X124.768 Y42.568 E.03123
G1 X125.902 Y42.213 E.03726
G1 X146.1 Y42.216 E.63329
G1 X146.703 Y42.341 E.01931
G1 X147.313 Y42.613 E.02094
G1 X148.006 Y43.198 E.02844
G1 X148.5 Y43.969 E.02871
G1 X148.733 Y44.843 E.02836
G1 X148.733 Y65.039 E.63323
G1 X148.499 Y65.915 E.02843
G1 X148.01 Y66.68 E.02847
G1 X147.571 Y67.087 E.01877
G1 X147.241 Y67.314 E.01256
G1 X146.108 Y67.669 E.03723
G1 X125.907 Y67.669 E.63339
G1 X125.03 Y67.435 E.02846
G1 X124.265 Y66.946 E.02847
G1 X123.858 Y66.507 E.01877
G1 X123.631 Y66.177 E.01256
G1 X123.277 Y65.044 E.03722
G1 X123.277 Y44.843 E.63339
G1 X123.331 Y44.64 E.00659
M73 Q1 S50
M204 S1000
G1 X123.331 Y44.64 F10800
G1 X123.689 Y44.739
M204 S800
G1 F1200
G1 X123.866 Y44.095 E.02094
G1 X124.273 Y43.462 E.0236
G1 X124.957 Y42.895 E.02786
G1 X125.93 Y42.59 E.03197
G1 X146.079 Y42.593 E.63176
G1 X146.604 Y42.705 E.01683
G1 X147.131 Y42.945 E.01816
G1 X147.739 Y43.466 E.02511
G1 X148.144 Y44.097 E.02351
G1 X148.356 Y44.869 E.0251
G1 X148.356 Y65.013 E.6316
G1 X148.143 Y65.787 E.02517
G1 X147.736 Y66.42 E.0236
G1 X147.052 Y66.987 E.02786
G1 X146.079 Y67.292 E.03197
G1 X125.933 Y67.292 E.63166
G1 X125.158 Y67.079 E.0252
G1 X124.526 Y66.673 E.02355
G1 X123.959 Y65.988 E.02788
G1 X123.654 Y65.015 E.03197
G1 X123.654 Y44.869 E.63166
G1 X123.673 Y44.796 E.00237
M204 S1000
G1 X123.673 Y44.796 F10800
G1 X124.031 Y44.896
M204 S800
G1 F1200
G1 X124.221 Y44.225 E.02187
G1 X124.546 Y43.723 E.01875
G1 X125.144 Y43.223 E.02444
G1 X125.959 Y42.967 E.02678
G1 X146.058 Y42.971 E.63019
G1 X146.501 Y43.068 E.01422
G1 X146.947 Y43.275 E.01542
G1 X147.471 Y43.732 E.0218
G1 X147.789 Y44.227 E.01845
G1 X147.979 Y44.896 E.02181
G1 X147.979 Y64.986 E.62991
G1 X147.789 Y65.656 E.02184
G1 X147.463 Y66.159 E.01879
G1 X147.08 Y66.514 E.01637
G1 X146.865 Y66.658 E.00811
G1 X146.05 Y66.915 E.02679
G1 X125.959 Y66.915 E.62994
G1 X125.289 Y66.725 E.02184
G1 X124.787 Y66.399 E.01877
G1 X124.432 Y66.017 E.01635
G1 X124.287 Y65.801 E.00816
G1 X124.031 Y64.986 E.02678
G1 X124.031 Y44.956 E.62803
M204 S1000
G1 X124.031 Y44.956 F10800
G1 X124.408 Y44.956
M204 S800
G1 F1200
G1 X124.408 Y44.924 E.001
G1 X124.574 Y44.36 E.01843
G1 X124.819 Y43.984 E.01407
G1 X125.33 Y43.553 E.02096
G1 X125.988 Y43.344 E.02165
G1 X146.036 Y43.348 E.62859
G1 X146.76 Y43.603 E.02407
G1 X147.2 Y43.995 E.01848
G1 X147.436 Y44.36 E.01363
G1 X147.601 Y44.924 E.01843
G1 X147.601 Y64.958 E.62815
G1 X147.435 Y65.522 E.01843
M73 P2 R50
M73 Q2 S50
G1 X147.19 Y65.898 E.01407
G1 X146.68 Y66.329 E.02094
G1 X146.021 Y66.538 E.02168
G1 X125.987 Y66.538 E.62815
G1 X125.423 Y66.372 E.01843
G1 X125.048 Y66.126 E.01406
G1 X124.616 Y65.616 E.02096
G1 X124.408 Y64.957 E.02167
G1 X124.408 Y45.016 E.62524
M204 S1000
G1 X124.408 Y45.016 F10800
G1 X124.785 Y45.016
M204 S800
G1 F1200
G1 X124.785 Y44.953 E.00198
G1 X124.925 Y44.498 E.01493
G1 X125.092 Y44.245 E.0095
G1 X125.512 Y43.883 E.01739
G1 X126.018 Y43.721 E.01666
G1 X146.014 Y43.725 E.62696
G1 X146.572 Y43.931 E.01865
G1 X146.927 Y44.256 E.01509
G1 X147.224 Y44.953 E.02376
G1 X147.224 Y64.928 E.6263
G1 X147.084 Y65.384 E.01496
G1 X146.917 Y65.636 E.00948
G1 X146.498 Y65.998 E.01736
G1 X145.991 Y66.161 E.0167
G1 X126.017 Y66.161 E.62627
G1 X125.561 Y66.02 E.01497
G1 X125.309 Y65.854 E.00946
G1 X124.947 Y65.434 E.01739
G1 X124.785 Y64.927 E.01669
G1 X124.785 Y45.076 E.62241
M204 S1000
G1 X124.785 Y45.076 F10800
G1 X125.162 Y45.076
M204 S800
G1 F1200
G1 X125.162 Y44.985 E.00285
G1 X125.364 Y44.507 E.01627
G1 X125.687 Y44.217 E.01361
G1 X126.049 Y44.098 E.01195
G1 X145.992 Y44.102 E.6253
G1 X146.383 Y44.259 E.01321
G1 X146.651 Y44.514 E.0116
G1 X146.847 Y44.985 E.016
G1 X146.847 Y64.897 E.62433
G1 X146.645 Y65.375 E.01627
G1 X146.322 Y65.664 E.01359
G1 X145.96 Y65.784 E.01196
G1 X126.049 Y65.784 E.6243
G1 X125.571 Y65.581 E.01628
G1 X125.281 Y65.258 E.01361
G1 X125.162 Y64.897 E.01192
G1 X125.162 Y45.136 E.61959
M204 S1000
G1 X125.162 Y45.136 F10800
G1 X125.539 Y45.136
M204 S800
G1 F1200
G1 X125.539 Y45.02 E.00364
G1 X125.636 Y44.769 E.00844
G1 X125.871 Y44.552 E.01003
G1 X126.084 Y44.475 E.0071
G1 X145.94 Y44.475 E.62257
G1 X146.371 Y44.766 E.01631
G1 X146.47 Y45.02 E.00855
G1 X146.47 Y64.862 E.62213
G1 X146.373 Y65.113 E.00844
G1 X146.138 Y65.33 E.01003
G1 X145.925 Y65.406 E.00709
G1 X126.084 Y65.406 E.6221
G1 X125.832 Y65.309 E.00847
G1 X125.615 Y65.075 E.01001
G1 X125.539 Y64.862 E.00709
G1 X125.539 Y45.196 E.61661
M204 S1000
G1 X125.539 Y45.196 F10800
G1 X125.944 Y45.196
M204 S800
G1 F1200
G1 X125.945 Y44.993 E.00636
G1 X126.126 Y44.852 E.00719
G1 X145.953 Y44.881 E.62166
G1 X146.093 Y45.062 E.00717
G1 X146.064 Y64.889 E.62166
G1 X145.884 Y65.029 E.00715
G1 X126.056 Y65.001 E.62169
G1 X125.916 Y64.82 E.00717
G1 X125.944 Y45.256 E.61342
M204 S1000
;WIPE_START
G1 F8640
G1 X125.944 Y45.196 E-.01385
G1 X125.945 Y44.993 E-.04687
G1 X126.126 Y44.852 E-.05298
G1 X129.098 Y44.856 E-.6863
;WIPE_END
G1 Z.6 F720
; printing object Another_Hollow_Cube.stl id:0 copy 0
G1 X144.209 Y63.25 F10800
G1 Z.2 F720
G1 E.8 F2100
M204 S800
;TYPE:Perimeter
;WIDTH:0.591403
G1 F1200
G1 X144.145 Y63.272 E.00309
;WIDTH:0.545818
G1 X144.004 Y63.321 E.00624
;WIDTH:0.500232
G1 X143.863 Y63.37 E.00568
;WIDTH:0.454647
G1 X143.721 Y63.419 E.00514
;WIDTH:0.409061
G1 X143.559 Y63.429 E.00494
;WIDTH:0.400636
G1 X128.45 Y63.429 E.44941
;WIDTH:0.448328
G1 X128.268 Y63.377 E.00638
;WIDTH:0.496019
G1 X128.086 Y63.326 E.00712
;WIDTH:0.54371
G1 X127.904 Y63.274 E.00788
;WIDTH:0.591401
G1 X127.723 Y63.223 E.00858
G1 X127.674 Y63.082 E.00681
;WIDTH:0.545816
G1 X127.625 Y62.94 E.00628
;WIDTH:0.500231
G1 X127.576 Y62.799 E.00568
;WIDTH:0.454646
G1 X127.527 Y62.658 E.00511
;WIDTH:0.40906
G1 X127.517 Y62.496 E.00494
;WIDTH:0.400635
G1 X127.517 Y47.386 E.44943
;WIDTH:0.448327
G1 X127.568 Y47.204 E.00637
;WIDTH:0.496019
G1 X127.62 Y47.022 E.00713
;WIDTH:0.543711
G1 X127.671 Y46.841 E.00783
;WIDTH:0.591402
G1 X127.723 Y46.659 E.00863
G1 X127.864 Y46.61 E.00681
;WIDTH:0.545817
G1 X128.005 Y46.561 E.00624
;WIDTH:0.500231
G1 X128.147 Y46.512 E.00571
;WIDTH:0.454646
G1 X128.288 Y46.463 E.00511
;WIDTH:0.40906
G1 X128.45 Y46.453 E.00494
;WIDTH:0.400635
G1 X143.559 Y46.453 E.4494
;WIDTH:0.448327
G1 X143.741 Y46.504 E.00637
;WIDTH:0.496019
G1 X143.923 Y46.556 E.00713
;WIDTH:0.543711
G1 X144.105 Y46.607 E.00787
;WIDTH:0.591403
G1 X144.287 Y46.659 E.00863
G1 X144.338 Y46.841 E.00862
;WIDTH:0.543711
G1 X144.39 Y47.022 E.00784
;WIDTH:0.496019
G1 X144.441 Y47.204 E.00712
;WIDTH:0.448327
G1 X144.492 Y47.386 E.00637
;WIDTH:0.400635
G1 X144.492 Y62.496 E.44943
;WIDTH:0.409059
G1 X144.483 Y62.658 E.00494
;WIDTH:0.454645
G1 X144.434 Y62.799 E.00511
;WIDTH:0.500231
G1 X144.385 Y62.94 E.00568
;WIDTH:0.545817
G1 X144.336 Y63.082 E.00628
;WIDTH:0.591403
G1 X144.287 Y63.223 E.00681
G1 X144.266 Y63.23 E.00101
M204 S1000
G1 X144.266 Y63.23 F10800
G1 X143.935 Y62.908
M204 S800
;WIDTH:0.419999
G1 F1200
G1 X143.657 Y63.053 E.00983
G1 X143.559 Y63.061 E.00308
G1 X128.45 Y63.061 E.47373
G1 X128.05 Y62.896 E.01357
G1 X127.893 Y62.593 E.0107
G1 X127.884 Y62.496 E.00305
G1 X127.884 Y47.386 E.47376
G1 X128.05 Y46.986 E.01358
G1 X128.352 Y46.829 E.01067
G1 X128.45 Y46.82 E.00309
G1 X143.559 Y46.82 E.47373
G1 X143.959 Y46.986 E.01358
G1 X144.125 Y47.386 E.01358
G1 X144.125 Y62.496 E.47376
G1 X144.117 Y62.593 E.00305
G1 X143.974 Y62.867 E.00969
M204 S1000
G1 X143.974 Y62.867 F10800
G1 X143.66 Y62.642
M204 S800
;TYPE:External perimeter
G1 F1200
G1 X143.559 Y62.684 E.00343
G1 X128.45 Y62.684 E.47373
G1 X128.317 Y62.629 E.00451
G1 X128.261 Y62.496 E.00452
G1 X128.261 Y47.386 E.47376
G1 X128.317 Y47.253 E.00452
G1 X128.45 Y47.198 E.00451
G1 X143.559 Y47.198 E.47373
G1 X143.693 Y47.253 E.00454
G1 X143.748 Y47.386 E.00451
G1 X143.748 Y62.496 E.47376
G1 X143.702 Y62.606 E.00374
M204 S1000
;WIPE_START
G1 F8640
G1 X143.66 Y62.642 E-.01277
G1 X143.559 Y62.684 E-.02526
G1 X140.259 Y62.684 E-.76197
;WIPE_END
G1 Z.6 F720
G1 X144.755 Y46.191 F10800
G1 Z.2 F720
G1 E.8 F2100
M204 S800
;TYPE:Perimeter
;WIDTH:0.591403
G1 F1200
G1 X144.755 Y46.465 E.0125
G1 X144.779 Y46.695 E.01055
;WIDTH:0.543711
G1 X144.802 Y46.925 E.00963
;WIDTH:0.496019
G1 X144.826 Y47.156 E.00875
;WIDTH:0.448327
G1 X144.85 Y47.386 E.0078
;WIDTH:0.400635
G1 X144.85 Y62.496 E.44943
;WIDTH:0.409059
G1 X144.846 Y62.689 E.00588
M73 P3 R50
M73 Q3 S50
;WIDTH:0.454645
G1 X144.823 Y62.94 E.00863
;WIDTH:0.500231
G1 X144.8 Y63.19 E.00955
;WIDTH:0.545817
G1 X144.778 Y63.441 E.01054
;WIDTH:0.591403
G1 X144.755 Y63.691 E.01145
G1 X144.481 Y63.691 E.0125
G1 X144.25 Y63.715 E.01059
;WIDTH:0.543712
G1 X144.02 Y63.739 E.00963
;WIDTH:0.49602
G1 X143.79 Y63.763 E.00871
;WIDTH:0.448328
G1 X143.559 Y63.786 E.00783
;WIDTH:0.400636
G1 X128.45 Y63.786 E.44941
;WIDTH:0.448328
G1 X128.151 Y63.763 E.01011
M73 P3 R49
;WIDTH:0.496019
G1 X127.852 Y63.739 E.0113
;WIDTH:0.54371
G1 X127.553 Y63.715 E.01249
;WIDTH:0.591401
G1 X127.254 Y63.691 E.01368
G1 X127.254 Y63.417 E.0125
G1 X127.231 Y63.186 E.01059
;WIDTH:0.54371
G1 X127.207 Y62.956 E.00963
;WIDTH:0.496018
G1 X127.183 Y62.726 E.00871
;WIDTH:0.448327
G1 X127.159 Y62.496 E.0078
;WIDTH:0.400635
G1 X127.159 Y47.386 E.44943
;WIDTH:0.448327
G1 X127.183 Y47.087 E.01011
;WIDTH:0.496019
G1 X127.207 Y46.788 E.0113
;WIDTH:0.543711
G1 X127.231 Y46.49 E.01245
;WIDTH:0.591402
G1 X127.254 Y46.191 E.01368
