; generated by PrusaSlicer 2.9.0 on 2025-01-04 at 20:05:33 UTC


;
;
; 

; external perimeters extrusion width = 0.45mm
; perimeters extrusion width = 0.45mm
; infill extrusion width = 0.45mm
; solid infill extrusion width = 0.45mm
; top infill extrusion width = 0.40mm
; first layer extrusion width = 0.42mm

M73 P0 R5
M73 Q0 S5
M201 X1000 Y1000 Z200 E5000 ; sets maximum accelerations, mm/sec^2
M203 X200 Y200 Z12 E120 ; sets maximum feedrates, mm / sec
M204 S1250 T1250 ; sets acceleration (S) and retract acceleration (R), mm/sec^2
M205 X8.00 Y8.00 Z0.40 E4.50 ; sets the jerk limits, mm/sec
M205 S0 T0 ; sets the minimum extruding and travel feed rate, mm/sec

; printing object string_test_fast_pyramid.stl id:0 copy 0
; stop printing object string_test_fast_pyramid.stl id:0 copy 0

;TYPE:Custom
M862.3 P "MK3S" ; printer model check
M862.1 P0.4 ; nozzle diameter check
M115 U3.14.1 ; tell printer latest fw version
G90 ; use absolute coordinates
M83 ; extruder relative mode
M104 S215 ; set extruder temp
M140 S60 ; set bed temp
M190 S60 ; wait for bed temp
M109 S215 ; wait for extruder temp
G28 W ; home all without mesh bed level
G80 X43.6117 Y48.9727 W35.3083 H23.3083 ; mesh bed levelling

G1 Z0.2 F720
G1 Y-3 F1000 ; go outside print area
G92 E0
G1 X60 E9 F1000 ; intro line
G1 X100 E12.5 F1000 ; intro line
M73 P1 R5
M73 Q1 S5

G92 E0
M221 S95

; Don't change E values below. Excessive value can damage the printer.
M907 E430 ; set extruder motor current
G21 ; set units to millimeters
G90 ; use absolute coordinates
M83 ; use relative distances for extrusion

M900 K0.05 ; Filament gcode LA 1.5
M900 K30 ; Filament gcode LA 1.0




M107
;LAYER_CHANGE
;Z:0.2
;HEIGHT:0.2
G1 E-.8 F2100
G1 Z.6 F720
G1 X47.539 Y49.913 F10800
G1 Z.2 F720
G1 E.8 F2100
M204 S800
;TYPE:Skirt/Brim
;WIDTH:0.42
G1 F1200
M73 Q2 S5
G1 X49.353 Y49.161 E.06157
G1 X73.178 Y49.161 E.74702
M73 P2 R5
G1 X74.993 Y49.913 E.0616
G1 X77.98 Y52.9 E.13245
G1 X78.732 Y54.714 E.06157
G1 X78.732 Y66.539 E.37076
G1 X77.98 Y68.353 E.06157
G1 X74.993 Y71.341 E.13247
G1 X73.178 Y72.092 E.06159
G1 X49.353 Y72.092 E.74702
G1 X47.539 Y71.341 E.06156
M73 P3 R5
M73 Q3 S5
G1 X44.552 Y68.353 E.13247
G1 X43.8 Y66.539 E.06157
G1 X43.8 Y54.714 E.37076
G1 X44.552 Y52.9 E.06157
G1 X47.497 Y49.955 E.13059
M204 S1000
G1 X47.497 Y49.955 F10800
G1 X47.763 Y50.222
M204 S800
G1 F1200
G1 X47.806 Y50.179 E.00191
G1 X49.353 Y49.538 E.0525
G1 X73.178 Y49.538 E.74702
G1 X74.726 Y50.179 E.05253
G1 X77.713 Y53.167 E.13247
G1 X78.354 Y54.714 E.0525
G1 X78.354 Y66.539 E.37076
G1 X77.713 Y68.087 E.05253
M73 P4 R5
M73 Q4 S5
G1 X74.726 Y71.074 E.13245
G1 X73.178 Y71.715 E.05253
G1 X49.353 Y71.715 E.74702
G1 X47.806 Y71.074 E.0525
G1 X44.818 Y68.087 E.13247
G1 X44.177 Y66.539 E.05253
G1 X44.177 Y54.714 E.37076
G1 X44.818 Y53.167 E.0525
G1 X47.721 Y50.264 E.12872
M204 S1000
;WIPE_START
G1 F8640
G1 X47.763 Y50.222 E-.01371
G1 X47.806 Y50.179 E-.01404
G1 X49.353 Y49.538 E-.38666
G1 X51.023 Y49.538 E-.38559
;WIPE_END
G1 Z.6 F720
G1 X49.047 Y52.638 F10800
G1 Z.2 F720
M73 P5 R5
M73 Q5 S5
G1 E.8 F2100
M204 S800
G1 F1200
G1 X51.019 Y52.013 E.06486
G1 X71.456 Y52.017 E.64079
G1 X72.475 Y52.211 E.03252
G1 X73.454 Y52.626 E.03334
G1 X74.578 Y53.522 E.04507
G1 X75.471 Y54.861 E.05046
G1 X75.88 Y56.409 E.0502
G1 X75.839 Y65.151 E.2741
G1 X75.558 Y66.179 E.03341
G1 X75.106 Y67.078 E.03155
G1 X74.17 Y68.107 E.04361
G1 X73.485 Y68.615 E.02674
G1 X71.513 Y69.24 E.06486
G1 X51.048 Y69.24 E.64167
G1 X49.736 Y68.926 E.0423
G1 X48.816 Y68.467 E.03224
G1 X47.785 Y67.531 E.04366
M73 P6 R5
G1 X47.277 Y66.846 E.02674
M73 Q6 S5
G1 X46.652 Y64.874 E.06486
G1 X46.664 Y56.318 E.26827
G1 X46.967 Y55.096 E.03948
G1 X47.425 Y54.177 E.03219
G1 X48.362 Y53.146 E.04368
G1 X48.999 Y52.674 E.02486
M204 S1000
G1 X48.999 Y52.674 F10800
G1 X49.222 Y52.977
M204 S800
G1 F1200
G1 X49.245 Y52.96 E.0009
G1 X51.048 Y52.39 E.05929
G1 X71.437 Y52.394 E.63928
G1 X72.383 Y52.577 E.03021
G1 X73.281 Y52.962 E.03063
G1 X74.319 Y53.798 E.04179
G1 X75.115 Y54.988 E.04489
G1 X75.502 Y56.433 E.0469
G1 X75.469 Y65.075 E.27097
G1 X75.199 Y66.06 E.03202
G1 X74.782 Y66.884 E.02896
G1 X73.905 Y67.838 E.04063
G1 X73.287 Y68.293 E.02406
G1 X71.484 Y68.863 E.05929
G1 X51.071 Y68.863 E.64004
G1 X49.847 Y68.565 E.0395
M73 P7 R5
M73 Q7 S5
G1 X49.009 Y68.143 E.02942
G1 X48.054 Y67.266 E.04065
G1 X47.599 Y66.648 E.02406
G1 X47.03 Y64.845 E.05928
G1 X47.035 Y56.387 E.26519
G1 X47.328 Y55.208 E.03809
G1 X47.75 Y54.37 E.02942
G1 X48.627 Y53.415 E.04065
G1 X49.174 Y53.013 E.02128
M204 S1000
G1 X49.174 Y53.013 F10800
G1 X49.395 Y53.317
M204 S800
G1 F1200
G1 X49.442 Y53.283 E.00182
G1 X51.077 Y52.767 E.05376
G1 X71.418 Y52.771 E.63778
G1 X72.29 Y52.943 E.02787
G1 X73.106 Y53.298 E.0279
G1 X74.058 Y54.072 E.03847
G1 X74.783 Y55.17 E.04125
G1 X75.125 Y56.456 E.04172
G1 X75.098 Y65 E.26789
G1 X74.841 Y65.942 E.03062
G1 X74.458 Y66.688 E.02629
G1 X73.642 Y67.568 E.03763
G1 X73.09 Y67.97 E.02141
G1 X71.455 Y68.486 E.05376
M73 P8 R5
G1 X51.094 Y68.486 E.6384
M73 Q8 S5
G1 X49.959 Y68.204 E.03667
G1 X49.205 Y67.819 E.02654
G1 X48.325 Y67.003 E.03763
G1 X47.922 Y66.451 E.02143
G1 X47.407 Y64.816 E.05375
G1 X47.407 Y56.455 E.26215
G1 X47.689 Y55.32 E.03667
G1 X48.073 Y54.566 E.02653
G1 X48.89 Y53.686 E.03765
G1 X49.347 Y53.352 E.01775
M204 S1000
G1 X49.347 Y53.352 F10800
G1 X49.567 Y53.658
M204 S800
G1 F1200
G1 X49.638 Y53.607 E.00274
G1 X51.106 Y53.145 E.04825
G1 X71.399 Y53.148 E.63627
G1 X72.195 Y53.308 E.02546
G1 X72.93 Y53.632 E.02519
G1 X73.796 Y54.344 E.03515
G1 X74.451 Y55.35 E.03764
G1 X74.748 Y56.48 E.03663
G1 X74.728 Y64.925 E.26479
G1 X74.482 Y65.823 E.02919
M73 P9 R5
M73 Q9 S5
G1 X74.136 Y66.491 E.02359
G1 X73.38 Y67.296 E.03463
G1 X72.894 Y67.647 E.0188
G1 X71.426 Y68.109 E.04825
G1 X51.118 Y68.109 E.63674
G1 X50.074 Y67.844 E.03377
G1 X49.402 Y67.497 E.02371
G1 X48.597 Y66.741 E.03463
G1 X48.246 Y66.255 E.0188
G1 X47.784 Y64.787 E.04825
G1 X47.784 Y56.479 E.26049
G1 X48.049 Y55.435 E.03377
G1 X48.396 Y54.763 E.02371
G1 X49.152 Y53.958 E.03463
G1 X49.519 Y53.693 E.01419
M204 S1000
G1 X49.519 Y53.693 F10800
G1 X49.737 Y53.999
M204 S800
G1 F1200
G1 X49.832 Y53.931 E.00366
G1 X51.134 Y53.522 E.04279
G1 X71.381 Y53.525 E.63483
G1 X72.062 Y53.662 E.02178
M73 P10 R5
G1 X72.753 Y53.966 E.02367
G1 X73.533 Y54.615 E.03181
G1 X74.094 Y55.477 E.03225
M73 Q10 S5
G1 X74.371 Y56.505 E.03338
G1 X74.358 Y64.849 E.26162
G1 X74.124 Y65.703 E.02776
G1 X73.815 Y66.291 E.02083
G1 X73.12 Y67.022 E.03163
G1 X72.7 Y67.322 E.01618
G1 X71.398 Y67.732 E.0428
G1 X51.143 Y67.732 E.63508
G1 X50.191 Y67.485 E.03084
G1 X49.601 Y67.176 E.02088
G1 X48.87 Y66.481 E.03163
G1 X48.57 Y66.061 E.01618
G1 X48.161 Y64.759 E.04279
G1 X48.161 Y56.504 E.25883
G1 X48.408 Y55.552 E.03084
G1 X48.717 Y54.962 E.02088
G1 X49.412 Y54.231 E.03163
G1 X49.688 Y54.034 E.01063
M204 S1000
G1 X49.688 Y54.034 F10800
G1 X49.905 Y54.341
M204 S800
G1 F1200
G1 X50.025 Y54.256 E.00461
G1 X51.163 Y53.899 E.0374
G1 X71.361 Y53.902 E.63329
G1 X71.964 Y54.027 E.01931
M73 P11 R5
M73 Q11 S5
G1 X72.574 Y54.299 E.02094
G1 X73.267 Y54.884 E.02844
G1 X73.761 Y55.655 E.02871
G1 X73.994 Y56.529 E.02836
G1 X73.987 Y64.774 E.25852
G1 X73.766 Y65.582 E.02626
G1 X73.495 Y66.09 E.01805
G1 X72.862 Y66.747 E.02861
G1 X72.507 Y66.997 E.01361
G1 X71.369 Y67.355 E.03741
G1 X51.168 Y67.355 E.63339
G1 X50.31 Y67.127 E.02784
G1 X49.803 Y66.856 E.01803
G1 X49.146 Y66.223 E.02861
G1 X48.896 Y65.868 E.01361
G1 X48.538 Y64.73 E.03741
G1 X48.538 Y56.529 E.25714
G1 X48.766 Y55.671 E.02784
G1 X49.036 Y55.164 E.01801
G1 X49.67 Y54.507 E.02863
G1 X49.856 Y54.375 E.00715
M204 S1000
G1 X49.856 Y54.375 F10800
G1 X50.122 Y54.668
M204 S800
G1 F1200
G1 X50.216 Y54.583 E.00397
G1 X51.192 Y54.276 E.03208
G1 X71.34 Y54.279 E.63173
G1 X71.865 Y54.391 E.01683
M73 P12 R5
M73 Q12 S5
G1 X72.393 Y54.631 E.01819
G1 X73 Y55.152 E.02508
G1 X73.405 Y55.783 E.02351
G1 X73.617 Y56.555 E.0251
G1 X73.617 Y64.699 E.25535
G1 X73.408 Y65.461 E.02477
G1 X73.177 Y65.886 E.01517
G1 X72.316 Y66.671 E.03653
G1 X71.34 Y66.978 E.03208
G1 X51.194 Y66.978 E.63166
G1 X50.432 Y66.769 E.02477
G1 X50.007 Y66.538 E.01517
G1 X49.222 Y65.677 E.03653
G1 X48.915 Y64.701 E.03208
G1 X48.915 Y56.555 E.25541
G1 X49.124 Y55.793 E.02477
G1 X49.354 Y55.368 E.01515
G1 X50.078 Y54.708 E.03072
M204 S1000
G1 X50.078 Y54.708 F10800
G1 X50.276 Y54.998
M204 S800
G1 F1200
G1 X50.405 Y54.91 E.0049
G1 X51.221 Y54.653 E.02682
G1 X71.319 Y54.657 E.63016
G1 X71.763 Y54.754 E.01425
M73 P13 R5
M73 Q13 S5
G1 X72.209 Y54.961 E.01542
G1 X72.732 Y55.417 E.02176
G1 X73.05 Y55.913 E.01847
G1 X73.24 Y56.582 E.02181
G1 X73.24 Y64.672 E.25366
G1 X73.052 Y65.336 E.02164
G1 X72.862 Y65.678 E.01227
G1 X72.352 Y66.19 E.02266
G1 X72.127 Y66.344 E.00855
G1 X71.311 Y66.601 E.02682
G1 X51.221 Y66.601 E.62991
G1 X50.557 Y66.413 E.02164
G1 X50.214 Y66.222 E.01231
G1 X49.703 Y65.713 E.02261
G1 X49.549 Y65.488 E.00855
G1 X49.292 Y64.672 E.02682
G1 X49.292 Y56.582 E.25366
G1 X49.48 Y55.918 E.02164
G1 X49.67 Y55.575 E.01229
G1 X50.179 Y55.064 E.02261
G1 X50.226 Y55.032 E.00178
M204 S1000
G1 X50.226 Y55.032 F10800
G1 X50.493 Y55.327
M204 S800
G1 F1200
G1 X50.591 Y55.239 E.00413
G1 X51.25 Y55.03 E.02168
G1 X71.297 Y55.034 E.62856
G1 X72.022 Y55.289 E.0241
M73 P14 R5
M73 Q14 S5
G1 X72.461 Y55.681 E.01845
G1 X72.697 Y56.046 E.01363
G1 X72.863 Y56.61 E.01843
G1 X72.863 Y64.644 E.2519
G1 X72.548 Y65.467 E.02763
G1 X71.941 Y66.015 E.02564
G1 X71.282 Y66.224 E.02168
G1 X51.249 Y66.224 E.62812
G1 X50.426 Y65.909 E.02763
G1 X49.878 Y65.302 E.02564
G1 X49.669 Y64.643 E.02168
G1 X49.669 Y56.61 E.25187
G1 X49.984 Y55.786 E.02766
G1 X50.448 Y55.367 E.0196
M204 S1000
G1 X50.448 Y55.367 F10800
G1 X50.694 Y55.64
M204 S800
G1 F1200
G1 X50.773 Y55.569 E.00333
G1 X51.279 Y55.407 E.01666
G1 X71.275 Y55.411 E.62696
G1 X71.513 Y55.466 E.00766
M73 P15 R4
G1 X71.834 Y55.617 E.01112
G1 X72.189 Y55.942 E.01509
G1 X72.486 Y56.639 E.02376
G1 X72.486 Y64.614 E.25005
G1 X72.345 Y65.071 E.015
M73 Q15 S5
G1 X71.855 Y65.622 E.02312
G1 X71.253 Y65.847 E.02015
G1 X51.278 Y65.847 E.6263
G1 X50.821 Y65.706 E.015
M73 Q15 S4
G1 X50.27 Y65.216 E.02312
G1 X50.046 Y64.613 E.02017
G1 X50.046 Y56.639 E.25002
G1 X50.294 Y56.002 E.02143
G1 X50.65 Y55.681 E.01503
M204 S1000
G1 X50.65 Y55.681 F10800
G1 X50.897 Y55.95
M204 S800
G1 F1200
G1 X50.949 Y55.903 E.0022
G1 X51.31 Y55.784 E.01192
G1 X71.253 Y55.788 E.6253
G1 X71.644 Y55.945 E.01321
G1 X71.912 Y56.2 E.0116
G1 X72.109 Y56.671 E.01601
G1 X72.109 Y64.583 E.24808
G1 X71.932 Y65.03 E.01507
M73 P16 R4
M73 Q16 S4
G1 X71.583 Y65.35 E.01485
G1 X71.222 Y65.47 E.01193
G1 X51.31 Y65.47 E.62433
G1 X50.863 Y65.293 E.01507
G1 X50.542 Y64.944 E.01487
G1 X50.423 Y64.583 E.01192
G1 X50.423 Y56.671 E.24808
G1 X50.599 Y56.224 E.01506
G1 X50.853 Y55.991 E.01081
M204 S1000
G1 X50.853 Y55.991 F10800
G1 X51.105 Y56.263
M204 S800
G1 F1200
G1 X51.132 Y56.237 E.00118
G1 X51.345 Y56.161 E.00709
G1 X71.201 Y56.161 E.62257
G1 X71.632 Y56.452 E.01631
G1 X71.732 Y56.706 E.00856
G1 X71.732 Y64.548 E.24588
G1 X71.634 Y64.799 E.00845
G1 X71.4 Y65.016 E.01001
G1 X71.187 Y65.092 E.00709
G1 X51.345 Y65.092 E.62213
G1 X51.094 Y64.995 E.00844
M73 P17 R4
M73 Q17 S4
G1 X50.877 Y64.761 E.01001
G1 X50.8 Y64.548 E.0071
G1 X50.8 Y56.706 E.24588
G1 X50.898 Y56.455 E.00845
G1 X51.061 Y56.303 E.00699
M204 S1000
G1 X51.061 Y56.303 F10800
G1 X51.341 Y56.584
M204 S800
G1 F1200
G1 X51.387 Y56.538 E.00204
G1 X71.214 Y56.567 E.62166
G1 X71.354 Y56.748 E.00717
G1 X71.354 Y64.506 E.24325
G1 X71.145 Y64.715 E.00927
G1 X51.387 Y64.715 E.6195
G1 X51.177 Y64.506 E.00929
M73 P18 R4
G1 X51.177 Y56.748 E.24325
G1 X51.299 Y56.626 E.00541
M73 Q18 S4
M204 S1000
;WIPE_START
G1 F8640
G1 X51.341 Y56.584 E-.01371
G1 X51.387 Y56.538 E-.01502
G1 X54.727 Y56.543 E-.77127
;WIPE_END
G1 Z.6 F720
; printing object string_test_fast_pyramid.stl id:0 copy 0
G1 X52.053 Y57.414 F10800
G1 Z.2 F720
G1 E.8 F2100
M204 S800
;TYPE:Perimeter
;WIDTH:0.419999
G1 F1200
G1 X70.479 Y57.414 E.57773
G1 X70.479 Y60.627 E.10074
G1 X70.479 Y63.84 E.10074
G1 X52.053 Y63.84 E.57773
G1 X52.053 Y57.474 E.1996
M204 S1000
G1 X51.676 Y57.037 F10800
M73 P19 R4
M204 S800
;TYPE:External perimeter
G1 F1200
G1 X70.856 Y57.037 E.60137
G1 X70.856 Y60.627 E.11256
M73 Q19 S4
G1 X70.856 Y64.217 E.11256
G1 X51.676 Y64.217 E.60137
G1 X51.676 Y57.097 E.22324
M204 S1000
;WIPE_START
G1 F8640
G1 X51.676 Y57.037 E-.01385
G1 X55.081 Y57.037 E-.78615
;WIPE_END
G1 Z.6 F720
G1 X69.539 Y57.584 F10800
G1 Z.2 F720
G1 E.8 F2100
M204 S800
;TYPE:Solid infill
;WIDTH:0.423946
G1 F1200
G1 X70.139 Y58.185 E.02691
G1 X70.139 Y58.723 E.01705
G1 X69.169 Y57.753 E.04346
G1 X68.63 Y57.753 E.01708
G1 X70.139 Y59.262 E.06761
G1 X70.139 Y59.801 E.01708
M73 P20 R4
G1 X68.092 Y57.753 E.09174
G1 X67.553 Y57.753 E.01708
G1 X70.139 Y60.34 E.11589
G1 X70.139 Y60.879 E.01708
M73 Q20 S4
G1 X67.014 Y57.753 E.14004
G1 X66.475 Y57.753 E.01708
G1 X70.139 Y61.418 E.16419
G1 X70.139 Y61.957 E.01708
G1 X65.936 Y57.753 E.18834
G1 X65.397 Y57.753 E.01708
G1 X70.139 Y62.495 E.21247
G1 X70.139 Y63.034 E.01708
G1 X64.859 Y57.753 E.2366
G1 X64.32 Y57.753 E.01708
G1 X70.067 Y63.5 E.2575
G1 X69.528 Y63.5 E.01708
G1 X63.781 Y57.753 E.2575
G1 X63.242 Y57.753 E.01708
G1 X68.989 Y63.5 E.2575
G1 X68.45 Y63.5 E.01708
G1 X62.703 Y57.753 E.2575
M73 P21 R4
G1 X62.164 Y57.753 E.01708
M73 Q21 S4
G1 X67.911 Y63.5 E.2575
G1 X67.373 Y63.5 E.01705
G1 X61.625 Y57.753 E.25752
G1 X61.087 Y57.753 E.01705
G1 X66.834 Y63.5 E.2575
G1 X66.295 Y63.5 E.01708
G1 X60.548 Y57.753 E.2575
G1 X60.009 Y57.753 E.01708
G1 X65.756 Y63.5 E.2575
G1 X65.217 Y63.5 E.01708
G1 X59.47 Y57.753 E.2575
G1 X58.931 Y57.753 E.01708
G1 X64.678 Y63.5 E.2575
G1 X64.139 Y63.5 E.01708
M73 P22 R4
G1 X58.392 Y57.753 E.2575
G1 X57.853 Y57.753 E.01708
M73 Q22 S4
G1 X63.601 Y63.5 E.25752
G1 X63.062 Y63.5 E.01708
G1 X57.315 Y57.753 E.2575
G1 X56.776 Y57.753 E.01708
G1 X62.523 Y63.5 E.2575
G1 X61.984 Y63.5 E.01708
G1 X56.237 Y57.753 E.2575
G1 X55.698 Y57.753 E.01708
G1 X61.445 Y63.5 E.2575
G1 X60.906 Y63.5 E.01708
G1 X55.159 Y57.753 E.2575
G1 X54.62 Y57.753 E.01708
G1 X60.367 Y63.5 E.2575
G1 X59.829 Y63.5 E.01705
M73 P23 R4
G1 X54.081 Y57.753 E.25752
G1 X53.543 Y57.753 E.01705
M73 Q23 S4
G1 X59.29 Y63.5 E.2575
G1 X58.751 Y63.5 E.01708
G1 X53.004 Y57.753 E.2575
G1 X52.465 Y57.753 E.01708
G1 X58.212 Y63.5 E.2575
G1 X57.673 Y63.5 E.01708
G1 X52.392 Y58.22 E.2366
G1 X52.392 Y58.758 E.01705
G1 X57.134 Y63.5 E.21247
G1 X56.595 Y63.5 E.01708
G1 X52.392 Y59.297 E.18832
G1 X52.392 Y59.836 E.01708
G1 X56.057 Y63.5 E.16419
G1 X55.518 Y63.5 E.01708
G1 X52.392 Y60.375 E.14004
G1 X52.392 Y60.914 E.01708
M73 P24 R4
G1 X54.979 Y63.5 E.11589
G1 X54.44 Y63.5 E.01708
G1 X52.392 Y61.453 E.09174
G1 X52.392 Y61.992 E.01708
M73 Q24 S4
G1 X53.901 Y63.5 E.06759
G1 X53.362 Y63.5 E.01708
G1 X52.392 Y62.53 E.04346
G1 X52.392 Y63.069 E.01708
G1 X52.993 Y63.67 E.02693
M204 S1000
M106 S84.15
;LAYER_CHANGE
;Z:0.35
;HEIGHT:0.15
;BEFORE_LAYER_CHANGE
G92 E0.0
;0.35


;WIPE_START
G1 F8640
G1 X52.392 Y63.069 E-.19625
G1 X52.392 Y62.53 E-.12446
G1 X53.362 Y63.5 E-.31675
G1 X53.901 Y63.5 E-.12446
G1 X53.784 Y63.383 E-.03808
;WIPE_END
G1 Z.35 F720
;AFTER_LAYER_CHANGE
;0.35
M104 S210 ; set temperature
; stop printing object string_test_fast_pyramid.stl id:0 copy 0
G1 Z.75
G1 X52.993 Y72.092 F10800
G1 Z.35 F720
G1 E.8 F2100
;TYPE:Skirt/Brim
;WIDTH:0.42
G1 F3000
G1 X49.353 Y72.092 E.08803
G1 X47.539 Y71.341 E.04748
G1 X44.552 Y68.353 E.10218
G1 X43.8 Y66.539 E.04749
G1 X43.8 Y54.714 E.28599
G1 X44.552 Y52.9 E.04749
G1 X47.539 Y49.913 E.10216
G1 X49.353 Y49.161 E.04749
G1 X73.178 Y49.161 E.5762
G1 X74.993 Y49.913 E.04751
G1 X77.98 Y52.9 E.10216
G1 X78.732 Y54.714 E.04749
G1 X78.732 Y66.539 E.28599
G1 X77.98 Y68.353 E.04749
G1 X74.993 Y71.341 E.10218
G1 X73.178 Y72.092 E.0475
G1 X53.053 Y72.092 E.48672
G1 X53.053 Y72.092 F10800
M73 P25 R4
G1 X53.053 Y71.715
G1 F3000
G1 X49.353 Y71.715 E.08948
G1 X47.806 Y71.074 E.0405
G1 X44.818 Y68.087 E.10218
G1 X44.177 Y66.539 E.04052
M73 Q25 S4
G1 X44.177 Y54.714 E.28599
G1 X44.818 Y53.167 E.0405
G1 X47.806 Y50.179 E.1022
G1 X49.353 Y49.538 E.0405
