; generated by PrusaSlicer 2.1.0+win64 on 2020-02-03 at 23:10:31 UTC

; 

; external perimeters extrusion width = 0.45mm
; perimeters extrusion width = 0.45mm
; infill extrusion width = 0.45mm
; solid infill extrusion width = 0.45mm
; top infill extrusion width = 0.40mm
; first layer extrusion width = 0.42mm

M73 P0 R133
M73 Q0 S134
M201 X1000 Y1000 Z1000 E5000 ; sets maximum accelerations, mm/sec^2
M203 X200 Y200 Z12 E120 ; sets maximum feedrates, mm/sec
M204 P1250 R1250 T1250 ; sets acceleration (P, T) and retract acceleration (R), mm/sec^2
M205 X8.00 Y8.00 Z0.40 E1.50 ; sets the jerk limits, mm/sec
M205 S0 T0 ; sets the minimum extruding and travel feed rate, mm/sec
M107
M862.3 P "MK3S" ; printer model check
M862.1 P0.4 ; nozzle diameter check
M115 U3.8.0 ; tell printer latest fw version
G90 ; use absolute coordinates
M83 ; extruder relative mode
M104 S215 ; set extruder temp
M140 S60 ; set bed temp
M190 S60 ; wait for bed temp
M109 S215 ; wait for extruder temp
G28 W ; home all without mesh bed level
G80 ; mesh bed leveling
G1 Y-3.0 F1000.0 ; go outside print area
G92 E0.0
G1 X60.0 E9.0 F1000.0 ; intro line
M73 Q0 S134
M73 P0 R133
G1 X100.0 E12.5 F1000.0 ; intro line
G92 E0.0
M221 S95
G21 ; set units to millimeters
G90 ; use absolute coordinates
M83 ; use relative distances for extrusion
M900 K30 ; Filament gcode
;BEFORE_LAYER_CHANGE
G92 E0.0
;0.2


G1 E-0.80000 F2100.00000
G1 Z0.600 F10800.000
;AFTER_LAYER_CHANGE
;0.2
G1 X80.280 Y49.809
G1 Z0.200
G1 E0.80000 F2100.00000
M204 S1000
G1 F1200
G1 X80.609 Y49.193 E0.02191
G1 X80.953 Y48.835 E0.01555
G1 X81.368 Y48.564 E0.01555
G1 X81.834 Y48.393 E0.01555
G1 X82.330 Y48.332 E0.01567
G1 X167.654 Y48.331 E2.67528
G1 X168.487 Y48.498 E0.02664
G1 X169.192 Y48.967 E0.02653
G1 X169.666 Y49.667 E0.02653
G1 X169.838 Y50.500 E0.02664
G1 X169.838 Y103.222 E1.65307
G1 X169.138 Y159.522 E1.76538
G1 X169.017 Y160.199 E0.02157
G1 X168.692 Y160.805 E0.02157
G1 X168.197 Y161.278 E0.02146
G1 X167.581 Y161.576 E0.02146
G1 X163.674 Y162.317 E0.12469
G1 X86.308 Y162.316 E2.42576
G1 X82.542 Y161.609 E0.12013
G1 X81.726 Y161.222 E0.02833
G1 X81.374 Y160.888 E0.01521
G1 X81.104 Y160.481 E0.01532
G1 X80.930 Y160.024 E0.01532
G1 X80.862 Y159.540 E0.01532
G1 X80.162 Y103.224 E1.76590
G1 X80.162 Y50.502 E1.65306
G1 X80.270 Y49.869 E0.02014
G1 F8640
G1 X80.609 Y49.193 E-0.17454
G1 X80.953 Y48.835 E-0.11453
G1 X81.368 Y48.564 E-0.11453
G1 X81.834 Y48.393 E-0.11453
G1 X82.330 Y48.332 E-0.11536
G1 X82.877 Y48.332 E-0.12652
G1 E-0.04000 F2100.00000
G1 Z0.800 F10800.000
G1 X86.939 Y111.337
G1 Z0.200
G1 E0.80000 F2100.00000
G1 F1200
G1 X163.061 Y111.337 E2.38677
G1 X163.231 Y110.668 E0.02163
G1 X163.324 Y110.545 E0.00483
G1 X163.442 Y110.471 E0.00438
G1 X163.574 Y110.443 E0.00424
G1 X163.758 Y110.471 E0.00582
G1 X163.876 Y110.545 E0.00438
G1 X163.958 Y110.653 E0.00424
G1 X164.002 Y110.766 E0.00379
G1 X164.111 Y111.337 E0.01824
G1 X166.113 Y111.337 E0.06277
G1 X166.113 Y158.643 E1.48324
G1 X164.111 Y158.643 E0.06277
G1 X164.002 Y159.214 E0.01824
G1 X163.958 Y159.327 E0.00379
G1 X163.876 Y159.435 E0.00424
G1 X163.758 Y159.509 E0.00438
G1 X163.574 Y159.537 E0.00582
G1 X163.442 Y159.509 E0.00424
G1 X163.324 Y159.435 E0.00438
G1 X163.231 Y159.312 E0.00483
G1 X163.061 Y158.643 E0.02163
G1 X153.803 Y158.643 E0.29028
G1 X153.828 Y158.511 E0.00421
G1 X153.888 Y157.560 E0.02988
G1 X153.828 Y156.609 E0.02988
G1 X153.650 Y155.673 E0.02988
G1 X153.355 Y154.767 E0.02988
G1 X152.950 Y153.904 E0.02988
G1 X152.439 Y153.100 E0.02988
G1 X151.832 Y152.366 E0.02988
G1 X151.137 Y151.713 E0.02988
G1 X150.366 Y151.153 E0.02988
G1 X149.531 Y150.694 E0.02988
G1 X148.645 Y150.343 E0.02988
G1 X147.722 Y150.106 E0.02988
G1 X146.776 Y149.987 E0.02988
G1 X145.824 Y149.987 E0.02988
G1 X144.878 Y150.106 E0.02988
G1 X143.955 Y150.343 E0.02988
G1 X143.069 Y150.694 E0.02988
G1 X142.234 Y151.153 E0.02988
G1 X141.463 Y151.713 E0.02988
G1 X140.768 Y152.366 E0.02988
G1 X140.161 Y153.100 E0.02988
G1 X139.650 Y153.904 E0.02988
G1 X139.245 Y154.767 E0.02988
G1 X138.950 Y155.673 E0.02988
G1 X138.772 Y156.609 E0.02988
G1 X138.712 Y157.560 E0.02988
G1 X138.772 Y158.511 E0.02988
G1 X138.797 Y158.643 E0.00421
G1 X111.203 Y158.643 E0.86518
G1 X111.228 Y158.511 E0.00421
G1 X111.288 Y157.560 E0.02988
G1 X111.228 Y156.609 E0.02988
G1 X111.050 Y155.673 E0.02988
G1 X110.755 Y154.767 E0.02988
G1 X110.350 Y153.904 E0.02988
G1 X109.839 Y153.100 E0.02988
G1 X109.232 Y152.366 E0.02988
G1 X108.537 Y151.713 E0.02988
G1 X107.766 Y151.153 E0.02988
G1 X106.931 Y150.694 E0.02988
G1 X106.045 Y150.343 E0.02988
G1 X105.122 Y150.106 E0.02988
G1 X104.176 Y149.987 E0.02988
G1 X103.224 Y149.987 E0.02988
G1 X102.278 Y150.106 E0.02988
G1 X101.355 Y150.343 E0.02988
G1 X100.469 Y150.694 E0.02988
G1 X99.634 Y151.153 E0.02988
G1 X98.863 Y151.713 E0.02988
G1 X98.168 Y152.366 E0.02988
G1 X97.561 Y153.100 E0.02988
G1 X97.050 Y153.904 E0.02988
G1 X96.645 Y154.767 E0.02988
G1 X96.350 Y155.673 E0.02988
G1 X96.172 Y156.609 E0.02988
G1 X96.112 Y157.560 E0.02988
G1 X96.172 Y158.511 E0.02988
G1 X96.197 Y158.643 E0.00421
G1 X86.939 Y158.643 E0.29028
G1 X86.769 Y159.312 E0.02163
G1 X86.676 Y159.435 E0.00483
G1 X86.558 Y159.509 E0.00438
G1 X86.426 Y159.537 E0.00424
G1 X86.242 Y159.509 E0.00582
G1 X86.124 Y159.435 E0.00438
G1 X86.042 Y159.327 E0.00424
G1 X85.998 Y159.214 E0.00379
G1 X85.889 Y158.643 E0.01824
G1 X83.887 Y158.643 E0.06277
G1 X83.887 Y111.337 E1.48324
G1 X85.889 Y111.337 E0.06277
G1 X85.998 Y110.766 E0.01824
G1 X86.042 Y110.653 E0.00379
G1 X86.124 Y110.545 E0.00424
G1 X86.242 Y110.471 E0.00438
G1 X86.389 Y110.440 E0.00472
G1 X86.558 Y110.471 E0.00538
G1 X86.676 Y110.545 E0.00438
G1 X86.769 Y110.668 E0.00483
G1 X86.924 Y111.279 E0.01975
G1 X87.233 Y110.960 F10800.000
G1 F1200
G1 X162.767 Y110.960 E2.36831
G1 X162.869 Y110.553 E0.01316
G1 X163.029 Y110.305 E0.00925
G1 X163.270 Y110.133 E0.00928
G1 X163.550 Y110.063 E0.00906
G1 X163.844 Y110.099 E0.00927
G1 X163.930 Y110.133 E0.00290
G1 X164.171 Y110.305 E0.00928
G1 X164.291 Y110.470 E0.00640
G1 X164.366 Y110.660 E0.00641
G1 X164.423 Y110.960 E0.00957
G1 X166.490 Y110.960 E0.06480
G1 X166.490 Y159.020 E1.50689
G1 X164.423 Y159.020 E0.06480
G1 X164.366 Y159.320 E0.00957
G1 X164.291 Y159.510 E0.00641
G1 X164.171 Y159.675 E0.00640
G1 X163.930 Y159.847 E0.00928
G1 X163.844 Y159.881 E0.00290
G1 X163.550 Y159.917 E0.00927
G1 X163.270 Y159.847 E0.00906
G1 X163.029 Y159.675 E0.00928
G1 X162.869 Y159.427 E0.00925
G1 X162.767 Y159.020 E0.01316
G1 X153.347 Y159.020 E0.29534
G1 X153.454 Y158.464 E0.01776
G1 X153.510 Y157.560 E0.02839
G1 X153.454 Y156.656 E0.02839
G1 X153.284 Y155.767 E0.02839
G1 X153.004 Y154.906 E0.02839
G1 X152.618 Y154.086 E0.02839
G1 X152.133 Y153.322 E0.02839
G1 X151.556 Y152.624 E0.02839
G1 X150.896 Y152.004 E0.02839
G1 X150.164 Y151.472 E0.02839
G1 X149.370 Y151.036 E0.02839
G1 X148.528 Y150.702 E0.02839
G1 X147.651 Y150.477 E0.02839
G1 X146.753 Y150.364 E0.02839
G1 X145.847 Y150.364 E0.02839
G1 X144.949 Y150.477 E0.02839
G1 X144.072 Y150.702 E0.02839
G1 X143.230 Y151.036 E0.02839
G1 X142.436 Y151.472 E0.02839
G1 X141.704 Y152.004 E0.02839
G1 X141.044 Y152.624 E0.02839
G1 X140.467 Y153.322 E0.02839
G1 X139.982 Y154.086 E0.02839
G1 X139.596 Y154.906 E0.02839
G1 X139.316 Y155.767 E0.02839
G1 X139.146 Y156.656 E0.02839
G1 X139.090 Y157.560 E0.02839
G1 X139.146 Y158.464 E0.02839
G1 X139.253 Y159.020 E0.01776
G1 X110.747 Y159.020 E0.89376
G1 X110.854 Y158.464 E0.01776
G1 X110.910 Y157.560 E0.02839
G1 X110.854 Y156.656 E0.02839
G1 X110.684 Y155.767 E0.02839
G1 X110.404 Y154.906 E0.02839
G1 X110.018 Y154.086 E0.02839
G1 X109.533 Y153.322 E0.02839
G1 X108.956 Y152.624 E0.02839
G1 X108.296 Y152.004 E0.02839
G1 X107.564 Y151.472 E0.02839
G1 X106.770 Y151.036 E0.02839
G1 X105.928 Y150.702 E0.02839
G1 X105.051 Y150.477 E0.02839
G1 X104.153 Y150.364 E0.02839
G1 X103.247 Y150.364 E0.02839
G1 X102.349 Y150.477 E0.02839
G1 X101.472 Y150.702 E0.02839
G1 X100.630 Y151.036 E0.02839
G1 X99.836 Y151.472 E0.02839
G1 X99.104 Y152.004 E0.02839
G1 X98.444 Y152.624 E0.02839
G1 X97.867 Y153.322 E0.02839
G1 X97.382 Y154.086 E0.02839
G1 X96.996 Y154.906 E0.02839
G1 X96.716 Y155.767 E0.02839
G1 X96.546 Y156.656 E0.02839
G1 X96.490 Y157.560 E0.02839
G1 X96.546 Y158.464 E0.02839
G1 X96.653 Y159.020 E0.01776
G1 X87.233 Y159.020 E0.29534
G1 X87.131 Y159.427 E0.01316
G1 X86.971 Y159.675 E0.00925
G1 X86.730 Y159.847 E0.00928
G1 X86.450 Y159.917 E0.00906
G1 X86.156 Y159.881 E0.00927
G1 X86.070 Y159.847 E0.00290
G1 X85.829 Y159.675 E0.00928
G1 X85.709 Y159.510 E0.00640
G1 X85.634 Y159.320 E0.00641
G1 X85.577 Y159.020 E0.00957
G1 X83.510 Y159.020 E0.06481
G1 X83.510 Y110.960 E1.50689
G1 X85.577 Y110.960 E0.06481
G1 X85.634 Y110.660 E0.00957
G1 X85.709 Y110.470 E0.00641
G1 X85.829 Y110.305 E0.00640
G1 X86.070 Y110.133 E0.00928
G1 X86.356 Y110.062 E0.00923
G1 X86.650 Y110.101 E0.00930
G1 X86.730 Y110.133 E0.00270
G1 X86.971 Y110.305 E0.00928
G1 X87.131 Y110.553 E0.00925
G1 X87.218 Y110.902 E0.01128
G1 X87.284 Y111.357 F10800.000
G1 X87.317 Y111.450
G1 F1200
G1 X134.227 Y158.360 E2.08172
G1 X134.761 Y158.360 E0.01675
G1 X88.021 Y111.620 E2.07419
M73 Q0 S133
G1 X88.554 Y111.620 E0.01675
G1 X135.295 Y158.360 E2.07419
M73 P0 R132
G1 X135.828 Y158.360 E0.01675
G1 X89.088 Y111.620 E2.07419
G1 X89.622 Y111.620 E0.01675
G1 X136.362 Y158.360 E2.07419
G1 X136.896 Y158.360 E0.01675
G1 X90.155 Y111.620 E2.07419
G1 X90.689 Y111.620 E0.01675
G1 X137.429 Y158.360 E2.07419
G1 X137.963 Y158.360 E0.01675
G1 X91.223 Y111.620 E2.07419
G1 X91.757 Y111.620 E0.01675
G1 X138.478 Y158.341 E2.07334
G1 X138.442 Y157.771 E0.01791
G1 X92.290 Y111.620 E2.04806
G1 X92.824 Y111.620 E0.01675
G1 X138.448 Y157.244 E2.02467
G1 X138.480 Y156.742 E0.01579
G1 X93.358 Y111.620 E2.00239
G1 X93.891 Y111.620 E0.01675
G1 X138.547 Y156.276 E1.98169
G1 X138.633 Y155.828 E0.01432
G1 X94.425 Y111.620 E1.96180
G1 X94.959 Y111.620 E0.01675
G1 X138.741 Y155.402 E1.94292
G1 X138.872 Y154.999 E0.01329
G1 X95.492 Y111.620 E1.92504
G1 X96.026 Y111.620 E0.01675
G1 X139.009 Y154.603 E1.90746
G1 X139.180 Y154.240 E0.01259
G1 X96.560 Y111.620 E1.89135
G1 X97.094 Y111.620 E0.01675
G1 X139.351 Y153.877 E1.87525
G1 X139.547 Y153.540 E0.01225
G1 X97.627 Y111.620 E1.86027
G1 X98.161 Y111.620 E0.01675
G1 X139.754 Y153.213 E1.84578
M73 Q1 S132
G1 X139.966 Y152.892 E0.01209
G1 X98.695 Y111.620 E1.83151
M73 P1 R131
G1 X99.228 Y111.620 E0.01675
G1 X140.208 Y152.599 E1.81855
G1 X140.449 Y152.307 E0.01189
G1 X99.762 Y111.620 E1.80559
G1 X100.296 Y111.620 E0.01675
G1 X140.709 Y152.033 E1.79342
G1 X140.984 Y151.775 E0.01185
G1 X100.829 Y111.620 E1.78195
G1 X101.363 Y111.620 E0.01675
G1 X141.260 Y151.516 E1.77048
G1 X141.566 Y151.289 E0.01197
G1 X101.897 Y111.620 E1.76039
G1 X102.430 Y111.620 E0.01675
G1 X141.875 Y151.064 E1.75043
G1 X142.196 Y150.851 E0.01208
G1 X102.964 Y111.620 E1.74098
G1 X103.498 Y111.620 E0.01675
G1 X142.540 Y150.662 E1.73257
G1 X142.884 Y150.473 E0.01233
G1 X104.032 Y111.620 E1.72417
G1 X104.565 Y111.620 E0.01675
G1 X143.260 Y150.314 E1.71714
G1 X143.642 Y150.163 E0.01290
G1 X105.099 Y111.620 E1.71043
G1 X105.633 Y111.620 E0.01675
G1 X144.042 Y150.029 E1.70448
G1 X144.466 Y149.920 E0.01376
G1 X106.166 Y111.620 E1.69964
G1 X106.700 Y111.620 E0.01675
G1 X144.899 Y149.819 E1.69514
G1 X145.373 Y149.759 E0.01499
G1 X107.234 Y111.620 E1.69248
G1 X107.767 Y111.620 E0.01675
G1 X145.852 Y149.704 E1.69006
G1 X146.385 Y149.704 E0.01675
G1 X108.301 Y111.620 E1.69006
G1 X108.835 Y111.620 E0.01675
G1 X146.937 Y149.722 E1.69086
G1 X147.548 Y149.799 E0.01932
G1 X109.369 Y111.620 E1.69428
G1 X109.902 Y111.620 E0.01675
G1 X148.226 Y149.944 E1.70069
M73 Q2 S131
G1 X148.732 Y150.074 E0.01641
G1 X148.993 Y150.177 E0.00879
G1 X110.436 Y111.620 E1.71104
M73 P2 R130
G1 X110.970 Y111.620 E0.01675
G1 X150.383 Y151.033 E1.74905
G1 F8640
G1 X148.056 Y148.706 E-0.76000
G1 E-0.04000 F2100.00000
G1 Z0.800 F10800.000
G1 X153.984 Y157.837
G1 Z0.200
G1 E0.80000 F2100.00000
G1 F1200
G1 X154.508 Y158.360 E0.02323
G1 X155.041 Y158.360 E0.01675
G1 X154.167 Y157.486 E0.03881
G1 X154.131 Y156.916 E0.01791
G1 X155.575 Y158.360 E0.06408
G1 X156.109 Y158.360 E0.01675
G1 X154.059 Y156.311 E0.09094
G1 X153.934 Y155.651 E0.02107
G1 X156.642 Y158.360 E0.12021
G1 X157.176 Y158.360 E0.01675
G1 X153.686 Y154.870 E0.15486
G1 X153.619 Y154.662 E0.00687
G1 X153.269 Y153.920 E0.02576
G1 X157.710 Y158.360 E0.19706
G1 X158.244 Y158.360 E0.01675
G1 X111.503 Y111.620 E2.07419
G1 X112.037 Y111.620 E0.01675
G1 X158.777 Y158.360 E2.07419
G1 X159.311 Y158.360 E0.01675
G1 X112.571 Y111.620 E2.07419
G1 X113.104 Y111.620 E0.01675
G1 X159.845 Y158.360 E2.07419
G1 X160.378 Y158.360 E0.01675
G1 X113.638 Y111.620 E2.07419
G1 X114.172 Y111.620 E0.01675
G1 X160.912 Y158.360 E2.07419
G1 X161.446 Y158.360 E0.01675
G1 X114.706 Y111.620 E2.07419
G1 X115.239 Y111.620 E0.01675
G1 X161.979 Y158.360 E2.07419
G1 X162.513 Y158.360 E0.01675
G1 X115.773 Y111.620 E2.07419
G1 X116.307 Y111.620 E0.01675
G1 X163.744 Y159.058 E2.10514
G1 X163.830 Y158.609 E0.01432
G1 X116.840 Y111.620 E2.08525
G1 X117.374 Y111.620 E0.01675
G1 X164.114 Y158.360 E2.07419
G1 X164.648 Y158.360 E0.01675
G1 X117.908 Y111.620 E2.07419
G1 X118.441 Y111.620 E0.01675
G1 X165.182 Y158.360 E2.07419
G1 X165.715 Y158.360 E0.01675
G1 X118.975 Y111.620 E2.07419
G1 X119.509 Y111.620 E0.01675
G1 X165.830 Y157.941 E2.05560
M73 Q3 S130
G1 X165.830 Y157.408 E0.01675
G1 X120.042 Y111.620 E2.03192
M73 P3 R129
G1 X120.576 Y111.620 E0.01675
G1 X165.830 Y156.874 E2.00824
G1 X165.830 Y156.340 E0.01675
G1 X121.110 Y111.620 E1.98455
G1 X121.644 Y111.620 E0.01675
G1 X165.830 Y155.806 E1.96087
G1 X165.830 Y155.273 E0.01675
G1 X122.177 Y111.620 E1.93718
G1 X122.711 Y111.620 E0.01675
G1 X165.830 Y154.739 E1.91350
G1 X165.830 Y154.205 E0.01675
G1 X123.245 Y111.620 E1.88982
G1 X123.778 Y111.620 E0.01675
G1 X165.830 Y153.672 E1.86613
G1 X165.830 Y153.138 E0.01675
G1 X124.312 Y111.620 E1.84245
G1 X124.846 Y111.620 E0.01675
G1 X165.830 Y152.604 E1.81877
G1 X165.830 Y152.071 E0.01675
G1 X125.379 Y111.620 E1.79508
G1 X125.913 Y111.620 E0.01675
G1 X165.830 Y151.537 E1.77140
G1 X165.830 Y151.003 E0.01675
G1 X126.447 Y111.620 E1.74771
G1 X126.981 Y111.620 E0.01675
G1 X165.830 Y150.470 E1.72403
G1 X165.830 Y149.936 E0.01675
G1 X127.514 Y111.620 E1.70035
G1 X128.048 Y111.620 E0.01675
G1 X165.830 Y149.402 E1.67666
G1 X165.830 Y148.868 E0.01675
G1 X128.582 Y111.620 E1.65298
G1 X129.115 Y111.620 E0.01675
G1 X165.830 Y148.335 E1.62929
G1 X165.830 Y147.801 E0.01675
G1 X129.649 Y111.620 E1.60561
G1 X130.183 Y111.620 E0.01675
G1 X165.830 Y147.267 E1.58193
G1 X165.830 Y146.734 E0.01675
G1 X130.716 Y111.620 E1.55824
M73 Q3 S129
G1 X131.250 Y111.620 E0.01675
G1 X165.830 Y146.200 E1.53456
M73 P3 R128
G1 X165.830 Y145.666 E0.01675
G1 X131.784 Y111.620 E1.51088
G1 X132.317 Y111.620 E0.01675
G1 X165.830 Y145.133 E1.48719
G1 X165.830 Y144.599 E0.01675
G1 X132.851 Y111.620 E1.46351
G1 X133.385 Y111.620 E0.01675
G1 X165.830 Y144.065 E1.43982
G1 X165.830 Y143.531 E0.01675
G1 X133.919 Y111.620 E1.41614
G1 X134.452 Y111.620 E0.01675
G1 X165.830 Y142.998 E1.39246
G1 X165.830 Y142.464 E0.01675
G1 X134.986 Y111.620 E1.36877
G1 X135.520 Y111.620 E0.01675
G1 X165.830 Y141.930 E1.34509
G1 X165.830 Y141.397 E0.01675
G1 X136.053 Y111.620 E1.32140
G1 X136.587 Y111.620 E0.01675
G1 X165.830 Y140.863 E1.29772
G1 X165.830 Y140.329 E0.01675
G1 X137.121 Y111.620 E1.27404
G1 X137.654 Y111.620 E0.01675
G1 X165.830 Y139.796 E1.25035
G1 X165.830 Y139.262 E0.01675
G1 X138.188 Y111.620 E1.22667
G1 X138.722 Y111.620 E0.01675
G1 X165.830 Y138.728 E1.20299
G1 X165.830 Y138.195 E0.01675
G1 X139.256 Y111.620 E1.17930
G1 X139.789 Y111.620 E0.01675
G1 X165.830 Y137.661 E1.15562
G1 X165.830 Y137.127 E0.01675
G1 X140.323 Y111.620 E1.13193
G1 X140.857 Y111.620 E0.01675
G1 X165.830 Y136.593 E1.10825
G1 X165.830 Y136.060 E0.01675
G1 X141.390 Y111.620 E1.08457
G1 X141.924 Y111.620 E0.01675
G1 X165.830 Y135.526 E1.06088
G1 X165.830 Y134.992 E0.01675
G1 X142.458 Y111.620 E1.03720
G1 X142.991 Y111.620 E0.01675
G1 X165.830 Y134.459 E1.01352
G1 X165.830 Y133.925 E0.01675
