; generated by PrusaSlicer 2.9.0 on 2024-12-25 at 21:25:21 UTC


;
;
; 

; external perimeters extrusion width = 0.45mm
; perimeters extrusion width = 0.45mm
; infill extrusion width = 0.45mm
; solid infill extrusion width = 0.45mm
; top infill extrusion width = 0.40mm
; first layer extrusion width = 0.42mm

M73 P0 R88
M73 Q0 S88
M201 X1000 Y1000 Z200 E8000 ; sets maximum accelerations, mm/sec^2
M203 X200 Y200 Z12 E120 ; sets maximum feedrates, mm / sec
M204 S1250 T1250 ; sets acceleration (S) and retract acceleration (R), mm/sec^2
M205 X8.00 Y8.00 Z0.40 E4.50 ; sets the jerk limits, mm/sec
M205 S0 T0 ; sets the minimum extruding and travel feed rate, mm/sec

; printing object Toothpaste_Squeezer.stl id:0 copy 1
; stop printing object Toothpaste_Squeezer.stl id:0 copy 1
; printing object Toothpaste_Squeezer.stl id:0 copy 0
; stop printing object Toothpaste_Squeezer.stl id:0 copy 0

;TYPE:Custom
M862.3 P "MK3SMMU3" ; printer model check
M862.1 P0.4 ; nozzle diameter check
M115 U3.14.1 ; tell printer latest fw version
G90 ; use absolute coordinates
M83 ; extruder relative mode
M104 S215 ; set extruder temp
M140 S60 ; set bed temp
M190 S60 ; wait for bed temp
M109 S215 ; wait for extruder temp
G28 W ; home all without mesh bed level
G80 X50.8424 Y75.3549 W140.243 H67.8774 ; mesh bed levelling

; Send the filament type to the MMU unit.
; E stands for extruder number, F stands for filament type (0: default; 1:flex; 2: PVA)
M403 E0 F0
M403 E1 F0
M403 E2 F0
M403 E3 F0
M403 E4 F0


;go outside print area
G1 Y-3 F1000
G1 Z0.4 F1000
; select extruder
T0
; initial load
G1 X55 E29 F1073
G1 X5 E29 F1800
G1 X55 E8 F2000
G1 Z0.3 F1000
G92 E0
G1 X240 E25 F2200
G1 Y-2 F1000
M73 P0 R87
G1 X55 E25 F1400
G1 Z0.2 F1000
G1 X5 E4 F1000
G92 E0


M221 S95
G92 E0

; Don't change E values below. Excessive value can damage the printer.
M907 E430 ; set extruder motor current
G21 ; set units to millimeters
G90 ; use absolute coordinates
M83 ; use relative distances for extrusion

M900 K0.05 ; Filament gcode LA 1.5
M900 K30 ; Filament gcode LA 1.0




M107
;LAYER_CHANGE
;Z:0.2
;HEIGHT:0.2
G1 E-.8 F2100
G1 Z.6 F720
G1 X56.74 Y77.792 F10800
G1 Z.2 F720
G1 E.8 F2100
M204 S800
;TYPE:Skirt/Brim
;WIDTH:0.42
G1 F1200
G1 X57.67 Y77.217 E.03428
G1 X58.906 Y76.605 E.04324
G1 X59.864 Y76.237 E.03218
G1 X61.345 Y75.829 E.04817
G1 X62.775 Y75.607 E.04537
G1 X64.028 Y75.544 E.03934
G1 X126.081 Y75.544 E1.94563
G1 X127.908 Y75.677 E.05744
G1 X129.478 Y76.002 E.05027
G1 X131.059 Y76.543 E.05239
G1 X132.498 Y77.249 E.05026
G1 X155.214 Y92.169 E.85214
G1 X187.198 Y120.928 E1.34862
G1 X188.199 Y122.082 E.0479
G1 X188.98 Y123.219 E.04325
G1 X189.512 Y124.175 E.0343
G1 X190.041 Y125.376 E.04115
G1 X190.388 Y126.413 E.03429
G1 X190.699 Y127.757 E.04325
G1 X190.837 Y128.774 E.03218
G1 X190.894 Y130.309 E.04816
G1 X190.79 Y131.685 E.04327
G1 X190.605 Y132.763 E.03429
G1 X190.244 Y134.094 E.04324
G1 X189.678 Y135.522 E.04816
G1 X189.175 Y136.493 E.03429
G1 X188.427 Y137.652 E.04325
G1 X187.793 Y138.46 E.0322
G1 X186.845 Y139.462 E.04325
G1 X186.073 Y140.138 E.03217
G1 X184.957 Y140.949 E.04326
G1 X184.074 Y141.473 E.03219
G1 X182.829 Y142.065 E.04322
G1 X181.864 Y142.417 E.03221
G1 X180.531 Y142.77 E.04324
G1 X179.519 Y142.939 E.03217
G1 X178.086 Y143.042 E.04505
G1 X115.601 Y142.039 E1.95943
M73 Q0 S87
G1 X113.599 Y141.84 E.06308
G1 X111.429 Y141.257 E.07045
G1 X110.019 Y140.647 E.04817
G1 X109.064 Y140.114 E.03429
G1 X87.948 Y126.482 E.78806
G1 X86.635 Y125.504 E.05133
G1 X55.02 Y97.948 E1.31495
G1 X53.817 Y96.618 E.05623
G1 X52.618 Y94.798 E.06834
G1 X51.859 Y93.136 E.05729
G1 X51.281 Y91.104 E.06624
G1 X51.113 Y90.023 E.0343
G1 X51.031 Y88.646 E.04325
G1 X51.113 Y87.112 E.04817
G1 X51.267 Y86.097 E.03219
G1 X51.601 Y84.759 E.04324
G1 X51.939 Y83.79 E.03218
G1 X52.513 Y82.535 E.04327
G1 X53.059 Y81.588 E.03427
G1 X53.817 Y80.517 E.04114
G1 X54.529 Y79.686 E.03431
G1 X55.522 Y78.728 E.04326
G1 X56.692 Y77.829 E.04626
M204 S1000
;WIPE_START
G1 F8640
G1 X56.74 Y77.792 E-.01399
G1 X57.67 Y77.217 E-.25247
G1 X58.906 Y76.605 E-.31847
G1 X59.776 Y76.271 E-.21507
;WIPE_END
G1 Z.6 F720
G1 X108.177 Y121.814 F10800
G1 Z.2 F720
G1 E.8 F2100
M204 S800
G1 F1200
G1 X109.033 Y120.995 E.03715
G1 X141.272 Y93.878 E1.32086
G1 X142.963 Y92.915 E.06101
G1 X144.803 Y92.279 E.06104
G1 X146.714 Y91.993 E.06059
G1 X148.538 Y92.045 E.05721
G1 X150.235 Y92.388 E.05428
G1 X151.155 Y92.699 E.03045
G1 X152.671 Y93.435 E.05284
G1 X154.206 Y94.538 E.05927
G1 X184.978 Y122.222 E1.29783
G1 X185.805 Y123.065 E.03703
G1 X186.971 Y124.679 E.06243
G1 X187.797 Y126.441 E.06102
G1 X188.286 Y128.326 E.06106
G1 X188.42 Y130.268 E.06103
G1 X188.195 Y132.202 E.06105
G1 X187.619 Y134.061 E.06102
G1 X186.71 Y135.783 E.06105
G1 X185.6 Y137.201 E.05646
G1 X184.761 Y138.009 E.03652
G1 X183.939 Y138.649 E.03266
G1 X182.979 Y139.251 E.03553
G1 X181.97 Y139.74 E.03516
G1 X181.008 Y140.091 E.03211
G1 X179.886 Y140.375 E.03629
G1 X178.836 Y140.524 E.03325
G1 X177.762 Y140.569 E.0337
G1 X115.42 Y139.557 E1.95495
G1 X113.402 Y139.272 E.0639
G1 X111.647 Y138.68 E.05807
G1 X110.839 Y138.281 E.02825
G1 X109.234 Y137.207 E.06055
G1 X107.874 Y135.883 E.05951
G1 X107.174 Y134.972 E.03602
G1 X106.228 Y133.269 E.06108
G1 X105.597 Y131.367 E.06283
G1 X105.341 Y129.419 E.0616
G1 X105.353 Y128.387 E.03236
G1 X105.467 Y127.35 E.03271
G1 X105.692 Y126.29 E.03398
G1 X106.035 Y125.238 E.03469
G1 X106.451 Y124.294 E.03234
G1 X106.957 Y123.395 E.03235
G1 X108.14 Y121.861 E.06074
M204 S1000
G1 X108.14 Y121.861 F10800
G1 X108.437 Y122.089
M204 S800
G1 F1200
G1 X108.444 Y122.079 E.00038
G1 X109.281 Y121.279 E.0363
G1 X140.915 Y94.617 E1.29716
G1 X142.431 Y93.599 E.05726
M73 P1 R87
M73 Q1 S87
G1 X144.154 Y92.854 E.05886
G1 X145.983 Y92.438 E.05881
G1 X147.748 Y92.362 E.05539
G1 X149.213 Y92.531 E.04624
G1 X151.011 Y93.048 E.05866
G1 X152.484 Y93.762 E.05132
G1 X153.966 Y94.828 E.05724
G1 X184.721 Y122.498 E1.29714
G1 X185.518 Y123.309 E.03565
G1 X186.643 Y124.865 E.0602
G1 X187.441 Y126.564 E.05885
G1 X187.913 Y128.381 E.05886
G1 X188.043 Y130.253 E.05884
G1 X187.827 Y132.118 E.05887
G1 X187.272 Y133.911 E.05885
G1 X186.397 Y135.572 E.05886
G1 X185.318 Y136.951 E.0549
G1 X184.507 Y137.73 E.03526
G1 X183.715 Y138.345 E.03144
G1 X182.788 Y138.926 E.0343
G1 X181.815 Y139.396 E.03388
G1 X180.906 Y139.728 E.03034
G1 X179.804 Y140.007 E.03564
G1 X178.792 Y140.15 E.03205
G1 X177.762 Y140.192 E.03232
G1 X115.433 Y139.18 E1.95454
G1 X113.479 Y138.902 E.06188
G1 X111.789 Y138.33 E.05594
G1 X111.028 Y137.955 E.0266
G1 X109.479 Y136.92 E.05841
G1 X108.167 Y135.646 E.05734
G1 X107.479 Y134.75 E.03542
G1 X106.568 Y133.108 E.05888
G1 X105.962 Y131.272 E.06062
G1 X105.717 Y129.394 E.05938
G1 X105.838 Y127.42 E.06201
G1 X106.059 Y126.378 E.0334
G1 X106.39 Y125.364 E.03344
G1 X107.271 Y123.604 E.06171
G1 X108.4 Y122.137 E.05804
M204 S1000
G1 X108.698 Y122.367 F10800
M204 S800
G1 F1200
G1 X108.725 Y122.332 E.00139
G1 X109.528 Y121.564 E.03484
G1 X141.686 Y94.509 E1.31767
G1 X143.254 Y93.611 E.05666
G1 X144.961 Y93.017 E.05667
G1 X146.736 Y92.747 E.05629
G1 X148.437 Y92.793 E.05335
G1 X150.011 Y93.108 E.05033
G1 X150.866 Y93.396 E.02829
G1 X152.297 Y94.09 E.04987
G1 X153.725 Y95.119 E.05519
G1 X184.465 Y122.775 E1.29649
G1 X185.23 Y123.554 E.03423
M73 P1 R86
G1 X186.315 Y125.051 E.05797
G1 X187.084 Y126.687 E.05668
G1 X187.54 Y128.436 E.05667
G1 X187.666 Y130.239 E.05667
G1 X187.459 Y132.035 E.05669
G1 X186.926 Y133.762 E.05667
G1 X186.084 Y135.362 E.05669
G1 X185.036 Y136.701 E.05331
G1 X184.253 Y137.451 E.034
G1 X183.507 Y138.031 E.02963
G1 X182.614 Y138.591 E.03305
G1 X181.659 Y139.053 E.03326
G1 X180.804 Y139.365 E.02854
G1 X179.721 Y139.639 E.03503
G1 X177.763 Y139.815 E.06164
G1 X115.445 Y138.803 E1.95419
G1 X113.573 Y138.537 E.05928
G1 X111.931 Y137.981 E.05436
G1 X110.321 Y137.081 E.05783
G1 X109.048 Y136.034 E.05168
G1 X107.783 Y134.528 E.06167
G1 X106.909 Y132.946 E.05667
G1 X106.331 Y131.194 E.05784
G1 X106.094 Y129.369 E.0577
G1 X106.209 Y127.489 E.05906
G1 X106.426 Y126.467 E.03276
G1 X106.746 Y125.491 E.0322
G1 X107.595 Y123.798 E.05938
G1 X108.661 Y122.414 E.05477
M204 S1000
G1 X108.661 Y122.414 F10800
G1 X108.959 Y122.644
M204 S800
G1 F1200
G1 X109.005 Y122.584 E.00237
G1 X109.775 Y121.848 E.0334
G1 X141.378 Y95.213 E1.29587
G1 X142.784 Y94.266 E.05315
G1 X144.378 Y93.574 E.05449
G1 X146.072 Y93.187 E.05448
G1 X147.707 Y93.115 E.05131
G1 X149.055 Y93.269 E.04254
G1 X150.721 Y93.744 E.05432
G1 X152.109 Y94.417 E.04837
G1 X153.484 Y95.409 E.05316
G1 X184.208 Y123.051 E1.29583
G1 X184.943 Y123.798 E.03286
G1 X185.987 Y125.238 E.05577
G1 X186.728 Y126.81 E.05449
G1 X187.167 Y128.492 E.0545
G1 X187.289 Y130.226 E.0545
G1 X187.091 Y131.952 E.05447
G1 X186.579 Y133.613 E.0545
G1 X185.771 Y135.152 E.0545
G1 X184.754 Y136.45 E.0517
G1 X183.299 Y137.717 E.06049
G1 X182.423 Y138.266 E.03241
G1 X181.504 Y138.709 E.03199
G1 X179.639 Y139.271 E.06107
G1 X177.764 Y139.437 E.05902
G1 X115.458 Y138.426 E1.95382
G1 X113.667 Y138.172 E.05672
G1 X112.073 Y137.631 E.05278
G1 X111.407 Y137.303 E.02328
G1 X109.968 Y136.345 E.0542
G1 X108.73 Y135.144 E.05408
G1 X108.088 Y134.306 E.0331
G1 X107.25 Y132.784 E.05448
G1 X106.7 Y131.115 E.0551
G1 X106.47 Y129.343 E.05603
G1 X106.58 Y127.557 E.0561
G1 X106.787 Y126.574 E.0315
G1 X107.101 Y125.617 E.03158
G1 X107.918 Y123.991 E.05706
G1 X108.922 Y122.691 E.0515
M204 S1000
G1 X108.922 Y122.691 F10800
G1 X109.22 Y122.921
M204 S800
G1 F1200
G1 X109.285 Y122.836 E.00336
G1 X110.023 Y122.133 E.03196
G1 X142.101 Y95.139 E1.31452
G1 X143.546 Y94.307 E.05228
G1 X145.12 Y93.754 E.05231
G1 X146.76 Y93.501 E.05203
G1 X148.338 Y93.541 E.04949
G1 X149.804 Y93.833 E.04687
G1 X150.577 Y94.093 E.02557
G1 X151.922 Y94.744 E.04685
G1 X153.243 Y95.699 E.05111
G1 X183.952 Y123.328 E1.2952
G1 X184.656 Y124.043 E.03146
G1 X185.66 Y125.425 E.05356
G1 X186.371 Y126.934 E.0523
G1 X186.794 Y128.548 E.05231
G1 X186.913 Y130.212 E.05231
G1 X186.723 Y131.87 E.05233
G1 X186.233 Y133.464 E.05229
G1 X185.457 Y134.942 E.05234
G1 X184.472 Y136.199 E.05007
G1 X183.09 Y137.403 E.05747
G1 X182.25 Y137.931 E.03111
G1 X181.348 Y138.365 E.03139
G1 X179.557 Y138.903 E.05863
G1 X177.765 Y139.06 E.0564
G1 X115.471 Y138.049 E1.95344
G1 X113.761 Y137.807 E.05415
G1 X112.215 Y137.282 E.05119
G1 X110.729 Y136.447 E.05344
G1 X109.562 Y135.481 E.0475
G1 X108.394 Y134.084 E.05709
G1 X107.59 Y132.622 E.05231
G1 X107.069 Y131.036 E.05234
M73 Q1 S86
G1 X106.846 Y129.319 E.05429
G1 X106.95 Y127.626 E.05318
G1 X107.149 Y126.682 E.03025
G1 X107.456 Y125.744 E.03095
G1 X108.242 Y124.185 E.05474
G1 X109.183 Y122.969 E.04821
M204 S1000
G1 X109.48 Y123.199 F10800
M204 S800
G1 F1200
G1 X109.565 Y123.089 E.00436
G1 X110.27 Y122.418 E.03052
G1 X141.841 Y95.808 E1.2946
G1 X143.138 Y94.932 E.04907
G1 X144.604 Y94.294 E.05013
G1 X146.162 Y93.936 E.05012
G1 X147.666 Y93.868 E.04721
G1 X148.897 Y94.006 E.03884
G1 X150.432 Y94.441 E.05002
G1 X151.734 Y95.071 E.04535
G1 X153.002 Y95.989 E.04908
G1 X183.696 Y123.604 E1.29456
G1 X184.37 Y124.288 E.03011
G1 X185.332 Y125.612 E.05131
G1 X186.015 Y127.058 E.05014
G1 X186.421 Y128.604 E.05012
G1 X186.536 Y130.199 E.05014
G1 X186.355 Y131.788 E.05014
G1 X185.886 Y133.316 E.05012
G1 X185.144 Y134.732 E.05012
G1 X184.191 Y135.948 E.04844
G1 X182.881 Y137.088 E.05445
G1 X182.058 Y137.606 E.03049
G1 X181.194 Y138.021 E.03005
G1 X179.494 Y138.531 E.05565
G1 X177.766 Y138.683 E.05439
G1 X115.496 Y137.673 E1.95269
G1 X113.854 Y137.441 E.052
G1 X112.357 Y136.932 E.04958
G1 X110.948 Y136.14 E.05068
G1 X109.819 Y135.205 E.04596
G1 X108.709 Y133.877 E.05427
G1 X107.938 Y132.476 E.05014
G1 X107.438 Y130.957 E.05014
G1 X107.224 Y129.314 E.05195
G1 X107.321 Y127.694 E.05088
G1 X107.516 Y126.77 E.02961
G1 X107.812 Y125.871 E.02968
G1 X108.566 Y124.379 E.05241
G1 X109.443 Y123.247 E.0449
M204 S1000
G1 X109.443 Y123.247 F10800
G1 X109.74 Y123.477
M204 S800
G1 F1200
G1 X109.845 Y123.342 E.00536
G1 X110.518 Y122.702 E.02912
G1 X142.517 Y95.768 E1.31141
G1 X143.839 Y95.002 E.04791
G1 X145.281 Y94.491 E.04797
G1 X146.785 Y94.254 E.04774
G1 X148.24 Y94.289 E.04563
G1 X149.614 Y94.563 E.04393
G1 X150.288 Y94.789 E.02229
G1 X151.545 Y95.398 E.04379
G1 X152.76 Y96.278 E.04704
G1 X183.439 Y123.881 E1.29396
G1 X184.083 Y124.534 E.02876
M73 P2 R86
M73 Q2 S86
G1 X185.005 Y125.8 E.04911
G1 X185.659 Y127.182 E.04794
G1 X186.048 Y128.661 E.04795
G1 X186.159 Y130.187 E.04797
G1 X185.987 Y131.706 E.04793
G1 X185.539 Y133.168 E.04794
G1 X184.83 Y134.523 E.04795
G1 X183.909 Y135.698 E.04681
G1 X182.672 Y136.774 E.05141
G1 X181.885 Y137.27 E.02917
G1 X181.038 Y137.678 E.02948
G1 X179.432 Y138.159 E.05256
G1 X177.767 Y138.306 E.05241
G1 X115.522 Y137.297 E1.9519
G1 X113.947 Y137.076 E.04987
G1 X112.499 Y136.583 E.04796
G1 X111.167 Y135.833 E.04793
G1 X110.076 Y134.929 E.04442
G1 X109.024 Y133.669 E.05147
G1 X108.286 Y132.33 E.04794
G1 X107.807 Y130.878 E.04794
G1 X107.601 Y129.309 E.04962
G1 X107.692 Y127.763 E.04856
G1 X107.883 Y126.858 E.029
G1 X108.167 Y125.998 E.0284
G1 X108.889 Y124.573 E.05009
G1 X109.703 Y123.525 E.04161
M204 S1000
G1 X109.703 Y123.525 F10800
G1 X110 Y123.756
M204 S800
G1 F1200
G1 X110.124 Y123.596 E.00635
G1 X110.765 Y122.987 E.02772
G1 X142.305 Y96.402 E1.29335
G1 X143.494 Y95.597 E.04502
G1 X144.831 Y95.013 E.04575
G1 X146.253 Y94.685 E.04576
G1 X147.627 Y94.621 E.04313
G1 X148.739 Y94.744 E.03508
G1 X150.143 Y95.138 E.04572
G1 X151.356 Y95.724 E.04224
G1 X152.519 Y96.568 E.04506
G1 X183.183 Y124.157 E1.29332
G1 X183.797 Y124.78 E.02743
G1 X184.678 Y125.988 E.04688
G1 X185.303 Y127.307 E.04576
G1 X185.675 Y128.719 E.04578
G1 X185.782 Y130.174 E.04574
G1 X185.619 Y131.625 E.04578
G1 X185.192 Y133.021 E.04577
G1 X184.516 Y134.314 E.04575
G1 X183.627 Y135.447 E.04515
G1 X182.463 Y136.46 E.04838
G1 X181.693 Y136.946 E.02855
G1 X180.884 Y137.334 E.02813
G1 X179.369 Y137.787 E.04958
G1 X177.768 Y137.929 E.0504
G1 X115.546 Y136.92 E1.95118
G1 X114.039 Y136.71 E.04771
G1 X112.657 Y136.241 E.04576
G1 X111.385 Y135.525 E.04577
G1 X110.332 Y134.653 E.04287
G1 X109.338 Y133.461 E.04866
G1 X108.633 Y132.183 E.04576
G1 X108.175 Y130.797 E.04577
G1 X107.978 Y129.305 E.04719
G1 X108.063 Y127.831 E.04629
G1 X108.244 Y126.966 E.02771
G1 X108.522 Y126.125 E.02777
G1 X109.213 Y124.767 E.04777
G1 X109.963 Y123.803 E.0383
M204 S1000
G1 X109.963 Y123.803 F10800
G1 X110.26 Y124.034
M204 S800
G1 F1200
G1 X110.403 Y123.85 E.00731
G1 X142.934 Y96.396 E1.33467
G1 X144.134 Y95.696 E.04356
G1 X145.443 Y95.228 E.04359
G1 X146.811 Y95.008 E.04344
G1 X148.144 Y95.037 E.04181
G1 X149.424 Y95.293 E.04093
G1 X149.998 Y95.486 E.01899
G1 X151.167 Y96.051 E.04071
G1 X152.277 Y96.857 E.04301
G1 X183.511 Y125.026 E1.31877
G1 X184.352 Y126.177 E.0447
M73 P2 R85
G1 X184.948 Y127.433 E.04359
G1 X185.303 Y128.777 E.04359
G1 X185.405 Y130.163 E.04357
G1 X185.25 Y131.544 E.04357
G1 X184.845 Y132.874 E.04359
G1 X184.202 Y134.106 E.04357
G1 X183.346 Y135.196 E.04346
G1 X182.254 Y136.146 E.04538
G1 X181.52 Y136.61 E.02723
G1 X180.729 Y136.99 E.02751
G1 X179.306 Y137.415 E.04656
G1 X177.769 Y137.552 E.04838
G1 X115.559 Y136.543 E1.95081
G1 X114.131 Y136.344 E.04521
G1 X112.815 Y135.898 E.04357
G1 X111.603 Y135.217 E.04359
G1 X110.589 Y134.376 E.04131
G1 X109.653 Y133.253 E.04584
G1 X108.981 Y132.036 E.04359
G1 X108.544 Y130.717 E.04357
G1 X108.355 Y129.3 E.04482
G1 X108.434 Y127.899 E.044
G1 X108.877 Y126.252 E.05348
G1 X109.536 Y124.961 E.04545
G1 X110.223 Y124.081 E.035
M204 S1000
G1 X110.223 Y124.081 F10800
G1 X110.519 Y124.313
M204 S800
G1 F1200
G1 X110.682 Y124.104 E.00831
G1 X142.771 Y96.996 E1.31708
G1 X143.851 Y96.262 E.04094
G1 X145.06 Y95.732 E.04139
G1 X146.346 Y95.433 E.0414
G1 X147.59 Y95.375 E.03905
G1 X148.582 Y95.482 E.03128
G1 X149.854 Y95.834 E.04138
G1 X150.978 Y96.377 E.03914
G1 X152.034 Y97.146 E.04096
G1 X183.226 Y125.272 E1.31689
G1 X184.025 Y126.366 E.04248
G1 X184.592 Y127.558 E.04139
G1 X184.93 Y128.835 E.04142
G1 X185.028 Y130.152 E.04141
G1 X184.882 Y131.464 E.04139
G1 X184.497 Y132.727 E.0414
G1 X183.887 Y133.898 E.0414
G1 X183.064 Y134.944 E.04173
