; generated by PrusaSlicer 2.9.0 on 2025-01-05 at 00:19:04 UTC


;
;
; 

; external perimeters extrusion width = 0.45mm
; perimeters extrusion width = 0.45mm
; infill extrusion width = 0.45mm
; solid infill extrusion width = 0.45mm
; top infill extrusion width = 0.40mm
; first layer extrusion width = 0.42mm

M73 P0 R51
M73 Q0 S51
M201 X1000 Y1000 Z200 E5000 ; sets maximum accelerations, mm/sec^2
M203 X200 Y200 Z12 E120 ; sets maximum feedrates, mm / sec
M204 S1250 T1250 ; sets acceleration (S) and retract acceleration (R), mm/sec^2
M205 X8.00 Y8.00 Z0.40 E4.50 ; sets the jerk limits, mm/sec
M205 S0 T0 ; sets the minimum extruding and travel feed rate, mm/sec

; printing object bottom-door-tighter.stl id:0 copy 0
; stop printing object bottom-door-tighter.stl id:0 copy 0

;TYPE:Custom
M862.3 P "MK3S" ; printer model check
M862.1 P0.4 ; nozzle diameter check
M115 U3.14.1 ; tell printer latest fw version
G90 ; use absolute coordinates
M83 ; extruder relative mode
M104 S215 ; set extruder temp
M140 S60 ; set bed temp
M190 S60 ; wait for bed temp
M109 S215 ; wait for extruder temp
G28 W ; home all without mesh bed level
G80 X30.5047 Y52.7002 W63.9693 H106.698 ; mesh bed levelling

G1 Z0.2 F720
G1 Y-3 F1000 ; go outside print area
G92 E0
G1 X60 E9 F1000 ; intro line
G1 X100 E12.5 F1000 ; intro line

G92 E0
M221 S95

; Don't change E values below. Excessive value can damage the printer.
M907 E430 ; set extruder motor current
G21 ; set units to millimeters
G90 ; use absolute coordinates
M83 ; use relative distances for extrusion

M900 K0.05 ; Filament gcode LA 1.5
M900 K30 ; Filament gcode LA 1.0




M107
;LAYER_CHANGE
;Z:0.2
;HEIGHT:0.2
G1 E-.8 F2100
G1 Z.6 F720
G1 X38.65 Y55.938 F10800
G1 Z.2 F720
G1 E.8 F2100
M204 S800
;TYPE:Skirt/Brim
;WIDTH:0.42
G1 F1200
G1 X39.42 Y55.405 E.02936
G1 X40.424 Y54.855 E.03589
G1 X44.162 Y53.099 E.12949
G1 X45.093 Y52.892 E.0299
G1 X79.88 Y52.889 E1.09072
G1 X80.811 Y53.096 E.0299
G1 X84.449 Y54.806 E.12604
G1 X85.583 Y55.42 E.04043
G1 X86.993 Y56.461 E.05495
G1 X87.949 Y57.411 E.04226
G1 X88.97 Y58.735 E.05242
G1 X89.714 Y60.054 E.04748
G1 X90.916 Y63.28 E.10794
G1 X91.038 Y63.912 E.02018
G1 X94.257 Y139.121 E2.36028
G1 X94.236 Y145.498 E.19995
G1 X93.935 Y147.548 E.06497
G1 X93.269 Y149.791 E.07336
G1 X92.485 Y151.521 E.05955
G1 X91.586 Y152.996 E.05416
G1 X90.204 Y154.713 E.06911
G1 X88.97 Y155.888 E.05343
G1 X87.332 Y157.082 E.06355
G1 X85.73 Y157.945 E.05705
G1 X83.937 Y158.623 E.0601
G1 X82.2 Y159.027 E.05592
G1 X80.011 Y159.21 E.06887
G1 X44.849 Y159.209 E1.10248
G1 X43.648 Y159.141 E.03772
G1 X42.459 Y158.97 E.03766
G1 X41.202 Y158.67 E.04052
G1 X40.001 Y158.264 E.03975
G1 X38.325 Y157.48 E.05802
G1 X36.593 Y156.353 E.06479
G1 X35.074 Y155.024 E.06328
G1 X34.172 Y154.031 E.04206
G1 X33.517 Y153.177 E.03375
G1 X32.436 Y151.411 E.06492
G1 X31.585 Y149.455 E.06688
G1 X31.007 Y147.373 E.06775
G1 X30.724 Y145.244 E.06734
G1 X30.695 Y139.139 E.19142
G1 X33.941 Y63.912 E2.36088
G1 X34.063 Y63.281 E.02015
G1 X34.9 Y60.903 E.07904
G1 X35.56 Y59.479 E.04921
G1 X36.43 Y58.134 E.05022
G1 X37.341 Y57.076 E.04378
G1 X38.496 Y56.044 E.04856
G1 X38.601 Y55.972 E.00399
M204 S1000
;WIPE_START
G1 F8640
G1 X38.65 Y55.938 E-.01377
G1 X39.42 Y55.405 E-.21624
G1 X40.424 Y54.855 E-.26433
G1 X41.622 Y54.292 E-.30566
;WIPE_END
G1 Z.6 F720
G1 X40.136 Y57.907 F10800
G1 Z.2 F720
G1 E.8 F2100
M204 S800
G1 F1200
G1 X41.554 Y57.061 E.05177
G1 X42.476 Y56.693 E.03113
G1 X43.288 Y56.472 E.02639
G1 X44.304 Y56.328 E.03217
G1 X45.093 Y55.852 E.02889
G1 X46.507 Y55.446 E.04613
G1 X78.44 Y55.442 E1.00124
G1 X79.83 Y55.825 E.04521
G1 X80.69 Y56.346 E.03153
M73 P0 R50
G1 X81.52 Y56.435 E.02617
G1 X82.504 Y56.693 E.0319
G1 X83.355 Y57.027 E.02866
G1 X84.5 Y57.668 E.04114
G1 X85.61 Y58.55 E.04445
G1 X86.396 Y59.4 E.0363
G1 X87.322 Y60.807 E.05281
G1 X87.741 Y61.722 E.03155
G1 X88.116 Y62.921 E.03939
G1 X88.288 Y63.871 E.03027
G1 X88.34 Y64.751 E.02764
G1 X88.547 Y65.554 E.026
G1 X88.564 Y136.457 E2.22311
G1 X88.69 Y136.849 E.01291
G1 X89.762 Y137.394 E.03771
G1 X90.883 Y138.486 E.04907
G1 X91.414 Y139.411 E.03344
G1 X91.746 Y140.479 E.03507
G1 X91.772 Y145.261 E.14994
G1 X91.51 Y147.053 E.05678
G1 X90.999 Y148.797 E.05698
G1 X90.292 Y150.372 E.05413
G1 X89.662 Y151.425 E.03847
G1 X88.822 Y152.547 E.04395
G1 X87.323 Y154.038 E.06629
G1 X85.95 Y155.026 E.05304
G1 X84.295 Y155.871 E.05826
G1 X82.255 Y156.499 E.06692
G1 X81.092 Y156.677 E.03689
G1 X80.013 Y156.735 E.03388
G1 X44.884 Y156.734 E1.10145
G1 X42.934 Y156.54 E.06144
M73 P1 R50
M73 Q1 S51
G1 X41.045 Y156.013 E.06149
G1 X40.042 Y155.582 E.03423
G1 X39.058 Y155.043 E.03518
G1 X38.113 Y154.401 E.03582
G1 X36.824 Y153.273 E.05371
G1 X35.48 Y151.663 E.06576
G1 X34.67 Y150.341 E.04861
G1 X33.968 Y148.766 E.05407
G1 X33.467 Y147.045 E.0562
G1 X33.205 Y145.238 E.05725
G1 X33.172 Y140.967 E.13392
G1 X33.453 Y139.686 E.04112
G1 X34.077 Y138.514 E.04163
G1 X34.996 Y137.561 E.04151
G1 X35.955 Y136.97 E.03532
G1 X36.289 Y136.852 E.01111
G1 X36.414 Y136.465 E.01275
G1 X36.414 Y65.696 E2.21891
G1 X36.637 Y64.757 E.03026
M73 Q1 S50
G1 X36.694 Y63.848 E.02856
G1 X36.873 Y62.878 E.03093
G1 X37.202 Y61.817 E.03483
G1 X37.97 Y60.261 E.05441
G1 X38.567 Y59.419 E.03236
G1 X39.51 Y58.418 E.04312
G1 X40.089 Y57.945 E.02344
M204 S1000
G1 X40.089 Y57.945 F10800
G1 X40.327 Y58.237
M204 S800
G1 F1200
G1 X40.353 Y58.215 E.00107
G1 X41.723 Y57.398 E.05001
G1 X42.605 Y57.048 E.02975
G1 X43.361 Y56.842 E.02457
G1 X44.422 Y56.699 E.03357
G1 X45.223 Y56.208 E.02946
G1 X46.585 Y55.816 E.04444
G1 X78.365 Y55.813 E.99644
G1 X79.675 Y56.169 E.04256
G1 X80.54 Y56.71 E.03199
G1 X81.438 Y56.803 E.02831
G1 X82.398 Y57.055 E.03112
G1 X83.204 Y57.373 E.02717
G1 X84.278 Y57.973 E.03857
G1 X85.343 Y58.817 E.04261
G1 X86.111 Y59.648 E.03548
G1 X86.578 Y60.288 E.02484
G1 X87.394 Y61.868 E.05576
G1 X87.747 Y63 E.03718
G1 X87.915 Y63.926 E.02951
G1 X87.966 Y64.809 E.02773
G1 X88.176 Y65.625 E.02642
G1 X88.187 Y136.516 E2.22274
G1 X88.332 Y137.128 E.01972
G1 X88.815 Y137.29 E.01597
G1 X89.517 Y137.682 E.02521
G1 X90.6 Y138.736 E.04738
G1 X91.075 Y139.578 E.03031
G1 X91.378 Y140.563 E.03231
G1 X91.396 Y145.226 E.14621
G1 X91.143 Y146.967 E.05516
G1 X90.648 Y148.66 E.05531
G1 X89.957 Y150.199 E.0529
G1 X89.354 Y151.207 E.03683
G1 X88.537 Y152.299 E.04276
G1 X87.086 Y153.745 E.06423
G1 X85.758 Y154.702 E.05132
G1 X84.142 Y155.527 E.05689
G1 X82.17 Y156.131 E.06467
G1 X81.044 Y156.303 E.03571
G1 X80.008 Y156.358 E.03253
G1 X44.889 Y156.357 E1.10113
G1 X43.011 Y156.171 E.05917
G1 X41.171 Y155.657 E.0599
G1 X40.2 Y155.239 E.03315
G1 X39.247 Y154.717 E.03407
G1 X38.344 Y154.103 E.03424
G1 X37.098 Y153.014 E.05189
G1 X35.784 Y151.44 E.06429
G1 X35.006 Y150.17 E.0467
G1 X34.64 Y149.42 E.02617
G1 X34.054 Y147.826 E.05325
G1 X33.678 Y146.089 E.05572
G1 X33.546 Y144.343 E.0549
G1 X33.549 Y140.988 E.10519
G1 X33.815 Y139.793 E.03839
G1 X34.368 Y138.755 E.03688
G1 X35.214 Y137.869 E.03841
G1 X36.133 Y137.304 E.03382
G1 X36.65 Y137.132 E.01708
G1 X36.791 Y136.525 E.01954
G1 X36.791 Y65.719 E2.22007
G1 X37.012 Y64.814 E.02921
G1 X37.067 Y63.906 E.02852
G1 X37.242 Y62.958 E.03023
G1 X37.558 Y61.939 E.03345
G1 X38.294 Y60.454 E.05197
G1 X38.867 Y59.648 E.03101
G1 X39.775 Y58.686 E.04148
G1 X40.28 Y58.275 E.02042
M204 S1000
G1 X40.28 Y58.275 F10800
G1 X40.521 Y58.598
M204 S800
G1 F1200
G1 X41.13 Y58.145 E.0238
G1 X41.892 Y57.735 E.02713
G1 X42.734 Y57.402 E.02839
G1 X43.435 Y57.212 E.02277
G1 X44.541 Y57.069 E.03497
G1 X45.353 Y56.562 E.03001
G1 X46.664 Y56.186 E.04276
G1 X78.292 Y56.183 E.99167
G1 X79.519 Y56.513 E.03984
G1 X80.024 Y56.775 E.01784
G1 X80.388 Y57.073 E.01475
G1 X81.357 Y57.172 E.03054
G1 X82.291 Y57.417 E.03028
G1 X83.054 Y57.719 E.02573
G1 X84.056 Y58.278 E.03598
G1 X85.076 Y59.084 E.04076
G1 X85.826 Y59.896 E.03466
G1 X86.644 Y61.14 E.04668
G1 X87.046 Y62.014 E.03016
G1 X87.378 Y63.078 E.03495
G1 X87.542 Y63.982 E.02881
G1 X87.591 Y64.867 E.02779
G1 X87.805 Y65.696 E.02684
G1 X87.81 Y136.575 E2.22236
G1 X87.985 Y137.413 E.02684
G1 X88.648 Y137.629 E.02186
G1 X89.311 Y137.998 E.02379
G1 X90.316 Y138.985 E.04417
G1 X90.735 Y139.742 E.02713
G1 X91.009 Y140.647 E.02965
G1 X91.021 Y145.192 E.14251
G1 X90.775 Y146.881 E.05352
G1 X90.296 Y148.524 E.05366
G1 X89.622 Y150.026 E.05162
G1 X89.046 Y150.989 E.03518
G1 X88.253 Y152.052 E.04158
G1 X86.848 Y153.452 E.06219
G1 X85.564 Y154.378 E.04964
G1 X83.989 Y155.182 E.05545
G1 X82.086 Y155.763 E.06239
G1 X80.997 Y155.929 E.03454
G1 X80.003 Y155.981 E.03121
G1 X44.895 Y155.98 E1.10079
G1 X43.073 Y155.799 E.05741
M73 P2 R50
M73 Q2 S50
G1 X41.296 Y155.301 E.05786
G1 X39.436 Y154.391 E.06492
G1 X38.576 Y153.806 E.03261
G1 X37.371 Y152.754 E.05015
G1 X36.095 Y151.228 E.06237
G1 X34.982 Y149.261 E.07086
G1 X34.415 Y147.714 E.05166
G1 X34.05 Y146.029 E.05406
G1 X33.923 Y144.331 E.05339
G1 X33.926 Y141.009 E.10416
G1 X34.161 Y139.945 E.03416
G1 X34.66 Y138.995 E.03365
G1 X35.434 Y138.177 E.03531
G1 X36.31 Y137.638 E.03225
G1 X37 Y137.417 E.02272
G1 X37.168 Y136.585 E.02661
G1 X37.168 Y65.743 E2.2212
G1 X37.386 Y64.872 E.02815
G1 X37.44 Y63.962 E.02858
G1 X37.611 Y63.038 E.02946
G1 X37.915 Y62.062 E.03205
G1 X38.619 Y60.646 E.04958
G1 X39.166 Y59.878 E.02956
G1 X40.041 Y58.954 E.0399
G1 X40.472 Y58.634 E.01683
M204 S1000
G1 X40.472 Y58.634 F10800
G1 X40.697 Y58.936
M204 S800
G1 F1200
G1 X41.334 Y58.463 E.02488
G1 X42.041 Y58.082 E.02518
G1 X43.508 Y57.582 E.0486
G1 X44.714 Y57.437 E.03809
G1 X45.483 Y56.917 E.02911
G1 X46.743 Y56.556 E.0411
G1 X78.266 Y56.56 E.98838
G1 X79.363 Y56.857 E.03563
G1 X79.831 Y57.1 E.01653
G1 X80.234 Y57.437 E.01647
G1 X81.276 Y57.54 E.03283
G1 X82.184 Y57.779 E.02944
G1 X82.903 Y58.065 E.02426
G1 X83.835 Y58.584 E.03345
G1 X84.81 Y59.351 E.0389
G1 X85.542 Y60.143 E.03381
G1 X86.306 Y61.306 E.04363
G1 X86.698 Y62.161 E.02949
G1 X87.009 Y63.157 E.03272
G1 X87.169 Y64.038 E.02807
G1 X87.217 Y64.925 E.02785
G1 X87.433 Y65.767 E.02726
G1 X87.433 Y136.637 E2.22208
G1 X87.641 Y137.7 E.03396
G1 X88.481 Y137.967 E.02764
G1 X89.105 Y138.315 E.0224
G1 X90.03 Y139.233 E.04086
G1 X90.394 Y139.903 E.02391
G1 X90.64 Y140.729 E.02702
G1 X90.679 Y144.294 E.11178
G1 X90.555 Y145.978 E.05294
G1 X90.203 Y147.603 E.05213
G1 X89.642 Y149.129 E.05098
G1 X88.738 Y150.771 E.05877
G1 X87.968 Y151.805 E.04042
G1 X86.611 Y153.159 E.06011
G1 X85.371 Y154.054 E.04795
G1 X83.836 Y154.837 E.05403
G1 X82.003 Y155.396 E.06009
G1 X79.999 Y155.604 E.06317
G1 X44.9 Y155.603 E1.1005
G1 X43.979 Y155.55 E.02893
G1 X42.269 Y155.224 E.05458
G1 X41.422 Y154.946 E.02795
G1 X39.626 Y154.064 E.06274
G1 X38.808 Y153.508 E.03101
G1 X37.645 Y152.494 E.04838
G1 X36.407 Y151.015 E.06047
G1 X35.667 Y149.807 E.04442
G1 X35.027 Y148.37 E.04932
G1 X34.571 Y146.799 E.05129
G1 X34.333 Y145.147 E.05233
G1 X34.303 Y141.029 E.12912
G1 X34.506 Y140.098 E.02988
G1 X34.981 Y139.194 E.03202
G1 X35.688 Y138.456 E.03204
G1 X36.484 Y137.973 E.02919
G1 X37.352 Y137.705 E.02848
G1 X37.419 Y137.032 E.02121
G1 X37.545 Y136.645 E.01276
G1 X37.545 Y65.767 E2.22233
G1 X37.76 Y64.931 E.02707
G1 X37.813 Y64.019 E.02864
G1 X37.979 Y63.117 E.02876
G1 X38.272 Y62.185 E.03063
G1 X38.943 Y60.84 E.04713
G1 X39.466 Y60.108 E.02821
G1 X40.288 Y59.239 E.03751
G1 X40.648 Y58.972 E.01405
M204 S1000
G1 X40.648 Y58.972 F10800
G1 X40.873 Y59.274
M204 S800
G1 F1200
G1 X41.536 Y58.781 E.02591
G1 X42.991 Y58.111 E.05022
G1 X44.197 Y57.844 E.03873
G1 X44.877 Y57.805 E.02136
G1 X45.616 Y57.271 E.02859
G1 X46.77 Y56.933 E.0377
G1 X78.241 Y56.938 E.98675
G1 X79.207 Y57.201 E.03139
G1 X79.638 Y57.424 E.01522
G1 X80.079 Y57.801 E.01819
G1 X81.195 Y57.909 E.03515
G1 X82.076 Y58.14 E.02856
G1 X82.752 Y58.411 E.02284
G1 X83.614 Y58.89 E.03092
G1 X84.543 Y59.618 E.03701
G1 X85.646 Y60.93 E.05374
G1 X86.35 Y62.307 E.04849
G1 X86.64 Y63.236 E.03051
G1 X86.796 Y64.093 E.02731
G1 X86.842 Y64.984 E.02797
G1 X87.056 Y65.792 E.02621
G1 X87.056 Y136.702 E2.22333
G1 X87.183 Y137.069 E.01218
M73 P2 R49
G1 X87.262 Y138.064 E.0313
G1 X87.618 Y138.088 E.01119
G1 X88.315 Y138.306 E.0229
G1 X88.898 Y138.631 E.02093
G1 X89.742 Y139.478 E.03749
G1 X90.051 Y140.062 E.02072
G1 X90.271 Y140.809 E.02442
G1 X90.27 Y145.123 E.13526
G1 X90.041 Y146.709 E.05024
G1 X89.593 Y148.251 E.05035
G1 X88.952 Y149.679 E.04908
G1 X88.429 Y150.554 E.03196
G1 X87.683 Y151.558 E.03922
G1 X86.374 Y152.866 E.05802
G1 X85.178 Y153.73 E.04626
G1 X83.683 Y154.492 E.05261
G1 X81.919 Y155.028 E.05781
G1 X80.903 Y155.181 E.03222
G1 X44.906 Y155.226 E1.12866
G1 X43.198 Y155.055 E.05382
G1 X41.548 Y154.59 E.05375
G1 X39.815 Y153.738 E.06055
G1 X39.04 Y153.211 E.02939
G1 X37.918 Y152.234 E.04665
G1 X36.718 Y150.802 E.05858
G1 X35.666 Y148.943 E.06697
G1 X35.135 Y147.491 E.04848
G1 X34.795 Y145.909 E.05074
G1 X34.677 Y144.31 E.05027
G1 X34.68 Y141.049 E.10225
G1 X34.853 Y140.248 E.02569
G1 X35.273 Y139.435 E.02869
G1 X35.942 Y138.736 E.03034
G1 X36.657 Y138.309 E.02611
G1 X37.695 Y138.058 E.03348
G1 X37.792 Y137.092 E.03044
G1 X37.922 Y136.708 E.01271
G1 X37.922 Y65.792 E2.22352
G1 X38.135 Y64.991 E.02599
M73 P3 R49
M73 Q3 S50
G1 X38.186 Y64.076 E.02873
G1 X38.348 Y63.197 E.02802
G1 X38.628 Y62.309 E.02919
G1 X39.266 Y61.033 E.04473
M73 Q3 S49
G1 X39.764 Y60.338 E.02681
G1 X40.536 Y59.524 E.03518
G1 X40.824 Y59.309 E.01127
M204 S1000
G1 X40.824 Y59.309 F10800
G1 X41.049 Y59.612
M204 S800
G1 F1200
G1 X41.74 Y59.099 E.02698
G1 X42.34 Y58.775 E.02138
G1 X43.672 Y58.318 E.04415
G1 X45.043 Y58.174 E.04322
G1 X45.752 Y57.624 E.02813
G1 X46.798 Y57.31 E.03424
G1 X78.215 Y57.315 E.98506
G1 X79.051 Y57.545 E.02719
G1 X79.443 Y57.748 E.01384
G1 X79.922 Y58.165 E.01991
G1 X81.114 Y58.278 E.03754
G1 X81.969 Y58.502 E.02771
G1 X83.394 Y59.197 E.04971
G1 X84.277 Y59.885 E.0351
G1 X84.972 Y60.638 E.03213
G1 X85.629 Y61.639 E.03754
G1 X86.003 Y62.453 E.02809
G1 X86.271 Y63.315 E.0283
G1 X86.422 Y64.148 E.02654
G1 X86.467 Y65.045 E.02816
G1 X86.679 Y65.818 E.02513
G1 X86.679 Y136.769 E2.22462
G1 X86.812 Y137.137 E.01227
G1 X86.896 Y137.826 E.02176
G1 X86.838 Y138.434 E.01915
G1 X87.533 Y138.457 E.0218
G1 X88.185 Y138.661 E.02142
G1 X88.652 Y138.918 E.01671
G1 X89.424 Y139.682 E.03405
G1 X89.695 Y140.187 E.01797
G1 X89.902 Y140.89 E.02298
G1 X89.925 Y144.291 E.10664
G1 X89.81 Y145.858 E.04926
G1 X89.483 Y147.38 E.04881
G1 X88.954 Y148.821 E.04813
G1 X88.121 Y150.337 E.05424
G1 X87.397 Y151.311 E.03805
G1 X86.136 Y152.573 E.05594
G1 X84.984 Y153.407 E.04459
G1 X83.53 Y154.148 E.05117
G1 X81.836 Y154.66 E.05549
G1 X79.989 Y154.849 E.05821
G1 X44.039 Y154.798 E1.12719
G1 X42.473 Y154.498 E.04999
G1 X41.674 Y154.235 E.02637
G1 X40.004 Y153.412 E.05837
G1 X39.272 Y152.913 E.02778
G1 X38.191 Y151.974 E.0449
G1 X37.03 Y150.59 E.05664
G1 X36.329 Y149.445 E.04209
G1 X35.731 Y148.099 E.04618
G1 X35.306 Y146.627 E.04804
G1 X35.084 Y145.079 E.04903
G1 X35.057 Y141.069 E.12573
G1 X35.2 Y140.398 E.02151
G1 X35.595 Y139.633 E.02699
G1 X36.195 Y139.017 E.02696
G1 X36.788 Y138.663 E.02165
G1 X37.499 Y138.449 E.02328
G1 X38.143 Y138.428 E.0202
G1 X38.086 Y137.824 E.01902
G1 X38.164 Y137.159 E.02099
G1 X38.299 Y136.774 E.01279
G1 X38.299 Y65.818 E2.22478
G1 X38.509 Y65.052 E.0249
G1 X38.559 Y64.132 E.02889
G1 X38.717 Y63.277 E.02726
G1 X38.984 Y62.433 E.02776
G1 X39.59 Y61.227 E.04232
G1 X40.063 Y60.568 E.02543
G1 X40.784 Y59.808 E.03285
G1 X41 Y59.647 E.00845
M204 S1000
G1 X41 Y59.647 F10800
G1 X41.225 Y59.949
M204 S800
G1 F1200
G1 X41.942 Y59.417 E.02799
G1 X42.49 Y59.121 E.01953
G1 X43.761 Y58.684 E.04214
G1 X45.211 Y58.543 E.04568
G1 X45.937 Y57.954 E.02931
G1 X46.826 Y57.687 E.0291
G1 X78.189 Y57.692 E.98336
G1 X79.214 Y58.049 E.03403
G1 X79.786 Y58.547 E.02378
G1 X81.032 Y58.646 E.03919
G1 X82.448 Y59.101 E.04663
G1 X83.175 Y59.504 E.02606
G1 X84.01 Y60.152 E.03314
G1 X85.023 Y61.356 E.04933
G1 X85.655 Y62.6 E.04375
G1 X85.902 Y63.394 E.02607
G1 X86.046 Y64.18 E.02505
G1 X86.093 Y65.107 E.0291
G1 X86.302 Y65.845 E.02405
G1 X86.302 Y136.839 E2.22597
G1 X86.44 Y137.207 E.01232
G1 X86.519 Y137.849 E.02028
G1 X86.416 Y138.806 E.03018
G1 X87.447 Y138.825 E.03233
G1 X88.408 Y139.207 E.03242
G1 X89.107 Y139.888 E.0306
