; generated by PrusaSlicer 2.9.0 on 2025-01-20 at 23:56:57 UTC


;
;
; 

; external perimeters extrusion width = 0.60mm
; perimeters extrusion width = 0.50mm
; infill extrusion width = 0.50mm
; solid infill extrusion width = 0.50mm
; top infill extrusion width = 0.45mm
; first layer extrusion width = 0.42mm

M73 P0 R9
M73 Q0 S9
M201 X1000 Y1000 Z200 E5000 ; sets maximum accelerations, mm/sec^2
M203 X200 Y200 Z12 E120 ; sets maximum feedrates, mm / sec
M204 S1250 T1250 ; sets acceleration (S) and retract acceleration (R), mm/sec^2
M205 X8.00 Y8.00 Z0.40 E4.50 ; sets the jerk limits, mm/sec
M205 S0 T0 ; sets the minimum extruding and travel feed rate, mm/sec

; printing object InfillTest.stl id:0 copy 0
; stop printing object InfillTest.stl id:0 copy 0

;TYPE:Custom
M862.3 P "MK3S" ; printer model check
M862.1 P0.4 ; nozzle diameter check
M115 U3.14.1 ; tell printer latest fw version
G90 ; use absolute coordinates
M83 ; extruder relative mode
M104 S215 ; set extruder temp
M140 S60 ; set bed temp
M190 S60 ; wait for bed temp
M109 S215 ; wait for extruder temp
G28 W ; home all without mesh bed level
G80 X99.7312 Y35.2283 W44.5542 H44.5542 ; mesh bed levelling

G1 Z0.2 F720
G1 Y-3 F1000 ; go outside print area
G92 E0
G1 X60 E9 F1000 ; intro line
G1 X100 E12.5 F1000 ; intro line

G92 E0
M221 S95

; Don't change E values below. Excessive value can damage the printer.

M907 E538 ; set extruder motor current
G21 ; set units to millimeters
G90 ; use absolute coordinates
M83 ; use relative distances for extrusion

M900 K0.05 ; Filament gcode LA 1.5
M900 K30 ; Filament gcode LA 1.0




M107
;LAYER_CHANGE
;Z:0.2
;HEIGHT:0.2
G1 E-.8 F2100
M73 P1 R9
M73 Q1 S9
G1 Z.6 F720
G1 X99.92 Y40.593 F10800
G1 Z.2 F720
G1 E.8 F2100
M204 S800
;TYPE:Skirt/Brim
;WIDTH:0.42
G1 F1200
G1 X100.561 Y39.045 E.05253
G1 X103.548 Y36.058 E.13245
G1 X105.096 Y35.417 E.05253
G1 X138.921 Y35.417 E1.06056
G1 X140.468 Y36.058 E.0525
G1 X143.456 Y39.045 E.13247
G1 X144.097 Y40.593 E.05253
G1 X144.097 Y74.418 E1.06056
G1 X143.456 Y75.965 E.0525
G1 X140.468 Y78.953 E.13249
G1 X138.921 Y79.594 E.0525
G1 X105.096 Y79.594 E1.06056
G1 X103.548 Y78.953 E.05253
M73 P2 R9
M73 Q2 S9
G1 X100.561 Y75.965 E.13247
G1 X99.92 Y74.418 E.0525
G1 X99.92 Y40.653 E1.05868
M204 S1000
;WIPE_START
G1 F8640
G1 X99.92 Y40.593 E-.01385
G1 X100.561 Y39.045 E-.38687
G1 X101.784 Y37.822 E-.39928
;WIPE_END
G1 Z.6 F720
G1 X102.635 Y41.349 F10800
G1 Z.2 F720
G1 E.8 F2100
M204 S800
G1 F1200
G1 X102.775 Y40.801 E.01773
G1 X103.633 Y39.464 E.04981
G1 X104.813 Y38.503 E.04772
G1 X106.762 Y37.892 E.06404
G1 X137.198 Y37.896 E.9543
G1 X138.218 Y38.089 E.03255
G1 X139.196 Y38.505 E.03332
M73 Q3 S9
G1 X140.321 Y39.401 E.04509
M73 P3 R9
G1 X141.213 Y40.739 E.05042
G1 X141.622 Y42.284 E.05011
G1 X141.622 Y72.725 E.95446
G1 X141.241 Y74.21 E.04807
G1 X140.383 Y75.546 E.04978
G1 X139.204 Y76.508 E.04771
G1 X137.255 Y77.119 E.06404
G1 X106.789 Y77.119 E.95524
G1 X105.304 Y76.738 E.04807
G1 X103.967 Y75.88 E.04981
G1 X103.006 Y74.701 E.04769
G1 X102.395 Y72.752 E.06404
G1 X102.395 Y42.286 E.95524
G1 X102.62 Y41.407 E.02845
M204 S1000
G1 X102.982 Y41.501 F10800
M204 S800
G1 F1200
G1 X103.132 Y40.925 E.01866
G1 X103.907 Y39.725 E.04479
G1 X105.006 Y38.828 E.04448
G1 X106.791 Y38.269 E.05865
G1 X137.179 Y38.273 E.95279
M73 Q4 S9
G1 X138.126 Y38.456 E.03024
M73 P4 R9
G1 X139.023 Y38.841 E.03061
G1 X140.062 Y39.676 E.04179
G1 X140.858 Y40.867 E.04492
G1 X141.245 Y42.309 E.04681
G1 X141.245 Y72.701 E.95292
G1 X140.884 Y74.085 E.04485
G1 X140.11 Y75.286 E.0448
G1 X139.56 Y75.794 E.02348
G1 X139.011 Y76.183 E.0211
G1 X137.226 Y76.742 E.05865
G1 X106.813 Y76.742 E.95358
G1 X105.428 Y76.381 E.04488
G1 X104.228 Y75.607 E.04477
G1 X103.719 Y75.058 E.02347
G1 X103.331 Y74.508 E.0211
G1 X102.772 Y72.723 E.05865
G1 X102.772 Y42.31 E.95358
G1 X102.967 Y41.559 E.02433
M73 P5 R9
M73 Q5 S9
M204 S1000
G1 X102.967 Y41.559 F10800
G1 X103.325 Y41.652
M204 S800
G1 F1200
G1 X103.466 Y41.103 E.01777
G1 X104.181 Y39.985 E.04161
G1 X105.199 Y39.153 E.04122
G1 X106.819 Y38.646 E.05322
G1 X137.161 Y38.65 E.95135
G1 X138.032 Y38.821 E.02783
G1 X138.848 Y39.176 E.0279
G1 X139.801 Y39.95 E.03849
G1 X140.526 Y41.048 E.04125
G1 X140.868 Y42.334 E.04172
G1 X140.868 Y72.677 E.95138
G1 X140.55 Y73.908 E.03986
G1 X139.835 Y75.026 E.04161
G1 X138.818 Y75.857 E.04118
G1 X137.197 Y76.365 E.05326
G1 X106.837 Y76.365 E.95192
G1 X105.606 Y76.047 E.03986
M73 P6 R9
M73 Q6 S9
G1 X104.488 Y75.333 E.04159
G1 X103.656 Y74.315 E.04122
G1 X103.149 Y72.694 E.05325
G1 X103.149 Y42.334 E.95192
G1 X103.31 Y41.71 E.02021
M204 S1000
G1 X103.31 Y41.71 F10800
G1 X103.672 Y41.805
M204 S800
G1 F1200
G1 X103.823 Y41.228 E.0187
G1 X104.455 Y40.246 E.03662
G1 X105.391 Y39.479 E.03794
G1 X106.848 Y39.023 E.04787
G1 X137.141 Y39.027 E.94982
G1 X137.937 Y39.187 E.02546
G1 X138.672 Y39.51 E.02517
G1 X139.538 Y40.222 E.03515
G1 X140.193 Y41.228 E.03764
G1 X140.491 Y42.358 E.03664
G1 X140.491 Y72.652 E.94985
G1 X140.193 Y73.783 E.03667
M73 P7 R9
M73 Q7 S9
G1 X139.562 Y74.765 E.0366
G1 X139.067 Y75.223 E.02114
G1 X138.626 Y75.532 E.01688
G1 X137.169 Y75.988 E.04787
G1 X106.861 Y75.988 E.95029
G1 X105.731 Y75.69 E.03664
G1 X104.749 Y75.059 E.0366
G1 X104.29 Y74.564 E.02117
G1 X103.982 Y74.123 E.01687
G1 X103.526 Y72.666 E.04787
G1 X103.526 Y42.358 E.95029
G1 X103.656 Y41.863 E.01605
M73 P7 R8
M204 S1000
G1 X103.656 Y41.863 F10800
G1 X104.014 Y41.956
M204 S800
G1 F1200
G1 X104.158 Y41.405 E.01786
G1 X104.729 Y40.505 E.03342
G1 X105.582 Y39.805 E.0346
G1 X106.877 Y39.4 E.04254
G1 X137.123 Y39.404 E.94834
G1 X137.804 Y39.54 E.02177
M73 Q7 S8
G1 X138.495 Y39.845 E.02368
G1 X139.275 Y40.494 E.03181
G1 X139.837 Y41.355 E.03224
G1 X140.113 Y42.383 E.03337
G1 X140.113 Y72.629 E.94834
M73 P8 R8
G1 X139.859 Y73.606 E.03165
M73 Q8 S8
G1 X139.287 Y74.505 E.03341
G1 X138.435 Y75.205 E.03457
G1 X137.14 Y75.611 E.04255
G1 X106.885 Y75.611 E.94862
G1 X105.908 Y75.356 E.03166
G1 X105.008 Y74.785 E.03342
G1 X104.308 Y73.932 E.0346
G1 X103.903 Y72.637 E.04254
G1 X103.903 Y42.382 E.94862
G1 X103.999 Y42.014 E.01192
M204 S1000
G1 X103.999 Y42.014 F10800
G1 X104.359 Y42.11
M204 S800
G1 F1200
G1 X104.514 Y41.531 E.01879
G1 X105.003 Y40.766 E.02847
G1 X105.772 Y40.132 E.03125
G1 X106.905 Y39.777 E.03723
G1 X137.103 Y39.781 E.94684
G1 X137.707 Y39.905 E.01933
M73 P9 R8
M73 Q9 S8
G1 X138.316 Y40.177 E.02091
G1 X139.009 Y40.762 E.02844
G1 X139.503 Y41.533 E.02871
G1 X139.736 Y42.407 E.02836
G1 X139.736 Y72.603 E.94677
G1 X139.503 Y73.48 E.02845
G1 X139.014 Y74.245 E.02847
G1 X138.575 Y74.652 E.01877
G1 X138.245 Y74.879 E.01256
G1 X137.111 Y75.233 E.03725
G1 X106.91 Y75.233 E.94693
G1 X106.034 Y75 E.02842
G1 X105.269 Y74.511 E.02847
G1 X104.862 Y74.072 E.01877
G1 X104.635 Y73.742 E.01256
G1 X104.28 Y72.608 E.03726
G1 X104.28 Y42.407 E.94693
G1 X104.344 Y42.168 E.00776
M73 P10 R8
M73 Q10 S8
M204 S1000
G1 X104.344 Y42.168 F10800
G1 X104.703 Y42.267
M204 S800
G1 F1200
G1 X104.87 Y41.659 E.01977
G1 X105.276 Y41.026 E.02358
G1 X105.961 Y40.46 E.02786
G1 X106.934 Y40.154 E.03198
G1 X137.083 Y40.158 E.9453
G1 X137.607 Y40.269 E.01679
G1 X138.135 Y40.509 E.01819
G1 X138.743 Y41.03 E.02511
G1 X139.148 Y41.661 E.02351
G1 X139.359 Y42.433 E.02509
G1 X139.359 Y72.577 E.94514
G1 X139.147 Y73.352 E.02519
G1 X138.74 Y73.984 E.02357
G1 X138.056 Y74.551 E.02786
G1 X137.083 Y74.856 E.03197
G1 X106.936 Y74.856 E.94524
G1 X106.162 Y74.644 E.02516
G1 X105.529 Y74.237 E.0236
G1 X104.963 Y73.553 E.02784
G1 X104.657 Y72.58 E.03198
G1 X104.657 Y42.433 E.94524
G1 X104.687 Y42.325 E.00351
M73 P11 R8
M73 Q11 S8
M204 S1000
G1 X104.687 Y42.325 F10800
G1 X105.044 Y42.426
M204 S800
G1 F1200
G1 X105.224 Y41.79 E.02072
G1 X105.55 Y41.287 E.01879
G1 X106.148 Y40.788 E.02442
G1 X106.963 Y40.531 E.02679
G1 X137.062 Y40.535 E.94373
G1 X137.505 Y40.633 E.01423
G1 X137.951 Y40.839 E.0154
G1 X138.474 Y41.296 E.02178
G1 X138.793 Y41.792 E.01849
G1 X138.982 Y42.46 E.02177
G1 X138.982 Y72.551 E.94348
G1 X138.792 Y73.221 E.02184
G1 X138.467 Y73.723 E.01875
G1 X137.869 Y74.223 E.02444
G1 X137.054 Y74.479 E.02678
G1 X106.963 Y74.479 E.94348
G1 X106.293 Y74.289 E.02184
M73 P12 R8
M73 Q12 S8
G1 X105.79 Y73.964 E.01878
G1 X105.291 Y73.366 E.02442
G1 X105.034 Y72.551 E.02679
G1 X105.034 Y42.484 E.94273
M204 S1000
G1 X105.034 Y42.484 F10800
G1 X105.411 Y42.488
M204 S800
G1 F1200
G1 X105.578 Y41.924 E.01844
G1 X105.823 Y41.548 E.01407
G1 X106.333 Y41.117 E.02094
G1 X106.992 Y40.909 E.02167
G1 X137.039 Y40.912 E.9421
G1 X137.764 Y41.168 E.02411
G1 X138.204 Y41.56 E.01848
G1 X138.439 Y41.925 E.01361
G1 X138.605 Y42.488 E.0184
G1 X138.605 Y72.523 E.94173
G1 X138.439 Y73.087 E.01843
G1 X138.194 Y73.462 E.01404
G1 X137.683 Y73.894 E.02098
G1 X137.025 Y74.102 E.02164
G1 X106.991 Y74.102 E.94169
G1 X106.427 Y73.936 E.01843
M73 P13 R8
M73 Q13 S8
G1 X106.051 Y73.691 E.01407
G1 X105.62 Y73.18 E.02096
G1 X105.411 Y72.522 E.02165
G1 X105.411 Y42.548 E.93981
M204 S1000
G1 X105.411 Y42.548 F10800
G1 X105.788 Y42.548
M204 S800
G1 F1200
G1 X105.788 Y42.518 E.00094
G1 X105.929 Y42.062 E.01497
G1 X106.095 Y41.81 E.00946
G1 X106.515 Y41.448 E.01739
G1 X107.022 Y41.286 E.01669
G1 X137.017 Y41.289 E.94047
G1 X137.576 Y41.496 E.01869
G1 X137.931 Y41.821 E.01509
G1 X138.228 Y42.518 E.02376
G1 X138.228 Y72.493 E.93985
G1 X138.087 Y72.949 E.01497
M73 P14 R8
G1 X137.921 Y73.201 E.00946
G1 X137.501 Y73.563 E.01739
G1 X136.995 Y73.725 E.01666
G1 X107.021 Y73.725 E.93981
G1 X106.565 Y73.585 E.01496
M73 Q14 S8
G1 X106.313 Y73.418 E.00948
G1 X105.951 Y72.998 E.01739
G1 X105.788 Y72.492 E.01667
G1 X105.788 Y42.608 E.93699
M204 S1000
G1 X105.788 Y42.608 F10800
G1 X106.166 Y42.608
M204 S800
G1 F1200
G1 X106.166 Y42.549 E.00185
G1 X106.368 Y42.071 E.01627
G1 X106.691 Y41.782 E.01359
G1 X107.052 Y41.663 E.01192
G1 X136.995 Y41.666 E.93884
G1 X137.386 Y41.823 E.01321
G1 X137.655 Y42.078 E.01162
G1 X137.851 Y42.549 E.016
G1 X137.851 Y72.461 E.93787
G1 X137.649 Y72.939 E.01627
M73 P15 R8
M73 Q15 S8
G1 X137.326 Y73.229 E.01361
G1 X136.964 Y73.348 E.01195
G1 X107.052 Y73.348 E.93787
G1 X106.574 Y73.146 E.01627
G1 X106.285 Y72.823 E.01359
G1 X106.166 Y72.461 E.01195
G1 X106.166 Y42.668 E.93414
M204 S1000
G1 X106.166 Y42.668 F10800
G1 X106.543 Y42.668
M204 S800
G1 F1200
G1 X106.543 Y42.585 E.0026
G1 X106.64 Y42.333 E.00847
G1 X106.875 Y42.116 E.01003
G1 X107.087 Y42.04 E.00706
G1 X136.943 Y42.04 E.93611
G1 X137.374 Y42.33 E.01629
G1 X137.474 Y42.585 E.00859
G1 X137.474 Y72.426 E.93564
G1 X137.376 Y72.678 E.00848
M73 P16 R8
M73 Q16 S8
G1 X137.142 Y72.895 E.01001
G1 X136.929 Y72.971 E.00709
G1 X107.087 Y72.971 E.93567
G1 X106.836 Y72.874 E.00844
G1 X106.619 Y72.639 E.01003
G1 X106.543 Y72.426 E.00709
G1 X106.543 Y42.728 E.93116
M204 S1000
G1 X106.543 Y42.728 F10800
G1 X106.948 Y42.729
M204 S800
G1 F1200
G1 X106.948 Y42.557 E.00539
G1 X107.129 Y42.417 E.00717
G1 X136.956 Y42.446 E.93521
G1 X137.097 Y42.626 E.00717
G1 X137.068 Y72.454 E.93524
G1 X136.887 Y72.594 E.00717
M73 P17 R8
M73 Q17 S8
G1 X107.06 Y72.565 E.93521
G1 X106.92 Y72.384 E.00717
G1 X106.948 Y42.789 E.92793
M204 S1000
;WIPE_START
G1 F8640
G1 X106.948 Y42.729 E-.01385
G1 X106.948 Y42.557 E-.03972
G1 X107.129 Y42.417 E-.05284
G1 X110.133 Y42.42 E-.69359
;WIPE_END
G1 Z.6 F720
; printing object InfillTest.stl id:0 copy 0
G1 X136.221 Y71.718 F10800
G1 Z.2 F720
M73 P17 R7
G1 E.8 F2100
M204 S800
;TYPE:Perimeter
;WIDTH:0.419999
G1 F1200
G1 X107.795 Y71.718 E.89128
G1 X107.795 Y43.292 E.89128
M73 P18 R7
M73 Q18 S8
G1 X136.221 Y43.292 E.89128
M73 Q18 S7
G1 X136.221 Y57.505 E.44564
G1 X136.221 Y71.658 E.44376
M204 S1000
G1 X136.221 Y71.658 F10800
G1 X136.598 Y72.095
M204 S800
;TYPE:External perimeter
G1 F1200
G1 X107.418 Y72.095 E.91492
G1 X107.418 Y42.915 E.91492
M73 P19 R7
M73 Q19 S7
G1 X136.598 Y42.915 E.91492
G1 X136.598 Y57.505 E.45746
G1 X136.598 Y72.035 E.45558
M204 S1000
;WIPE_START
G1 F8640
G1 X136.598 Y72.095 E-.01385
G1 X133.193 Y72.095 E-.78615
;WIPE_END
G1 Z.6 F720
G1 X135.286 Y43.462 F10800
G1 Z.2 F720
G1 E.8 F2100
M204 S800
;TYPE:Solid infill
;WIDTH:0.421716
G1 F1200
G1 X135.882 Y44.058 E.02655
G1 X135.882 Y44.594 E.01688
G1 X134.92 Y43.632 E.04285
G1 X134.384 Y43.632 E.01688
G1 X135.882 Y45.13 E.06673
G1 X135.882 Y45.665 E.01685
M73 P20 R7
G1 X133.848 Y43.632 E.09058
G1 X133.312 Y43.632 E.01688
G1 X135.882 Y46.201 E.11445
M73 Q20 S7
G1 X135.882 Y46.737 E.01688
G1 X132.777 Y43.632 E.13831
G1 X132.241 Y43.632 E.01688
G1 X135.882 Y47.273 E.16218
G1 X135.882 Y47.808 E.01685
G1 X131.705 Y43.632 E.18604
G1 X131.17 Y43.632 E.01685
G1 X135.882 Y48.344 E.20989
G1 X135.882 Y48.88 E.01688
G1 X130.634 Y43.632 E.23376
G1 X130.098 Y43.632 E.01688
G1 X135.882 Y49.415 E.25762
G1 X135.882 Y49.951 E.01688
G1 X129.563 Y43.632 E.28147
G1 X129.027 Y43.632 E.01688
G1 X135.882 Y50.487 E.30535
G1 X135.882 Y51.022 E.01685
G1 X128.491 Y43.632 E.3292
G1 X127.956 Y43.632 E.01685
G1 X135.882 Y51.558 E.35305
G1 X135.882 Y52.094 E.01688
G1 X127.42 Y43.632 E.37693
G1 X126.884 Y43.632 E.01688
G1 X135.882 Y52.63 E.4008
G1 X135.882 Y53.165 E.01685
M73 P21 R7
G1 X126.348 Y43.632 E.42466
M73 Q21 S7
G1 X125.813 Y43.632 E.01685
G1 X135.882 Y53.701 E.44851
G1 X135.882 Y54.237 E.01688
G1 X125.277 Y43.632 E.47238
G1 X124.741 Y43.632 E.01688
G1 X135.882 Y54.772 E.49624
G1 X135.882 Y55.308 E.01688
G1 X124.206 Y43.632 E.52009
G1 X123.67 Y43.632 E.01688
G1 X135.882 Y55.844 E.54397
G1 X135.882 Y56.379 E.01685
G1 X123.134 Y43.632 E.56782
G1 X122.599 Y43.632 E.01685
M73 P22 R7
G1 X135.882 Y56.915 E.59167
G1 X135.882 Y57.451 E.01688
M73 Q22 S7
G1 X122.063 Y43.632 E.61555
G1 X121.527 Y43.632 E.01688
G1 X135.882 Y57.987 E.63942
G1 X135.882 Y58.522 E.01685
G1 X120.991 Y43.632 E.66328
G1 X120.456 Y43.632 E.01685
G1 X135.882 Y59.058 E.68713
G1 X135.882 Y59.594 E.01688
G1 X119.92 Y43.632 E.711
G1 X119.384 Y43.632 E.01688
M73 P23 R7
M73 Q23 S7
G1 X135.882 Y60.129 E.73486
G1 X135.882 Y60.665 E.01688
G1 X118.849 Y43.632 E.75871
G1 X118.313 Y43.632 E.01688
G1 X135.882 Y61.201 E.78258
G1 X135.882 Y61.736 E.01685
G1 X117.777 Y43.632 E.80644
G1 X117.242 Y43.632 E.01685
G1 X135.882 Y62.272 E.83029
M73 P24 R7
G1 X135.882 Y62.808 E.01688
M73 Q24 S7
G1 X116.706 Y43.632 E.85417
G1 X116.17 Y43.632 E.01688
G1 X135.882 Y63.344 E.87804
G1 X135.882 Y63.879 E.01685
G1 X115.634 Y43.632 E.90189
G1 X115.099 Y43.632 E.01685
G1 X135.882 Y64.415 E.92575
G1 X135.882 Y64.951 E.01688
M73 P25 R7
M73 Q25 S7
G1 X114.563 Y43.632 E.94962
G1 X114.027 Y43.632 E.01688
G1 X135.882 Y65.486 E.97348
G1 X135.882 Y66.022 E.01688
G1 X113.492 Y43.632 E.99733
G1 X112.956 Y43.632 E.01688
M73 P26 R7
G1 X135.882 Y66.558 E1.0212
G1 X135.882 Y67.093 E.01685
M73 Q26 S7
G1 X112.42 Y43.632 E1.04506
G1 X111.885 Y43.632 E.01685
G1 X135.882 Y67.629 E1.06891
G1 X135.882 Y68.165 E.01688
G1 X111.349 Y43.632 E1.09279
G1 X110.813 Y43.632 E.01688
M73 P27 R7
M73 Q27 S7
G1 X135.882 Y68.701 E1.11666
G1 X135.882 Y69.236 E.01685
G1 X110.277 Y43.632 E1.14051
G1 X109.742 Y43.632 E.01685
G1 X135.882 Y69.772 E1.16437
G1 X135.882 Y70.308 E.01688
M73 P28 R6
M73 Q28 S7
G1 X109.206 Y43.632 E1.18824
G1 X108.67 Y43.632 E.01688
M73 Q28 S6
G1 X135.882 Y70.843 E1.2121
G1 X135.882 Y71.379 E.01688
G1 X108.135 Y43.632 E1.23595
G1 X108.135 Y44.168 E.01688
M73 P29 R6
M73 Q29 S6
G1 X135.346 Y71.379 E1.21207
G1 X134.81 Y71.379 E.01688
G1 X108.135 Y44.703 E1.18822
G1 X108.135 Y45.239 E.01688
G1 X134.275 Y71.379 E1.16437
G1 X133.739 Y71.379 E.01688
M73 P30 R6
M73 Q30 S6
G1 X108.135 Y45.775 E1.14049
G1 X108.135 Y46.31 E.01685
G1 X133.203 Y71.379 E1.11664
G1 X132.668 Y71.379 E.01685
G1 X108.135 Y46.846 E1.09279
G1 X108.135 Y47.382 E.01688
M73 P31 R6
M73 Q31 S6
G1 X132.132 Y71.379 E1.06891
G1 X131.596 Y71.379 E.01688
G1 X108.135 Y47.917 E1.04506
G1 X108.135 Y48.453 E.01688
G1 X131.06 Y71.379 E1.02118
G1 X130.525 Y71.379 E.01685
G1 X108.135 Y48.989 E.99733
G1 X108.135 Y49.525 E.01688
M73 P32 R6
M73 Q32 S6
G1 X129.989 Y71.379 E.97345
G1 X129.453 Y71.379 E.01688
G1 X108.135 Y50.06 E.9496
G1 X108.135 Y50.596 E.01688
G1 X128.918 Y71.379 E.92575
G1 X128.382 Y71.379 E.01688
M73 P33 R6
G1 X108.135 Y51.132 E.90187
G1 X108.135 Y51.667 E.01685
M73 Q33 S6
