; generated by PrusaSlicer 2.9.0 on 2025-01-21 at 21:54:50 UTC


;
;
; 

; external perimeters extrusion width = 0.60mm
; perimeters extrusion width = 0.50mm
; infill extrusion width = 0.50mm
; solid infill extrusion width = 0.50mm
; top infill extrusion width = 0.45mm
; first layer extrusion width = 0.42mm

M73 P0 R7
M73 Q0 S7
M201 X1000 Y1000 Z200 E5000 ; sets maximum accelerations, mm/sec^2
M203 X200 Y200 Z12 E120 ; sets maximum feedrates, mm / sec
M204 S1250 T1250 ; sets acceleration (S) and retract acceleration (R), mm/sec^2
M205 X8.00 Y8.00 Z0.40 E4.50 ; sets the jerk limits, mm/sec
M205 S0 T0 ; sets the minimum extruding and travel feed rate, mm/sec

; printing object InfillTest.stl id:0 copy 0
; stop printing object InfillTest.stl id:0 copy 0

;TYPE:Custom
M862.3 P "MK3S" ; printer model check
M862.1 P0.4 ; nozzle diameter check
M115 U3.14.1 ; tell printer latest fw version
G90 ; use absolute coordinates
M83 ; extruder relative mode
M104 S215 ; set extruder temp
M140 S60 ; set bed temp
M190 S60 ; wait for bed temp
M109 S215 ; wait for extruder temp
G28 W ; home all without mesh bed level
G80 X76.5822 Y33.9468 W44.5542 H42.5445 ; mesh bed levelling

G1 Z0.2 F720
G1 Y-3 F1000 ; go outside print area
G92 E0
G1 X60 E9 F1000 ; intro line
G1 X100 E12.5 F1000 ; intro line

G92 E0
M221 S95

; Don't change E values below. Excessive value can damage the printer.

M907 E538 ; set extruder motor current
G21 ; set units to millimeters
G90 ; use absolute coordinates
M83 ; use relative distances for extrusion

M900 K0.05 ; Filament gcode LA 1.5
M900 K30 ; Filament gcode LA 1.0




M107
;LAYER_CHANGE
;Z:0.2
;HEIGHT:0.2
G1 E-.8 F2100
M73 P1 R7
M73 Q1 S7
G1 Z.6 F720
G1 X77.809 Y44.947 F10800
G1 Z.2 F720
G1 E.8 F2100
M204 S800
;TYPE:Skirt/Brim
;WIDTH:0.42
G1 F1200
G1 X79.937 Y42.379 E.10457
G1 X80.909 Y41.389 E.0435
G1 X82.755 Y39.769 E.07701
G1 X83.984 Y38.847 E.04817
G1 X86.023 Y37.55 E.07577
G1 X88.621 Y36.251 E.09107
G1 X90.883 Y35.398 E.0758
G1 X93.692 Y34.658 E.09108
G1 X96.081 Y34.286 E.07581
G1 X98.981 Y34.136 E.09105
G1 X101.582 Y34.279 E.08168
G1 X104.21 Y34.695 E.08343
G1 X106.782 Y35.38 E.08345
G1 X109.269 Y36.325 E.08342
G1 X111.647 Y37.521 E.08346
G1 X113.888 Y38.955 E.08342
G1 X115.871 Y40.526 E.07932
G1 X117.781 Y42.379 E.08344
G1 X119.91 Y44.947 E.10459
G1 X120.261 Y45.586 E.02286
M73 Q2 S7
G1 X120.826 Y47.213 E.054
M73 P2 R7
G1 X120.948 Y47.932 E.02287
G1 X120.948 Y56.842 E.27937
G1 X120.873 Y57.408 E.0179
G1 X120.526 Y58.705 E.0421
G1 X120.307 Y59.233 E.01792
G1 X111.873 Y73.842 E.52891
G1 X111.072 Y74.643 E.03552
G1 X108.705 Y76.01 E.0857
G1 X107.61 Y76.303 E.03554
G1 X90.108 Y76.303 E.54876
G1 X89.014 Y76.01 E.03551
G1 X86.647 Y74.643 E.0857
G1 X85.846 Y73.842 E.03552
G1 X77.412 Y59.233 E.52891
G1 X77.193 Y58.705 E.01792
G1 X76.845 Y57.408 E.0421
G1 X76.771 Y56.842 E.0179
G1 X76.771 Y47.932 E.27937
G1 X76.892 Y47.213 E.02286
G1 X77.458 Y45.586 E.05401
G1 X77.78 Y45 E.02096
M204 S1000
;WIPE_START
G1 F8640
G1 X77.809 Y44.947 E-.01395
G1 X79.937 Y42.379 E-.77009
G1 X79.985 Y42.33 E-.01596
M73 Q3 S7
;WIPE_END
G1 Z.6 F720
G1 X80.022 Y46.164 F10800
G1 Z.2 F720
M73 P3 R7
G1 E.8 F2100
M204 S800
G1 F1200
G1 X80.915 Y45.012 E.0457
G1 X82.51 Y43.284 E.07373
G1 X83.443 Y42.419 E.03989
G1 X85.262 Y40.975 E.07282
G1 X87.34 Y39.647 E.07732
G1 X88.416 Y39.074 E.03822
G1 X90.632 Y38.107 E.07581
G1 X92.972 Y37.364 E.07698
G1 X95.237 Y36.893 E.07254
G1 X96.476 Y36.732 E.03917
G1 X99.444 Y36.624 E.09312
G1 X101.333 Y36.742 E.05934
G1 X103.709 Y37.119 E.07543
G1 X106.031 Y37.738 E.07535
G1 X108.282 Y38.595 E.07552
G1 X110.41 Y39.665 E.07468
G1 X112.427 Y40.954 E.07505
G1 X114.303 Y42.442 E.07508
G1 X116.013 Y44.112 E.07494
G1 X117.737 Y46.216 E.08529
G1 X118.453 Y48.251 E.06764
G1 X118.466 Y56.465 E.25754
G1 X118.291 Y57.525 E.03369
G1 X110.272 Y71.665 E.50968
G1 X109.494 Y72.573 E.03749
G1 X108.544 Y73.256 E.03669
G1 X106.603 Y73.828 E.06345
G1 X91.196 Y73.828 E.48308
G1 X90.182 Y73.663 E.03221
M73 P4 R7
M73 Q4 S7
G1 X88.647 Y72.914 E.05355
G1 X87.474 Y71.713 E.05264
G1 X79.643 Y58.1 E.49241
G1 X79.253 Y56.492 E.05188
G1 X79.256 Y48.464 E.25171
G1 X79.336 Y47.798 E.02103
G1 X79.998 Y46.219 E.05368
M204 S1000
G1 X79.998 Y46.219 F10800
G1 X80.335 Y46.375
M204 S800
G1 F1200
G1 X81.203 Y45.256 E.0444
G1 X82.777 Y43.551 E.07276
G1 X83.689 Y42.705 E.039
G1 X85.485 Y41.279 E.0719
G1 X87.522 Y39.978 E.07578
G1 X89.68 Y38.9 E.07564
G1 X91.808 Y38.096 E.07133
G1 X93.063 Y37.73 E.04099
G1 X95.3 Y37.265 E.07164
G1 X96.519 Y37.107 E.03854
G1 X98.797 Y36.988 E.07152
G1 X101.288 Y37.116 E.07821
G1 X103.626 Y37.487 E.07422
G1 X105.911 Y38.096 E.07415
G1 X108.126 Y38.938 E.0743
G1 X110.219 Y39.991 E.07346
G1 X112.204 Y41.258 E.07384
G1 X114.05 Y42.722 E.07387
G1 X115.732 Y44.364 E.0737
G1 X117.42 Y46.422 E.08346
G1 X118.075 Y48.284 E.06189
G1 X118.089 Y56.449 E.25601
G1 X117.925 Y57.43 E.03119
G1 X109.953 Y71.463 E.50604
G1 X109.256 Y72.28 E.03367
M73 P5 R7
M73 Q5 S7
G1 X108.35 Y72.931 E.03498
G1 X106.577 Y73.451 E.05793
G1 X91.211 Y73.451 E.48179
G1 X90.271 Y73.295 E.02988
G1 X88.893 Y72.627 E.04802
G1 X87.789 Y71.504 E.04938
G1 X79.983 Y57.935 E.49082
G1 X79.63 Y56.47 E.04725
G1 X79.633 Y48.476 E.25065
G1 X79.707 Y47.869 E.01917
G1 X80.311 Y46.43 E.04893
M204 S1000
G1 X80.311 Y46.43 F10800
G1 X80.648 Y46.587
M204 S800
G1 F1200
G1 X81.49 Y45.5 E.04311
G1 X83.044 Y43.817 E.07182
G1 X83.934 Y42.991 E.03807
G1 X85.708 Y41.583 E.07101
G1 X87.704 Y40.308 E.07426
G1 X89.826 Y39.248 E.07437
G1 X91.928 Y38.453 E.07046
G1 X93.154 Y38.096 E.04004
G1 X95.363 Y37.637 E.07074
G1 X96.563 Y37.482 E.03794
G1 X99.427 Y37.378 E.08986
G1 X101.244 Y37.491 E.05708
G1 X103.543 Y37.855 E.07298
G1 X105.791 Y38.453 E.07294
G1 X107.97 Y39.281 E.07309
G1 X110.029 Y40.316 E.07226
M73 Q6 S7
G1 X111.982 Y41.562 E.07264
M73 P6 R7
G1 X113.797 Y43.002 E.07264
G1 X115.452 Y44.616 E.07248
G1 X117.103 Y46.628 E.08161
G1 X117.709 Y48.377 E.05804
G1 X117.712 Y56.433 E.25259
G1 X117.559 Y57.334 E.02865
G1 X109.634 Y71.261 E.50242
G1 X108.985 Y72.017 E.03124
G1 X108.158 Y72.605 E.03182
G1 X106.55 Y73.074 E.05252
G1 X91.227 Y73.074 E.48044
G1 X90.361 Y72.928 E.02754
G1 X89.088 Y72.303 E.04447
G1 X88.104 Y71.295 E.04417
G1 X80.324 Y57.771 E.48919
G1 X80.007 Y56.448 E.04266
G1 X80.01 Y48.488 E.24958
G1 X80.078 Y47.942 E.01725
G1 X80.624 Y46.642 E.04421
M204 S1000
G1 X80.624 Y46.642 F10800
G1 X80.961 Y46.798
M204 S800
G1 F1200
G1 X81.777 Y45.745 E.04177
G1 X83.311 Y44.083 E.07091
G1 X84.18 Y43.277 E.03716
G1 X85.931 Y41.887 E.0701
M73 Q7 S7
G1 X87.886 Y40.639 E.07272
M73 P7 R7
G1 X89.972 Y39.595 E.07314
G1 X92.047 Y38.811 E.06955
G1 X93.246 Y38.462 E.03915
G1 X95.426 Y38.008 E.06982
G1 X96.606 Y37.856 E.0373
G1 X98.808 Y37.742 E.06913
G1 X101.199 Y37.865 E.07507
G1 X103.461 Y38.223 E.07181
G1 X105.671 Y38.811 E.0717
G1 X107.814 Y39.625 E.07188
G1 X109.839 Y40.642 E.07105
G1 X111.759 Y41.867 E.07141
G1 X113.545 Y43.282 E.07144
G1 X115.171 Y44.868 E.07122
G1 X116.785 Y46.834 E.07975
G1 X117.342 Y48.469 E.05416
G1 X117.335 Y56.417 E.2492
G1 X117.193 Y57.237 E.02609
G1 X109.316 Y71.058 E.49879
G1 X108.716 Y71.752 E.02876
G1 X107.967 Y72.279 E.02871
G1 X106.524 Y72.696 E.0471
G1 X91.243 Y72.696 E.47913
G1 X90.451 Y72.561 E.02519
G1 X89.334 Y72.015 E.03898
G1 X88.419 Y71.086 E.04088
G1 X80.664 Y57.606 E.48761
G1 X80.384 Y56.427 E.03799
M73 P8 R7
M73 Q8 S7
G1 X80.387 Y48.5 E.24855
G1 X80.449 Y48.015 E.01533
G1 X80.938 Y46.853 E.03953
M204 S1000
G1 X80.938 Y46.853 F10800
G1 X81.274 Y47.01
M204 S800
G1 F1200
G1 X82.065 Y45.989 E.0405
G1 X83.578 Y44.349 E.06996
G1 X84.425 Y43.563 E.03623
G1 X86.154 Y42.191 E.06921
G1 X88.068 Y40.969 E.0712
G1 X90.118 Y39.943 E.07188
G1 X92.167 Y39.169 E.06868
G1 X93.337 Y38.828 E.03821
G1 X95.489 Y38.38 E.06892
G1 X96.649 Y38.231 E.03667
G1 X99.409 Y38.132 E.08659
G1 X101.155 Y38.24 E.05485
G1 X103.378 Y38.591 E.07056
G1 X105.551 Y39.168 E.07049
G1 X107.658 Y39.968 E.07067
G1 X109.648 Y40.967 E.06982
G1 X111.536 Y42.171 E.07021
G1 X113.292 Y43.562 E.07024
G1 X114.891 Y45.12 E.07
G1 X116.468 Y47.039 E.07788
G1 X116.965 Y48.499 E.04836
G1 X116.957 Y56.4 E.24773
G1 X116.828 Y57.139 E.02352
G1 X108.998 Y70.854 E.49517
G1 X108.447 Y71.486 E.02629
G1 X107.778 Y71.951 E.02555
G1 X106.497 Y72.319 E.04179
G1 X91.26 Y72.319 E.47775
G1 X90.543 Y72.195 E.02281
M73 P9 R7
M73 Q9 S7
G1 X89.531 Y71.692 E.03543
G1 X88.734 Y70.878 E.03572
G1 X81.005 Y57.442 E.48601
G1 X80.761 Y56.405 E.0334
G1 X80.764 Y48.513 E.24745
G1 X80.819 Y48.089 E.01341
G1 X81.251 Y47.065 E.03485
M204 S1000
G1 X81.251 Y47.065 F10800
G1 X81.587 Y47.221
M204 S800
G1 F1200
G1 X82.352 Y46.233 E.03918
G1 X83.845 Y44.616 E.06901
G1 X84.671 Y43.85 E.03532
G1 X86.377 Y42.495 E.06831
G1 X88.25 Y41.299 E.06968
G1 X90.265 Y40.29 E.07066
G1 X92.287 Y39.526 E.06777
G1 X93.428 Y39.194 E.03726
G1 X95.552 Y38.752 E.06802
G1 X96.692 Y38.605 E.03604
G1 X98.818 Y38.496 E.06675
G1 X101.111 Y38.614 E.07199
G1 X103.295 Y38.959 E.06933
G1 X105.431 Y39.526 E.06929
G1 X107.501 Y40.311 E.06941
G1 X109.466 Y41.298 E.06895
G1 X111.314 Y42.476 E.06871
G1 X113.039 Y43.842 E.06899
G1 X114.611 Y45.372 E.06878
G1 X116.15 Y47.245 E.07601
G1 X116.588 Y48.53 E.04257
G1 X116.58 Y56.382 E.24619
G1 X116.462 Y57.041 E.02099
G1 X108.68 Y70.651 E.49156
G1 X108.213 Y71.19 E.02236
M73 P10 R7
M73 Q10 S7
G1 X107.588 Y71.623 E.02384
G1 X106.471 Y71.942 E.03642
G1 X91.277 Y71.942 E.4764
G1 X90.637 Y71.828 E.02038
G1 X89.73 Y71.37 E.03186
G1 X89.049 Y70.67 E.03062
G1 X81.346 Y57.279 E.48438
G1 X81.138 Y56.384 E.02881
G1 X81.19 Y48.164 E.25774
G1 X81.564 Y47.276 E.03021
M204 S1000
G1 X81.564 Y47.276 F10800
M73 P10 R6
G1 X81.9 Y47.432
M204 S800
G1 F1200
G1 X82.647 Y46.469 E.03821
G1 X84.112 Y44.882 E.06772
G1 X84.924 Y44.129 E.03472
G1 X86.6 Y42.799 E.06709
G1 X87.5 Y42.191 E.03405
G1 X89.411 Y41.107 E.06889
G1 X91.447 Y40.218 E.06966
G1 X92.952 Y39.723 E.04968
G1 X94.507 Y39.327 E.05031
G1 X96.726 Y38.981 E.07042
G1 X99.391 Y38.886 E.08361
G1 X101.066 Y38.989 E.05262
M73 Q10 S6
G1 X103.213 Y39.327 E.06815
G1 X105.311 Y39.883 E.06805
G1 X107.345 Y40.655 E.06821
G1 X109.276 Y41.623 E.06773
G1 X111.091 Y42.78 E.06749
G1 X112.787 Y44.122 E.06781
G1 X114.33 Y45.625 E.06754
G1 X115.833 Y47.451 E.07415
M73 P11 R6
M73 Q11 S6
G1 X116.211 Y48.561 E.03677
G1 X116.203 Y56.364 E.24466
G1 X116.097 Y56.94 E.01836
G1 X108.362 Y70.447 E.48803
G1 X107.946 Y70.923 E.01982
G1 X107.402 Y71.295 E.02066
G1 X106.445 Y71.565 E.03118
G1 X91.294 Y71.565 E.47505
G1 X90.732 Y71.462 E.01791
G1 X89.976 Y71.084 E.0265
G1 X89.364 Y70.46 E.0274
G1 X81.687 Y57.115 E.48272
G1 X81.515 Y56.363 E.02419
G1 X81.56 Y48.241 E.25466
G1 X81.877 Y47.488 E.02562
M204 S1000
G1 X81.877 Y47.488 F10800
G1 X82.214 Y47.644
M204 S800
G1 F1200
G1 X82.941 Y46.704 E.03726
G1 X84.379 Y45.149 E.06641
G1 X85.176 Y44.409 E.0341
G1 X86.823 Y43.104 E.06589
G1 X88.631 Y41.95 E.06725
G1 X90.567 Y40.982 E.06787
G1 X92.526 Y40.242 E.06566
G1 X93.61 Y39.926 E.0354
G1 X95.668 Y39.497 E.06591
G1 X96.759 Y39.357 E.03449
G1 X98.828 Y39.25 E.06496
G1 X101.022 Y39.363 E.06888
G1 X103.131 Y39.695 E.06694
M73 P12 R6
M73 Q12 S6
G1 X105.191 Y40.241 E.06682
G1 X107.189 Y40.998 E.06699
G1 X109.086 Y41.949 E.06653
G1 X110.869 Y43.085 E.06629
G1 X112.535 Y44.403 E.06661
G1 X114.05 Y45.877 E.06627
G1 X115.515 Y47.657 E.07228
G1 X115.833 Y48.592 E.03097
G1 X115.826 Y56.346 E.24312
G1 X115.733 Y56.839 E.01573
G1 X108.045 Y70.242 E.48447
G1 X107.68 Y70.654 E.01726
G1 X107.218 Y70.964 E.01744
G1 X106.42 Y71.188 E.02599
G1 X91.312 Y71.188 E.4737
G1 X90.829 Y71.097 E.01541
G1 X90.176 Y70.763 E.023
G1 X89.679 Y70.252 E.02235
G1 X82.028 Y56.952 E.48109
G1 X81.892 Y56.343 E.01957
G1 X81.929 Y48.319 E.25159
G1 X82.19 Y47.699 E.02109
M204 S1000
G1 X82.19 Y47.699 F10800
G1 X82.527 Y47.855
M204 S800
G1 F1200
G1 X83.228 Y46.948 E.03594
G1 X84.646 Y45.415 E.06548
G1 X85.429 Y44.689 E.03348
G1 X87.046 Y43.408 E.06468
G1 X87.914 Y42.822 E.03284
M73 P13 R6
G1 X89.757 Y41.777 E.06643
M73 Q13 S6
G1 X91.704 Y40.927 E.06661
G1 X93.162 Y40.447 E.04813
G1 X94.671 Y40.063 E.04882
G1 X96.793 Y39.732 E.06734
G1 X99.372 Y39.64 E.08091
G1 X100.978 Y39.738 E.05045
G1 X103.048 Y40.063 E.0657
G1 X105.071 Y40.599 E.06562
G1 X107.034 Y41.341 E.0658
G1 X108.896 Y42.275 E.06531
G1 X110.654 Y43.395 E.06536
G1 X112.289 Y44.689 E.06538
G1 X113.777 Y46.137 E.0651
G1 X115.198 Y47.863 E.0701
G1 X115.456 Y48.622 E.02514
G1 X115.449 Y56.327 E.24158
G1 X115.369 Y56.735 E.01304
G1 X107.729 Y70.036 E.48094
G1 X107.417 Y70.382 E.01461
G1 X107.036 Y70.633 E.01431
G1 X106.394 Y70.811 E.02089
G1 X91.331 Y70.811 E.47229
G1 X90.927 Y70.732 E.01291
G1 X90.422 Y70.475 E.01777
G1 X89.993 Y70.042 E.01911
G1 X82.37 Y56.79 E.47935
G1 X82.269 Y56.324 E.01495
G1 X82.298 Y48.399 E.24848
G1 X82.504 Y47.91 E.01664
M73 P14 R6
M73 Q14 S6
M204 S1000
G1 X82.504 Y47.91 F10800
G1 X82.841 Y48.066
M204 S800
G1 F1200
G1 X83.516 Y47.193 E.0346
G1 X84.912 Y45.682 E.0645
G1 X85.682 Y44.969 E.0329
G1 X87.268 Y43.712 E.06345
G1 X88.121 Y43.137 E.03225
G1 X89.93 Y42.112 E.06519
G1 X91.832 Y41.281 E.06508
G1 X93.792 Y40.658 E.06448
G1 X95.784 Y40.242 E.06381
G1 X96.826 Y40.108 E.03294
G1 X98.838 Y40.004 E.06317
G1 X100.934 Y40.112 E.06581
G1 X102.966 Y40.431 E.06449
G1 X104.952 Y40.956 E.06441
G1 X106.878 Y41.685 E.06457
G1 X108.705 Y42.6 E.06407
G1 X110.432 Y43.699 E.06418
G1 X112.037 Y44.969 E.06417
G1 X113.504 Y46.397 E.06419
G1 X114.88 Y48.069 E.06789
G1 X115.079 Y48.653 E.01934
G1 X115.072 Y56.307 E.23999
G1 X115.006 Y56.63 E.01034
G1 X107.412 Y69.83 E.47748
G1 X106.858 Y70.299 E.02276
G1 X106.369 Y70.434 E.01591
G1 X91.351 Y70.434 E.47088
G1 X91.03 Y70.369 E.01027
G1 X90.625 Y70.156 E.01435
G1 X90.309 Y69.834 E.01415
G1 X82.712 Y56.629 E.47766
G1 X82.646 Y56.306 E.01034
M73 P15 R6
M73 Q15 S6
G1 X82.666 Y48.482 E.24532
G1 X82.817 Y48.121 E.01227
M204 S1000
G1 X82.817 Y48.121 F10800
G1 X83.155 Y48.276
M204 S800
G1 F1200
G1 X83.803 Y47.437 E.03324
G1 X85.179 Y45.948 E.06357
G1 X85.934 Y45.249 E.03226
G1 X87.491 Y44.017 E.06225
G1 X88.328 Y43.452 E.03166
G1 X90.103 Y42.447 E.06396
G1 X91.961 Y41.636 E.06356
G1 X93.374 Y41.171 E.04664
G1 X94.835 Y40.799 E.04727
G1 X96.86 Y40.484 E.06426
G1 X99.354 Y40.394 E.07825
G1 X100.89 Y40.487 E.04825
G1 X102.884 Y40.799 E.06328
G1 X104.832 Y41.314 E.06318
G1 X106.722 Y42.028 E.06335
G1 X108.524 Y42.931 E.0632
G1 X110.217 Y44.009 E.06293
G1 X111.792 Y45.256 E.06299
G1 X113.23 Y46.657 E.06295
G1 X114.563 Y48.274 E.06571
G1 X114.702 Y48.684 E.01357
G1 X114.644 Y56.52 E.2457
G1 X107.095 Y69.624 E.47417
G1 X106.68 Y69.966 E.01686
G1 X106.345 Y70.057 E.01088
G1 X91.372 Y70.057 E.46947
G1 X91.135 Y70.006 E.0076
G1 X90.622 Y69.623 E.02007
G1 X83.074 Y56.52 E.47413
G1 X83.033 Y48.572 E.24921
M73 P16 R6
M73 Q16 S6
G1 X83.132 Y48.332 E.00814
M204 S1000
G1 X83.132 Y48.332 F10800
G1 X83.467 Y48.567
M204 S800
G1 F1200
G1 X84.091 Y47.681 E.03398
G1 X85.446 Y46.215 E.06259
G1 X86.932 Y44.908 E.06205
G1 X88.534 Y43.768 E.06165
G1 X89.391 Y43.253 E.03135
G1 X91.17 Y42.364 E.06236
G1 X93.004 Y41.672 E.06146
G1 X94.917 Y41.167 E.06204
G1 X96.894 Y40.859 E.06274
G1 X98.848 Y40.758 E.06135
G1 X100.847 Y40.861 E.06276
G1 X102.802 Y41.167 E.06204
G1 X104.713 Y41.672 E.06197
G1 X105.647 Y41.997 E.03101
G1 X107.46 Y42.791 E.06206
G1 X108.334 Y43.256 E.03104
G1 X109.995 Y44.314 E.06175
G1 X111.539 Y45.536 E.06174
G1 X112.957 Y46.917 E.06206
G1 X113.628 Y47.681 E.03188
G1 X114.245 Y48.48 E.03165
G1 X114.325 Y48.715 E.00778
G1 X114.284 Y56.406 E.24115
G1 X106.781 Y69.416 E.47089
G1 X106.32 Y69.68 E.01666
G1 X91.395 Y69.68 E.46796
G1 X91.074 Y69.551 E.01085
M73 P17 R6
G1 X83.434 Y56.406 E.47671
M73 Q17 S6
G1 X83.404 Y48.657 E.24297
G1 X83.432 Y48.616 E.00156
M204 S1000
G1 X83.432 Y48.616 F10800
G1 X83.771 Y48.745
M204 S800
G1 F1200
G1 X85.027 Y47.185 E.0628
G1 X86.425 Y45.822 E.06122
G1 X88.741 Y44.083 E.09081
G1 X90.44 Y43.122 E.0612
G1 X92.218 Y42.345 E.06084
G1 X94.999 Y41.535 E.09082
G1 X96.928 Y41.235 E.06121
G1 X99.335 Y41.148 E.07552
G1 X100.803 Y41.236 E.04611
G1 X102.72 Y41.535 E.06083
G1 X104.593 Y42.029 E.06073
G1 X106.411 Y42.715 E.06093
G1 X108.144 Y43.582 E.06076
