; generated by PrusaSlicer 2.9.0 on 2024-12-27 at 17:47:38 UTC


;
;
; 

; external perimeters extrusion width = 0.45mm
; perimeters extrusion width = 0.45mm
; infill extrusion width = 0.45mm
; solid infill extrusion width = 0.45mm
; top infill extrusion width = 0.40mm
; first layer extrusion width = 0.42mm

M73 P0 R22
M73 Q0 S22
M201 X1000 Y1000 Z200 E8000 ; sets maximum accelerations, mm/sec^2
M203 X200 Y200 Z12 E120 ; sets maximum feedrates, mm / sec
M204 S1250 T1250 ; sets acceleration (S) and retract acceleration (R), mm/sec^2
M205 X8.00 Y8.00 Z0.40 E4.50 ; sets the jerk limits, mm/sec
M205 S0 T0 ; sets the minimum extruding and travel feed rate, mm/sec

; printing object Another_Hollow_Cube.stl id:0 copy 0
; stop printing object Another_Hollow_Cube.stl id:0 copy 0

;TYPE:Custom
M862.3 P "MK3SMMU3" ; printer model check
M862.1 P0.4 ; nozzle diameter check
M115 U3.14.1 ; tell printer latest fw version
G90 ; use absolute coordinates
M83 ; extruder relative mode
M104 S215 ; set extruder temp
M140 S60 ; set bed temp
M190 S60 ; wait for bed temp
M109 S215 ; wait for extruder temp
G28 W ; home all without mesh bed level
G80 X107.347 Y87.3468 W35.3063 H35.3063 ; mesh bed levelling

; Send the filament type to the MMU unit.
; E stands for extruder number, F stands for filament type (0: default; 1:flex; 2: PVA)
M403 E0 F0
M403 E1 F0
M403 E2 F0
M403 E3 F0
M403 E4 F0


;go outside print area
G1 Y-3 F1000
G1 Z0.4 F1000
; select extruder
T0
; initial load
G1 X55 E29 F1073
G1 X5 E29 F1800
G1 X55 E8 F2000
G1 Z0.3 F1000
G92 E0
G1 X240 E25 F2200
G1 Y-2 F1000
G1 X55 E25 F1400
G1 Z0.2 F1000
M73 P1 R22
M73 Q1 S22
G1 X5 E4 F1000
G92 E0


M221 S95
G92 E0

; Don't change E values below. Excessive value can damage the printer.
M907 E430 ; set extruder motor current
G21 ; set units to millimeters
G90 ; use absolute coordinates
M83 ; use relative distances for extrusion

M900 K0.05 ; Filament gcode LA 1.5
M900 K30 ; Filament gcode LA 1.0




M107
;LAYER_CHANGE
;Z:0.2
;HEIGHT:0.2
G1 E-.8 F2100
G1 Z.6 F720
G1 X108.287 Y91.274 F10800
G1 Z.2 F720
G1 E.8 F2100
M204 S800
;TYPE:Skirt/Brim
;WIDTH:0.42
G1 F1200
G1 X111.274 Y88.287 E.13245
G1 X113.089 Y87.535 E.0616
G1 X136.911 Y87.535 E.74692
G1 X138.726 Y88.287 E.0616
G1 X141.713 Y91.274 E.13245
G1 X142.465 Y93.089 E.0616
G1 X142.465 Y116.911 E.74692
G1 X141.713 Y118.726 E.0616
G1 X138.726 Y121.713 E.13245
G1 X136.911 Y122.465 E.0616
G1 X113.089 Y122.465 E.74692
M73 P2 R22
M73 Q2 S22
G1 X111.274 Y121.713 E.0616
G1 X108.287 Y118.726 E.13245
G1 X107.535 Y116.911 E.0616
G1 X107.535 Y93.089 E.74692
G1 X108.264 Y91.33 E.0597
M204 S1000
G1 X108.264 Y91.33 F10800
G1 X108.553 Y91.541
M204 S800
G1 F1200
G1 X111.541 Y88.553 E.13249
G1 X113.089 Y87.912 E.05253
G1 X136.911 Y87.912 E.74692
G1 X138.459 Y88.553 E.05253
G1 X141.447 Y91.541 E.13249
G1 X142.088 Y93.089 E.05253
G1 X142.088 Y116.911 E.74692
G1 X141.447 Y118.459 E.05253
G1 X138.459 Y121.447 E.13249
G1 X136.911 Y122.088 E.05253
G1 X113.089 Y122.088 E.74692
G1 X111.541 Y121.447 E.05253
G1 X108.553 Y118.459 E.13249
G1 X107.912 Y116.911 E.05253
G1 X107.912 Y93.089 E.74692
G1 X108.531 Y91.596 E.05068
M204 S1000
;WIPE_START
G1 F8640
G1 X108.553 Y91.541 E-.01368
G1 X110.961 Y89.133 E-.78632
;WIPE_END
G1 Z.6 F720
G1 X110.914 Y93.08 F10800
G1 Z.2 F720
G1 E.8 F2100
M204 S800
G1 F1200
G1 X111.564 Y92.034 E.03861
G1 X112.201 Y91.427 E.02759
G1 X112.806 Y90.999 E.02324
G1 X114.755 Y90.387 E.06405
G1 X135.189 Y90.391 E.64069
G1 X136.209 Y90.585 E.03255
G1 X137.187 Y91.001 E.03332
G1 X138.311 Y91.897 E.04507
G1 X139.204 Y93.235 E.05044
G1 X139.612 Y94.78 E.0501
G1 X139.612 Y115.219 E.64085
G1 X139.256 Y116.648 E.04617
G1 X138.436 Y117.966 E.04867
G1 X137.799 Y118.573 E.02759
G1 X137.194 Y119.001 E.02324
G1 X135.245 Y119.612 E.06404
G1 X114.781 Y119.612 E.64163
G1 X113.352 Y119.256 E.04617
G1 X112.034 Y118.436 E.04867
G1 X111.427 Y117.799 E.02759
M73 P3 R22
M73 Q3 S22
G1 X110.999 Y117.194 E.02324
G1 X110.388 Y115.245 E.06404
G1 X110.388 Y94.781 E.64163
G1 X110.744 Y93.352 E.04617
G1 X110.882 Y93.131 E.00817
M204 S1000
G1 X110.882 Y93.131 F10800
G1 X111.194 Y93.328
M204 S800
G1 F1200
G1 X111.87 Y92.256 E.03974
G1 X112.449 Y91.711 E.02493
G1 X112.999 Y91.324 E.02109
G1 X114.784 Y90.765 E.05865
G1 X135.17 Y90.768 E.63919
G1 X136.116 Y90.951 E.03021
G1 X137.014 Y91.337 E.03065
G1 X138.052 Y92.172 E.04177
G1 X138.848 Y93.363 E.04492
G1 X139.235 Y94.805 E.04681
G1 X139.235 Y115.195 E.63931
G1 X138.898 Y116.526 E.04305
G1 X138.13 Y117.744 E.04515
G1 X137.551 Y118.289 E.02493
G1 X137.001 Y118.676 E.02109
G1 X135.217 Y119.235 E.05862
G1 X114.805 Y119.235 E.64
G1 X113.474 Y118.898 E.04305
G1 X112.256 Y118.13 E.04515
G1 X111.711 Y117.551 E.02493
G1 X111.324 Y117.001 E.02109
G1 X110.765 Y115.217 E.05862
G1 X110.765 Y94.805 E.64
G1 X111.102 Y93.474 E.04305
G1 X111.162 Y93.378 E.00355
M204 S1000
G1 X111.162 Y93.378 F10800
G1 X111.473 Y93.577
M204 S800
G1 F1200
G1 X112.174 Y92.481 E.04079
G1 X113.191 Y91.649 E.0412
G1 X114.812 Y91.142 E.05325
G1 X135.151 Y91.145 E.63772
G1 X136.023 Y91.317 E.02787
G1 X136.839 Y91.672 E.0279
G1 X137.792 Y92.446 E.03849
G1 X138.516 Y93.544 E.04124
G1 X138.858 Y94.829 E.04169
G1 X138.858 Y115.171 E.63781
G1 X138.541 Y116.402 E.03986
M73 P3 R21
G1 X137.826 Y117.519 E.04158
G1 X136.809 Y118.351 E.0412
G1 X135.188 Y118.858 E.05325
G1 X114.829 Y118.858 E.63834
G1 X113.598 Y118.541 E.03986
G1 X112.481 Y117.826 E.04158
G1 X111.649 Y116.809 E.0412
G1 X111.142 Y115.188 E.05325
G1 X111.142 Y94.829 E.63834
G1 X111.451 Y93.632 E.03876
M204 S1000
G1 X111.451 Y93.632 F10800
G1 X111.815 Y93.728
M204 S800
G1 F1200
G1 X111.816 Y93.724 E.00013
G1 X112.447 Y92.741 E.03662
G1 X113.383 Y91.975 E.03792
G1 X114.841 Y91.519 E.0479
G1 X135.132 Y91.522 E.63621
G1 X135.928 Y91.682 E.02546
G1 X136.663 Y92.006 E.02519
G1 X137.529 Y92.718 E.03515
G1 X138.184 Y93.724 E.03764
G1 X138.481 Y94.853 E.0366
G1 X138.481 Y115.146 E.63627
G1 X138.184 Y116.276 E.03663
M73 P4 R21
M73 Q4 S22
G1 X137.553 Y117.259 E.03662
G1 X137.058 Y117.717 E.02114
G1 X136.617 Y118.025 E.01687
G1 X135.159 Y118.481 E.0479
G1 X114.854 Y118.481 E.63665
G1 X113.724 Y118.184 E.03663
G1 X112.741 Y117.553 E.03662
G1 X112.283 Y117.058 E.02114
G1 X111.975 Y116.617 E.01687
G1 X111.519 Y115.159 E.0479
G1 X111.519 Y94.854 E.63665
G1 X111.8 Y93.786 E.03463
M204 S1000
G1 X111.8 Y93.786 F10800
G1 X112.15 Y93.9
M204 S800
G1 F1200
G1 X112.722 Y93.001 E.03341
G1 X113.574 Y92.301 E.03457
G1 X114.87 Y91.896 E.04257
G1 X135.114 Y91.899 E.63474
M73 Q4 S21
G1 X135.795 Y92.036 E.02178
G1 X136.486 Y92.34 E.02367
G1 X137.266 Y92.989 E.03181
G1 X137.828 Y93.851 E.03226
G1 X138.104 Y94.879 E.03337
G1 X138.104 Y115.122 E.63471
G1 X137.85 Y116.1 E.03168
G1 X137.278 Y116.999 E.03341
G1 X136.426 Y117.699 E.03457
G1 X135.131 Y118.104 E.04254
G1 X114.878 Y118.104 E.63502
G1 X113.9 Y117.85 E.03168
G1 X113.001 Y117.278 E.03341
G1 X112.301 Y116.426 E.03457
G1 X111.896 Y115.131 E.04254
G1 X111.896 Y94.878 E.63502
G1 X112.135 Y93.958 E.0298
M204 S1000
G1 X112.135 Y93.958 F10800
G1 X112.499 Y94.056
M204 S800
G1 F1200
G1 X112.507 Y94.026 E.00097
G1 X112.996 Y93.261 E.02847
G1 X113.764 Y92.628 E.03121
G1 X114.898 Y92.273 E.03726
G1 X135.094 Y92.277 E.63323
G1 X135.698 Y92.401 E.01933
G1 X136.307 Y92.673 E.02091
G1 X137 Y93.258 E.02844
G1 X137.494 Y94.029 E.02871
G1 X137.727 Y94.903 E.02836
G1 X137.727 Y115.097 E.63317
G1 X137.493 Y115.974 E.02846
G1 X137.004 Y116.739 E.02847
G1 X136.566 Y117.145 E.01873
G1 X136.236 Y117.372 E.01256
G1 X135.102 Y117.727 E.03726
G1 X114.903 Y117.727 E.63333
G1 X114.026 Y117.493 E.02846
G1 X113.261 Y117.004 E.02847
G1 X112.855 Y116.566 E.01873
G1 X112.628 Y116.236 E.01256
G1 X112.273 Y115.102 E.03726
G1 X112.273 Y94.903 E.63333
G1 X112.484 Y94.113 E.02564
M204 S1000
G1 X112.484 Y94.113 F10800
G1 X112.846 Y94.213
M204 S800
G1 F1200
G1 X112.862 Y94.155 E.00189
G1 X113.269 Y93.522 E.0236
G1 X113.953 Y92.955 E.02786
G1 X114.927 Y92.65 E.032
G1 X135.074 Y92.654 E.6317
G1 X135.598 Y92.765 E.01679
M73 P5 R21
M73 Q5 S21
G1 X136.126 Y93.005 E.01819
G1 X136.733 Y93.526 E.02508
G1 X137.138 Y94.157 E.02351
G1 X137.35 Y94.929 E.0251
G1 X137.35 Y115.071 E.63154
G1 X137.138 Y115.845 E.02516
G1 X136.731 Y116.478 E.0236
G1 X136.047 Y117.045 E.02786
G1 X135.073 Y117.35 E.032
G1 X114.929 Y117.35 E.6316
G1 X114.155 Y117.138 E.02516
G1 X113.522 Y116.731 E.0236
G1 X112.955 Y116.047 E.02786
G1 X112.65 Y115.073 E.032
G1 X112.65 Y94.929 E.6316
G1 X112.831 Y94.271 E.0214
M204 S1000
G1 X112.831 Y94.271 F10800
G1 X113.192 Y94.373
M204 S800
G1 F1200
G1 X113.217 Y94.286 E.00284
G1 X113.542 Y93.783 E.01878
G1 X114.141 Y93.283 E.02446
G1 X114.956 Y93.027 E.02678
G1 X135.052 Y93.031 E.6301
G1 X135.496 Y93.128 E.01425
G1 X135.942 Y93.335 E.01542
G1 X136.465 Y93.792 E.02178
G1 X136.784 Y94.287 E.01846
G1 X136.973 Y94.956 E.0218
G1 X136.973 Y115.044 E.62985
G1 X136.783 Y115.714 E.02184
G1 X136.458 Y116.217 E.01878
G1 X136.075 Y116.572 E.01637
G1 X135.859 Y116.717 E.00816
G1 X135.044 Y116.973 E.02678
G1 X114.956 Y116.973 E.62985
G1 X114.286 Y116.783 E.02184
G1 X113.783 Y116.458 E.01878
G1 X113.428 Y116.075 E.01637
G1 X113.283 Y115.859 E.00816
G1 X113.027 Y115.044 E.02678
G1 X113.027 Y94.956 E.62985
G1 X113.176 Y94.431 E.01711
M204 S1000
G1 X113.176 Y94.431 F10800
G1 X113.536 Y94.537
M204 S800
G1 F1200
G1 X113.57 Y94.42 E.00382
G1 X113.815 Y94.044 E.01407
G1 X114.326 Y93.613 E.02096
G1 X114.985 Y93.404 E.02168
G1 X135.03 Y93.408 E.6285
G1 X135.755 Y93.663 E.0241
G1 X136.195 Y94.055 E.01848
G1 X136.43 Y94.421 E.01364
G1 X136.596 Y94.984 E.0184
G1 X136.596 Y115.016 E.62809
G1 X136.43 Y115.58 E.01843
G1 X136.185 Y115.956 E.01407
G1 X135.674 Y116.387 E.02096
G1 X135.015 Y116.596 E.02168
G1 X114.984 Y116.596 E.62806
G1 X114.42 Y116.43 E.01843
G1 X114.044 Y116.185 E.01407
G1 X113.613 Y115.674 E.02096
G1 X113.404 Y115.015 E.02168
G1 X113.404 Y94.984 E.62806
G1 X113.519 Y94.595 E.01272
M204 S1000
G1 X113.519 Y94.595 F10800
G1 X113.876 Y94.705
M204 S800
G1 F1200
G1 X113.922 Y94.558 E.00483
G1 X114.088 Y94.305 E.00949
G1 X114.508 Y93.944 E.01736
G1 X115.014 Y93.781 E.01667
G1 X135.008 Y93.785 E.6269
G1 X135.567 Y93.992 E.01869
M73 P6 R21
M73 Q6 S21
G1 X135.922 Y94.316 E.01507
G1 X136.219 Y95.013 E.02376
G1 X136.219 Y114.987 E.62627
G1 X136.078 Y115.442 E.01494
G1 X135.912 Y115.695 E.00949
G1 X135.492 Y116.056 E.01736
G1 X134.986 Y116.219 E.01667
G1 X115.013 Y116.219 E.62624
G1 X114.558 Y116.078 E.01494
G1 X114.305 Y115.912 E.00949
G1 X113.944 Y115.492 E.01736
G1 X113.781 Y114.986 E.01667
G1 X113.781 Y95.013 E.62624
G1 X113.859 Y94.762 E.00824
M204 S1000
G1 X113.859 Y94.762 F10800
G1 X114.214 Y94.913
M204 S800
G1 F1200
G1 X114.361 Y94.567 E.01179
G1 X114.684 Y94.277 E.01361
G1 X115.045 Y94.158 E.01192
G1 X134.986 Y94.162 E.62524
G1 X135.377 Y94.319 E.01321
G1 X135.646 Y94.574 E.01162
G1 X135.842 Y95.045 E.016
G1 X135.842 Y114.955 E.62426
G1 X135.639 Y115.433 E.01628
G1 X135.316 Y115.723 E.01361
G1 X134.955 Y115.842 E.01192
G1 X115.045 Y115.842 E.62426
G1 X114.567 Y115.639 E.01628
G1 X114.277 Y115.316 E.01361
G1 X114.158 Y114.955 E.01192
G1 X114.158 Y95.045 E.62426
G1 X114.191 Y94.968 E.00263
M204 S1000
G1 X114.191 Y94.968 F10800
G1 X114.535 Y95.08
M204 S800
G1 F1200
G1 X114.633 Y94.829 E.00845
G1 X114.867 Y94.612 E.01001
G1 X115.08 Y94.535 E.0071
G1 X134.934 Y94.535 E.62251
G1 X135.365 Y94.826 E.01631
G1 X135.465 Y95.08 E.00856
G1 X135.465 Y114.92 E.62207
G1 X135.367 Y115.171 E.00845
G1 X135.133 Y115.388 E.01001
G1 X134.92 Y115.465 E.0071
G1 X115.08 Y115.465 E.62207
G1 X114.829 Y115.367 E.00845
G1 X114.612 Y115.133 E.01001
G1 X114.535 Y114.92 E.0071
G1 X114.535 Y95.14 E.62019
M204 S1000
G1 X114.535 Y95.14 F10800
G1 X114.941 Y95.141
M204 S800
G1 F1200
G1 X114.941 Y95.053 E.00276
G1 X115.122 Y94.912 E.00719
G1 X134.947 Y94.941 E.6216
G1 X135.088 Y95.122 E.00719
G1 X135.059 Y114.947 E.6216
G1 X134.878 Y115.088 E.00719
M73 P7 R21
M73 Q7 S21
G1 X115.053 Y115.059 E.6216
G1 X114.912 Y114.878 E.00719
G1 X114.941 Y95.201 E.61696
M204 S1000
;WIPE_START
G1 F8640
G1 X114.941 Y95.141 E-.01385
G1 X114.941 Y95.053 E-.02032
G1 X115.122 Y94.912 E-.05298
G1 X118.209 Y94.917 E-.71285
;WIPE_END
G1 Z.6 F720
; printing object Another_Hollow_Cube.stl id:0 copy 0
G1 X132.93 Y112.967 F10800
G1 Z.2 F720
G1 E.8 F2100
M204 S800
;TYPE:Perimeter
;WIDTH:0.419999
G1 F1200
G1 X132.652 Y113.111 E.00982
G1 X132.554 Y113.12 E.00309
G1 X117.446 Y113.12 E.4737
G1 X117.046 Y112.954 E.01358
G1 X116.889 Y112.652 E.01067
G1 X116.88 Y112.554 E.00309
G1 X116.88 Y97.446 E.4737
G1 X117.046 Y97.046 E.01358
G1 X117.348 Y96.889 E.01067
G1 X117.446 Y96.88 E.00309
G1 X132.554 Y96.88 E.4737
G1 X132.954 Y97.046 E.01358
G1 X133.12 Y97.446 E.01358
G1 X133.12 Y112.554 E.4737
G1 X133.111 Y112.652 E.00309
G1 X132.969 Y112.925 E.00965
M204 S1000
G1 X132.969 Y112.925 F10800
G1 X132.655 Y112.701
M204 S800
;TYPE:External perimeter
G1 F1200
G1 X132.554 Y112.743 E.00343
G1 X117.446 Y112.743 E.4737
G1 X117.313 Y112.687 E.00452
G1 X117.257 Y112.554 E.00452
G1 X117.257 Y97.446 E.4737
G1 X117.313 Y97.313 E.00452
G1 X117.446 Y97.257 E.00452
G1 X132.554 Y97.257 E.4737
G1 X132.687 Y97.313 E.00452
G1 X132.743 Y97.446 E.00452
G1 X132.743 Y112.554 E.4737
G1 X132.697 Y112.664 E.00374
M204 S1000
;WIPE_START
G1 F8640
G1 X132.655 Y112.701 E-.01292
G1 X132.554 Y112.743 E-.02526
G1 X129.255 Y112.743 E-.76182
;WIPE_END
G1 Z.6 F720
G1 X134.212 Y95.788 F10800
G1 Z.2 F720
G1 E.8 F2100
M204 S800
;TYPE:Perimeter
G1 F1200
G1 X134.212 Y96.525 E.02311
G1 X134.212 Y114.212 E.55456
G1 X115.788 Y114.212 E.57767
G1 X115.788 Y95.788 E.57767
G1 X134.152 Y95.788 E.57579
M204 S1000
G1 X134.589 Y95.411 F10800
M73 P8 R21
M73 Q8 S21
M204 S800
;TYPE:External perimeter
G1 F1200
G1 X134.589 Y96.525 E.03493
G1 X134.589 Y114.589 E.56638
G1 X115.411 Y114.589 E.60131
M73 P8 R20
G1 X115.411 Y95.411 E.60131
G1 X134.529 Y95.411 E.59943
M204 S1000
;WIPE_START
G1 F8640
G1 X134.589 Y95.411 E-.01385
G1 X134.589 Y96.525 E-.25723
G1 X134.589 Y98.816 E-.52892
;WIPE_END
G1 Z.6 F720
G1 X133.268 Y95.958 F10800
G1 Z.2 F720
G1 E.8 F2100
M204 S800
;TYPE:Solid infill
;WIDTH:0.425436
G1 F1200
G1 X133.873 Y96.562 E.02719
G1 X133.873 Y97.103 E.01721
G1 X132.897 Y96.127 E.0439
G1 X132.356 Y96.127 E.01721
G1 X134.042 Y97.813 E.07584
M204 S1000
G1 X134.042 Y97.813 F10800
G1 X133.289 Y97.602
M204 S800
G1 F1200
G1 X133.873 Y98.185 E.02625
G1 X133.873 Y98.726 E.01721
G1 X133.459 Y98.312 E.01862
G1 X133.459 Y98.853 E.01721
G1 X133.873 Y99.267 E.01862
G1 X133.873 Y99.808 E.01721
G1 X133.459 Y99.394 E.01862
G1 X133.459 Y99.935 E.01721
G1 X133.873 Y100.349 E.01862
G1 X133.873 Y100.89 E.01721
G1 X133.459 Y100.476 E.01862
G1 X133.459 Y101.017 E.01721
G1 X133.873 Y101.431 E.01862
G1 X133.873 Y101.971 E.01718
G1 X133.459 Y101.558 E.0186
G1 X133.459 Y102.099 E.01721
G1 X133.873 Y102.512 E.0186
G1 X133.873 Y103.053 E.01721
G1 X133.459 Y102.64 E.0186
G1 X133.459 Y103.181 E.01721
G1 X133.873 Y103.594 E.0186
G1 X133.873 Y104.135 E.01721
G1 X133.459 Y103.722 E.0186
G1 X133.459 Y104.263 E.01721
G1 X133.873 Y104.676 E.0186
G1 X133.873 Y105.217 E.01721
G1 X133.459 Y104.804 E.0186
G1 X133.459 Y105.345 E.01721
G1 X133.873 Y105.758 E.0186
G1 X133.873 Y106.299 E.01721
G1 X133.459 Y105.886 E.0186
G1 X133.459 Y106.427 E.01721
G1 X133.873 Y106.84 E.0186
G1 X133.873 Y107.381 E.01721
G1 X133.459 Y106.968 E.0186
G1 X133.459 Y107.509 E.01721
G1 X133.873 Y107.922 E.0186
G1 X133.873 Y108.463 E.01721
G1 X133.459 Y108.049 E.01862
G1 X133.459 Y108.59 E.01721
G1 X133.873 Y109.004 E.01862
G1 X133.873 Y109.545 E.01721
G1 X133.459 Y109.131 E.01862
G1 X133.459 Y109.672 E.01721
G1 X133.873 Y110.086 E.01862
G1 X133.873 Y110.627 E.01721
G1 X133.459 Y110.213 E.01862
G1 X133.459 Y110.754 E.01721
G1 X133.873 Y111.168 E.01862
G1 X133.873 Y111.709 E.01721
G1 X133.459 Y111.295 E.01862
G1 X133.459 Y111.836 E.01721
G1 X133.873 Y112.25 E.01862
G1 X133.873 Y112.791 E.01721
G1 X133.459 Y112.377 E.01862
G1 X133.445 Y112.727 E.01114
G1 X133.384 Y112.843 E.00417
G1 X133.873 Y113.332 E.022
G1 X133.873 Y113.873 E.01721
G1 X133.199 Y113.199 E.03032
G1 X132.843 Y113.384 E.01276
G1 X133.332 Y113.873 E.022
