; generated by PrusaSlicer 2.9.0 on 2024-12-26 at 01:44:17 UTC


;
;
; 

; external perimeters extrusion width = 0.45mm
; perimeters extrusion width = 0.45mm
; infill extrusion width = 0.45mm
; solid infill extrusion width = 0.45mm
; top infill extrusion width = 0.40mm
; first layer extrusion width = 0.42mm

; external perimeters extrusion width = 0.45mm
; perimeters extrusion width = 0.45mm
; infill extrusion width = 0.45mm
; solid infill extrusion width = 0.45mm
; top infill extrusion width = 0.40mm
; first layer extrusion width = 0.42mm

; external perimeters extrusion width = 0.45mm
; perimeters extrusion width = 0.45mm
; infill extrusion width = 0.45mm
; solid infill extrusion width = 0.45mm
; top infill extrusion width = 0.40mm
; first layer extrusion width = 0.42mm

M73 P0 R38
M73 Q0 S38
M201 X1000 Y1000 Z200 E8000 ; sets maximum accelerations, mm/sec^2
M203 X200 Y200 Z12 E120 ; sets maximum feedrates, mm / sec
M204 S1250 T1250 ; sets acceleration (S) and retract acceleration (R), mm/sec^2
M205 X8.00 Y8.00 Z0.40 E4.50 ; sets the jerk limits, mm/sec
M205 S0 T0 ; sets the minimum extruding and travel feed rate, mm/sec

; printing object CoinHolder-v2.stl id:0 copy 0
; stop printing object CoinHolder-v2.stl id:0 copy 0
; printing object CoinHolder-v2.stl id:2 copy 0
; stop printing object CoinHolder-v2.stl id:2 copy 0
; printing object CoinHolder-v2.stl id:1 copy 0
; stop printing object CoinHolder-v2.stl id:1 copy 0

;TYPE:Custom
M862.3 P "MK3SMMU3" ; printer model check
M862.1 P0.4 ; nozzle diameter check
M115 U3.14.1 ; tell printer latest fw version
G90 ; use absolute coordinates
M83 ; extruder relative mode
M104 S215 ; set extruder temp
M140 S60 ; set bed temp
M190 S60 ; wait for bed temp
M109 S215 ; wait for extruder temp
G28 W ; home all without mesh bed level
G80 X61.1277 Y93.0401 W127.775 H41.5745 ; mesh bed levelling

; Send the filament type to the MMU unit.
; E stands for extruder number, F stands for filament type (0: default; 1:flex; 2: PVA)
M403 E0 F0
M403 E1 F0
M403 E2 F0
M403 E3 F0
M403 E4 F0


;go outside print area
G1 Y-3 F1000
G1 Z0.4 F1000
; select extruder
T0
; initial load
G1 X55 E29 F1073
G1 X5 E29 F1800
G1 X55 E8 F2000
G1 Z0.3 F1000
G92 E0
G1 X240 E25 F2200
G1 Y-2 F1000
M73 P0 R37
G1 X55 E25 F1400
G1 Z0.2 F1000
G1 X5 E4 F1000
G92 E0


M221 S95
G92 E0

; Don't change E values below. Excessive value can damage the printer.

M907 E538 ; set extruder motor current
G21 ; set units to millimeters
G90 ; use absolute coordinates
M83 ; use relative distances for extrusion

M900 K0.05 ; Filament gcode LA 1.5
M900 K30 ; Filament gcode LA 1.0




M107
;LAYER_CHANGE
;Z:0.2
;HEIGHT:0.2
G1 E-.8 F2100
M73 Q0 S37
G1 Z.6 F720
G1 X62.74 Y93.437 F10800
G1 Z.2 F720
M73 P1 R37
M73 Q1 S37
G1 E.8 F2100
M204 S800
;TYPE:Skirt/Brim
;WIDTH:0.42
G1 F1200
G1 X63.502 Y93.299 E.02428
G1 X145.158 Y93.229 E2.56027
G1 X186.554 Y93.767 E1.29805
G1 X187.797 Y94.174 E.04101
G1 X188.586 Y95.217 E.04101
G1 X188.714 Y95.955 E.02348
G1 X188.714 Y129.205 E1.04253
G1 X188.323 Y130.453 E.04101
G1 X187.29 Y131.256 E.04102
G1 X186.602 Y131.392 E.02199
G1 X100.332 Y134.425 E2.70661
G1 X63.505 Y134.426 E1.15468
G1 X62.257 Y134.035 E.04101
G1 X61.454 Y133.002 E.04102
G1 X61.316 Y132.237 E.02437
G1 X61.316 Y95.487 E1.15227
G1 X61.707 Y94.239 E.04101
G1 X62.693 Y93.474 E.03913
M204 S1000
;WIPE_START
G1 F8640
G1 X62.74 Y93.437 E-.01381
G1 X63.502 Y93.299 E-.17881
G1 X66.132 Y93.297 E-.60738
;WIPE_END
G1 Z.6 F720
; printing object CoinHolder-v2.stl id:0 copy 0
G1 X94.643 Y118.656 F10800
G1 Z.2 F720
G1 E.8 F2100
M204 S800
;TYPE:Perimeter
;WIDTH:0.419999
G1 F1200
G1 X94.294 Y119.511 E.02896
G1 X93.858 Y120.385 E.03062
G1 X93.362 Y121.223 E.03053
G1 X92.838 Y121.98 E.02887
G1 X92.198 Y122.782 E.03217
G1 X91.533 Y123.497 E.03062
G1 X90.861 Y124.125 E.02884
G1 X90.064 Y124.773 E.03221
G1 X89.263 Y125.33 E.03059
G1 X88.426 Y125.828 E.03054
G1 X87.604 Y126.241 E.02884
G1 X86.657 Y126.637 E.03218
G1 X85.731 Y126.946 E.03061
G1 X84.787 Y127.188 E.03056
G1 X83.882 Y127.352 E.02884
G1 X82.861 Y127.466 E.03221
G1 X81.886 Y127.501 E.03059
G1 X80.967 Y127.47 E.02883
G1 X79.945 Y127.363 E.03222
G1 X78.985 Y127.19 E.03058
G1 X78.041 Y126.95 E.03054
G1 X77.168 Y126.661 E.02883
G1 X76.218 Y126.27 E.03221
G1 X75.345 Y125.834 E.0306
G1 X74.507 Y125.337 E.03055
G1 X73.751 Y124.813 E.02884
G1 X72.949 Y124.171 E.03221
G1 X72.235 Y123.506 E.03059
G1 X71.608 Y122.834 E.02882
G1 X70.961 Y122.035 E.03224
G1 X70.405 Y121.234 E.03057
G1 X69.908 Y120.396 E.03055
G1 X69.495 Y119.574 E.02884
G1 X69.1 Y118.625 E.03223
G1 X68.792 Y117.7 E.03057
G1 X68.552 Y116.756 E.03054
G1 X68.387 Y115.851 E.02884
G1 X68.276 Y114.829 E.03223
G1 X68.241 Y113.854 E.03059
G1 X68.273 Y112.936 E.0288
G1 X68.374 Y111.968 E.03052
G1 X68.555 Y110.955 E.03226
G1 X68.781 Y110.063 E.02885
G1 X69.086 Y109.139 E.03051
G1 X69.479 Y108.187 E.03229
G1 X69.889 Y107.364 E.02883
G1 X70.383 Y106.525 E.03053
G1 X70.936 Y105.723 E.03054
G1 X71.582 Y104.921 E.03229
G1 X72.207 Y104.247 E.02882
G1 X72.918 Y103.582 E.03052
G1 X73.674 Y102.968 E.03054
G1 X74.52 Y102.381 E.03229
G1 X75.31 Y101.91 E.02884
G1 X76.179 Y101.472 E.03051
G1 X77.131 Y101.078 E.0323
G1 X78.003 Y100.786 E.02883
G1 X78.945 Y100.543 E.0305
G1 X79.959 Y100.361 E.0323
G1 X80.873 Y100.261 E.02883
G1 X81.846 Y100.224 E.03053
G1 X82.819 Y100.256 E.03052
G1 X83.788 Y100.358 E.03055
G1 X84.802 Y100.541 E.03231
G1 X85.692 Y100.767 E.02879
G1 X86.617 Y101.073 E.03055
G1 X87.518 Y101.444 E.03055
G1 X88.439 Y101.906 E.03231
G1 X89.229 Y102.373 E.02877
G1 X90.03 Y102.927 E.03054
G1 X90.79 Y103.537 E.03056
G1 X91.543 Y104.24 E.0323
G1 X92.17 Y104.911 E.02879
G1 X92.783 Y105.668 E.03054
G1 X93.34 Y106.468 E.03056
G1 X93.864 Y107.354 E.03227
G1 X94.276 Y108.175 E.0288
G1 X94.651 Y109.074 E.03054
G1 X94.96 Y109.998 E.03055
G1 X95.213 Y110.997 E.03231
G1 X95.377 Y111.9 E.02878
G1 X95.482 Y112.869 E.03056
G1 X95.519 Y113.842 E.03053
G1 X95.487 Y114.762 E.02886
G1 X95.383 Y115.782 E.03215
G1 X95.211 Y116.744 E.03064
G1 X94.971 Y117.688 E.03054
G1 X94.682 Y118.561 E.02883
G1 X94.666 Y118.6 E.00132
M204 S1000
G1 X94.666 Y118.6 F10800
G1 X94.296 Y118.512
M204 S800
;TYPE:External perimeter
G1 F1200
G1 X93.945 Y119.368 E.02901
G1 X93.521 Y120.216 E.02973
G1 X93.037 Y121.031 E.02972
G1 X92.528 Y121.765 E.02801
G1 X91.903 Y122.546 E.03136
G1 X91.257 Y123.24 E.02973
G1 X90.604 Y123.849 E.028
G1 X89.827 Y124.48 E.03138
G1 X89.048 Y125.02 E.02972
G1 X88.233 Y125.503 E.0297
G1 X87.435 Y125.904 E.028
M73 Q2 S37
G1 X86.511 Y126.289 E.03139
M73 P2 R37
G1 X85.612 Y126.588 E.02971
G1 X84.694 Y126.822 E.0297
G1 X83.815 Y126.981 E.02801
G1 X82.82 Y127.091 E.03139
G1 X81.873 Y127.124 E.02971
G1 X80.98 Y127.093 E.02802
G1 X79.985 Y126.988 E.03137
G1 X79.052 Y126.819 E.02973
G1 X78.134 Y126.584 E.02971
G1 X77.287 Y126.303 E.02798
G1 X76.361 Y125.922 E.0314
G1 X75.514 Y125.497 E.02971
G1 X74.7 Y125.013 E.02969
G1 X73.966 Y124.504 E.02801
G1 X73.186 Y123.877 E.03138
G1 X72.493 Y123.23 E.02973
G1 X71.884 Y122.577 E.028
G1 X71.255 Y121.798 E.03139
G1 X70.715 Y121.019 E.02972
G1 X70.233 Y120.204 E.02969
G1 X69.832 Y119.405 E.02803
G1 X69.448 Y118.481 E.03137
G1 X69.15 Y117.581 E.02973
G1 X68.917 Y116.663 E.0297
G1 X68.758 Y115.784 E.02801
G1 X68.651 Y114.789 E.03138
G1 X68.618 Y113.842 E.02971
G1 X68.65 Y112.949 E.02802
G1 X68.749 Y112.008 E.02967
G1 X68.926 Y111.022 E.03141
G1 X69.147 Y110.156 E.02802
G1 X69.444 Y109.257 E.02969
G1 X69.827 Y108.332 E.03139
G1 X70.226 Y107.533 E.028
G1 X70.708 Y106.717 E.02972
G1 X71.246 Y105.938 E.02968
G1 X71.875 Y105.158 E.03142
G1 X72.483 Y104.504 E.028
G1 X73.175 Y103.857 E.0297
G1 X73.912 Y103.262 E.0297
G1 X74.735 Y102.691 E.03141
G1 X75.503 Y102.235 E.028
G1 X76.349 Y101.809 E.0297
G1 X77.275 Y101.427 E.03141
G1 X78.122 Y101.144 E.028
G1 X79.039 Y100.908 E.02969
G1 X80.025 Y100.732 E.0314
G1 X80.913 Y100.636 E.028
G1 X81.859 Y100.601 E.02968
G1 X82.806 Y100.633 E.02971
G1 X83.748 Y100.733 E.0297
G1 X84.734 Y100.912 E.03142
G1 X85.599 Y101.133 E.02799
G1 X86.498 Y101.431 E.0297
G1 X87.374 Y101.792 E.02971
G1 X88.269 Y102.242 E.03141
G1 X89.037 Y102.698 E.028
G1 X89.816 Y103.237 E.0297
G1 X90.554 Y103.83 E.02968
G1 X91.286 Y104.515 E.03143
G1 X91.894 Y105.168 E.02798
G1 X92.489 Y105.905 E.0297
G1 X93.03 Y106.683 E.02971
G1 X93.539 Y107.546 E.03141
G1 X93.939 Y108.344 E.02799
G1 X94.302 Y109.219 E.0297
G1 X94.602 Y110.117 E.02969
G1 X94.847 Y111.089 E.03143
G1 X95.006 Y111.967 E.02798
G1 X95.108 Y112.909 E.02971
G1 X95.142 Y113.856 E.02971
G1 X95.11 Y114.748 E.02799
G1 X95.008 Y115.744 E.03139
G1 X94.84 Y116.677 E.02972
G1 X94.606 Y117.595 E.0297
G1 X94.324 Y118.442 E.02799
G1 X94.319 Y118.456 E.00047
M204 S1000
;WIPE_START
G1 F8640
G1 X94.296 Y118.512 E-.01398
G1 X93.945 Y119.368 E-.21362
G1 X93.521 Y120.216 E-.21892
G1 X93.037 Y121.031 E-.21887
G1 X92.705 Y121.51 E-.13461
;WIPE_END
G1 Z.6 F720
G1 X99.468 Y131.45 F10800
G1 Z.2 F720
G1 E.8 F2100
M204 S800
;TYPE:Perimeter
G1 F1200
G1 X64.292 Y131.45 E1.10292
G1 X64.292 Y96.275 E1.10289
G1 X99.468 Y96.275 E1.10292
G1 X99.468 Y100.928 E.14589
G1 X99.468 Y131.39 E.95511
M204 S1000
G1 X99.468 Y131.39 F10800
G1 X99.845 Y131.827
M204 S800
;TYPE:External perimeter
G1 F1200
G1 X63.915 Y131.827 E1.12656
G1 X63.915 Y95.897 E1.12656
G1 X99.845 Y95.897 E1.12656
G1 X99.845 Y100.928 E.15774
G1 X99.845 Y131.767 E.96693
M204 S1000
;WIPE_START
G1 F8640
G1 X99.845 Y131.827 E-.01385
G1 X96.44 Y131.827 E-.78615
;WIPE_END
G1 Z.6 F720
G1 X98.531 Y96.444 F10800
G1 Z.2 F720
G1 E.8 F2100
M204 S800
;TYPE:Solid infill
;WIDTH:0.422301
G1 F1200
G1 X99.128 Y97.042 E.02666
G1 X99.128 Y97.578 E.01691
G1 X98.164 Y96.614 E.04301
G1 X97.628 Y96.614 E.01691
G1 X99.128 Y98.115 E.06694
G1 X99.128 Y98.651 E.01691
G1 X97.091 Y96.614 E.09088
G1 X96.554 Y96.614 E.01694
G1 X99.128 Y99.188 E.11483
G1 X99.128 Y99.724 E.01691
G1 X96.018 Y96.614 E.13874
G1 X95.481 Y96.614 E.01694
G1 X99.128 Y100.261 E.1627
G1 X99.128 Y100.797 E.01691
G1 X94.945 Y96.614 E.18661
G1 X94.408 Y96.614 E.01694
G1 X99.128 Y101.334 E.21057
G1 X99.128 Y101.87 E.01691
G1 X93.872 Y96.614 E.23448
G1 X93.335 Y96.614 E.01694
G1 X99.128 Y102.407 E.25844
G1 X99.128 Y102.943 E.01691
M73 P2 R36
G1 X92.799 Y96.614 E.28235
G1 X92.262 Y96.614 E.01694
G1 X99.128 Y103.48 E.30631
G1 X99.128 Y104.017 E.01694
M73 P3 R36
M73 Q3 S37
G1 X91.726 Y96.614 E.33024
G1 X91.189 Y96.614 E.01694
G1 X99.128 Y104.553 E.35418
G1 X99.128 Y105.09 E.01694
G1 X90.653 Y96.614 E.37811
G1 X90.116 Y96.614 E.01694
G1 X99.128 Y105.626 E.40205
G1 X99.128 Y106.163 E.01694
G1 X89.58 Y96.614 E.42598
G1 X89.043 Y96.614 E.01694
G1 X99.128 Y106.699 E.44992
G1 X99.128 Y107.236 E.01694
G1 X88.507 Y96.614 E.47385
G1 X87.97 Y96.614 E.01694
G1 X99.128 Y107.772 E.49778
G1 X99.128 Y108.309 E.01694
G1 X87.434 Y96.614 E.52172
G1 X86.897 Y96.614 E.01694
G1 X99.128 Y108.845 E.54565
G1 X99.128 Y109.382 E.01694
G1 X86.361 Y96.614 E.56959
G1 X85.824 Y96.614 E.01694
G1 X99.128 Y109.918 E.59352
G1 X99.128 Y110.455 E.01694
G1 X85.287 Y96.614 E.61748
G1 X84.751 Y96.614 E.01691
G1 X99.128 Y110.991 E.64139
G1 X99.128 Y111.528 E.01694
M73 Q3 S36
G1 X84.214 Y96.614 E.66535
G1 X83.678 Y96.614 E.01691
G1 X88.771 Y101.707 E.22721
G1 X87.666 Y101.139 E.03919
G1 X83.141 Y96.614 E.20187
G1 X82.605 Y96.614 E.01691
G1 X86.753 Y100.762 E.18505
G1 X85.947 Y100.493 E.0268
G1 X82.068 Y96.614 E.17305
G1 X81.532 Y96.614 E.01691
G1 X85.215 Y100.297 E.16431
G1 X84.868 Y100.209 E.01129
G1 X84.529 Y100.147 E.01087
G1 X80.995 Y96.614 E.15764
G1 X80.459 Y96.614 E.01691
G1 X83.874 Y100.029 E.15235
G1 X83.271 Y99.963 E.01914
G1 X79.922 Y96.614 E.14941
G1 X79.386 Y96.614 E.01691
G1 X82.684 Y99.912 E.14713
G1 X82.129 Y99.894 E.01752
G1 X78.849 Y96.614 E.14633
G1 X78.313 Y96.614 E.01691
G1 X81.592 Y99.894 E.14631
G1 X81.075 Y99.913 E.01632
G1 X77.776 Y96.614 E.14718
G1 X77.24 Y96.614 E.01691
G1 X80.578 Y99.953 E.14894
G1 X80.093 Y100.004 E.01538
G1 X76.703 Y96.614 E.15124
G1 X76.167 Y96.614 E.01691
G1 X79.629 Y100.077 E.15447
G1 X79.174 Y100.158 E.01458
G1 X75.63 Y96.614 E.15811
G1 X75.093 Y96.614 E.01694
G1 X78.728 Y100.249 E.16217
G1 X78.301 Y100.358 E.0139
G1 X74.557 Y96.614 E.16703
G1 X74.02 Y96.614 E.01694
G1 X77.878 Y100.472 E.17211
G1 X77.475 Y100.605 E.01339
G1 X73.484 Y96.614 E.17805
G1 X72.947 Y96.614 E.01694
G1 X77.072 Y100.739 E.18403
G1 X76.691 Y100.894 E.01298
G1 X72.411 Y96.614 E.19094
G1 X71.874 Y96.614 E.01694
G1 X76.31 Y101.05 E.1979
G1 X75.939 Y101.215 E.01281
G1 X71.338 Y96.614 E.20526
G1 X70.801 Y96.614 E.01694
G1 X75.582 Y101.395 E.21329
G1 X75.225 Y101.574 E.0126
G1 X70.265 Y96.614 E.22128
G1 X69.728 Y96.614 E.01694
G1 X74.884 Y101.769 E.23
G1 X74.548 Y101.97 E.01235
G1 X69.192 Y96.614 E.23894
G1 X68.655 Y96.614 E.01694
G1 X74.218 Y102.177 E.24818
G1 X73.901 Y102.397 E.01217
G1 X68.119 Y96.614 E.25797
G1 X67.582 Y96.614 E.01694
G1 X73.584 Y102.616 E.26776
G1 X73.282 Y102.851 E.01207
M73 P4 R36
G1 X67.046 Y96.614 E.27822
M73 Q4 S36
G1 X66.509 Y96.614 E.01694
G1 X72.985 Y103.09 E.28891
G1 X72.691 Y103.332 E.01201
G1 X65.973 Y96.614 E.29971
G1 X65.436 Y96.614 E.01694
G1 X72.413 Y103.591 E.31126
G1 X72.135 Y103.849 E.01196
G1 X64.899 Y96.614 E.32279
G1 X64.631 Y96.614 E.00845
G1 X64.631 Y96.882 E.00845
G1 X71.866 Y104.117 E.32277
G1 X71.608 Y104.395 E.01196
G1 X64.631 Y97.419 E.31124
G1 X64.631 Y97.955 E.01691
G1 X71.349 Y104.673 E.29971
G1 X71.108 Y104.968 E.01202
G1 X64.631 Y98.492 E.28893
G1 X64.631 Y99.028 E.01691
G1 X70.868 Y105.265 E.27825
G1 X70.634 Y105.567 E.01205
G1 X64.631 Y99.565 E.26779
G1 X64.631 Y100.101 E.01691
G1 X70.414 Y105.884 E.25799
G1 X70.194 Y106.2 E.01215
G1 X64.631 Y100.638 E.24816
G1 X64.631 Y101.174 E.01691
G1 X69.988 Y106.531 E.23899
G1 X69.788 Y106.868 E.01236
G1 X64.631 Y101.711 E.23007
G1 X64.631 Y102.248 E.01694
G1 X69.589 Y107.205 E.22117
G1 X69.411 Y107.563 E.01261
G1 X64.631 Y102.784 E.21322
G1 X64.631 Y103.321 E.01694
G1 X69.232 Y107.922 E.20526
G1 X69.067 Y108.293 E.01281
G1 X64.631 Y103.857 E.1979
G1 X64.631 Y104.394 E.01694
G1 X68.91 Y108.672 E.19087
G1 X68.757 Y109.056 E.01304
G1 X64.631 Y104.93 E.18407
G1 X64.631 Y105.467 E.01694
G1 X68.623 Y109.459 E.17809
G1 X68.489 Y109.861 E.01337
G1 X64.631 Y106.003 E.17211
G1 X64.631 Y106.54 E.01694
G1 X68.376 Y110.285 E.16707
G1 X68.267 Y110.712 E.0139
G1 X64.631 Y107.076 E.16221
G1 X64.631 Y107.613 E.01694
G1 X68.174 Y111.156 E.15806
G1 X68.093 Y111.611 E.01458
G1 X64.631 Y108.149 E.15445
G1 X64.631 Y108.686 E.01694
G1 X68.021 Y112.076 E.15124
G1 X67.97 Y112.561 E.01538
G1 X64.631 Y109.222 E.14896
G1 X64.631 Y109.759 E.01694
G1 X67.931 Y113.058 E.1472
G1 X67.911 Y113.575 E.01632
G1 X64.631 Y110.295 E.14633
G1 X64.631 Y110.832 E.01694
G1 X67.911 Y114.112 E.14633
G1 X67.931 Y114.668 E.01755
G1 X64.631 Y111.368 E.14722
G1 X64.631 Y111.905 E.01694
G1 X67.981 Y115.255 E.14945
G1 X68.047 Y115.857 E.0191
G1 X64.631 Y112.442 E.15237
G1 X64.631 Y112.978 E.01691
G1 X68.162 Y116.509 E.15753
G1 X68.313 Y117.197 E.02222
G1 X64.631 Y113.515 E.16426
G1 X64.631 Y114.051 E.01691
G1 X68.515 Y117.934 E.17325
G1 X68.78 Y118.736 E.02664
G1 X64.631 Y114.588 E.18507
G1 X64.631 Y115.124 E.01691
G1 X69.158 Y119.651 E.20196
G1 X69.588 Y120.517 E.0305
G1 X69.732 Y120.761 E.00894
G1 X64.462 Y115.491 E.23511
M204 S1000
;WIPE_START
G1 F8640
G1 X66.912 Y117.941 E-.8
;WIPE_END
G1 Z.6 F720
G1 X93.543 Y106.479 F10800
G1 Z.2 F720
G1 E.8 F2100
M204 S800
G1 F1200
G1 X99.128 Y112.064 E.24916
G1 X99.128 Y112.601 E.01694
G1 X94.605 Y108.077 E.2018
G1 X94.979 Y108.988 E.03107
G1 X99.128 Y113.137 E.1851
G1 X99.128 Y113.674 E.01694
G1 X95.247 Y109.792 E.17316
G1 X95.443 Y110.525 E.02394
G1 X99.128 Y114.211 E.16442
G1 X99.128 Y114.747 E.01691
G1 X95.598 Y111.216 E.1575
G1 X95.714 Y111.869 E.02092
G1 X99.128 Y115.284 E.15233
G1 X99.128 Y115.82 E.01691
G1 X95.781 Y112.473 E.14932
G1 X95.829 Y113.057 E.01848
G1 X99.128 Y116.357 E.1472
G1 X99.128 Y116.893 E.01691
G1 X95.849 Y113.614 E.14628
G1 X95.848 Y114.149 E.01688
G1 X99.128 Y117.43 E.14635
G1 X99.128 Y117.966 E.01691
G1 X95.829 Y114.667 E.14718
G1 X95.788 Y115.163 E.0157
G1 X99.128 Y118.503 E.14901
G1 X99.128 Y119.039 E.01691
