; generated by PrusaSlicer 2.9.0 on 2024-12-28 at 23:18:28 UTC


;
;
; 

; external perimeters extrusion width = 0.45mm
; perimeters extrusion width = 0.45mm
; infill extrusion width = 0.45mm
; solid infill extrusion width = 0.45mm
; top infill extrusion width = 0.40mm
; first layer extrusion width = 0.42mm

M73 P0 R11
M73 Q0 S11
M201 X1000 Y1000 Z200 E8000 ; sets maximum accelerations, mm/sec^2
M203 X200 Y200 Z12 E120 ; sets maximum feedrates, mm / sec
M204 S1250 T1250 ; sets acceleration (S) and retract acceleration (R), mm/sec^2
M205 X8.00 Y8.00 Z0.40 E4.50 ; sets the jerk limits, mm/sec
M205 S0 T0 ; sets the minimum extruding and travel feed rate, mm/sec

; printing object PennyHolderII.stl id:0 copy 0
; stop printing object PennyHolderII.stl id:0 copy 0

;TYPE:Custom
M862.3 P "MK3SMMU3" ; printer model check
M862.1 P0.4 ; nozzle diameter check
M115 U3.14.1 ; tell printer latest fw version
G90 ; use absolute coordinates
M83 ; extruder relative mode
M104 S215 ; set extruder temp
M140 S60 ; set bed temp
M190 S60 ; wait for bed temp
M109 S215 ; wait for extruder temp
G28 W ; home all without mesh bed level
G80 X92.8362 Y48.0337 W43.5542 H43.5542 ; mesh bed levelling

; Send the filament type to the MMU unit.
; E stands for extruder number, F stands for filament type (0: default; 1:flex; 2: PVA)
M403 E0 F0
M403 E1 F0
M403 E2 F0
M403 E3 F0
M403 E4 F0


;go outside print area
G1 Y-3 F1000
G1 Z0.4 F1000
; select extruder
T0
; initial load
G1 X55 E29 F1073
G1 X5 E29 F1800
G1 X55 E8 F2000
G1 Z0.3 F1000
G92 E0
G1 X240 E25 F2200
G1 Y-2 F1000
M73 P1 R11
M73 Q1 S11
G1 X55 E25 F1400
G1 Z0.2 F1000
M73 P2 R11
M73 Q2 S11
G1 X5 E4 F1000
G92 E0


M221 S95
G92 E0

; Don't change E values below. Excessive value can damage the printer.
M907 E430 ; set extruder motor current
G21 ; set units to millimeters
G90 ; use absolute coordinates
M83 ; use relative distances for extrusion

M900 K0.05 ; Filament gcode LA 1.5
M900 K30 ; Filament gcode LA 1.0




M107
;LAYER_CHANGE
;Z:0.2
;HEIGHT:0.2
G1 E-.8 F2100
M73 P3 R11
M73 Q3 S11
G1 Z.6 F720
G1 X93.666 Y51.851 F10800
G1 Z.2 F720
G1 E.8 F2100
M204 S800
;TYPE:Skirt/Brim
;WIDTH:0.42
G1 F1200
G1 X96.653 Y48.863 E.13247
G1 X98.201 Y48.222 E.05253
G1 X131.026 Y48.222 E1.0292
G1 X132.573 Y48.863 E.0525
G1 X135.561 Y51.851 E.13249
G1 X136.202 Y53.398 E.0525
G1 X136.202 Y86.223 E1.0292
G1 X135.561 Y87.771 E.05253
M73 P4 R10
M73 Q4 S11
G1 X132.573 Y90.758 E.13247
G1 X131.026 Y91.399 E.0525
G1 X98.201 Y91.399 E1.0292
G1 X96.653 Y90.758 E.05253
M73 Q4 S10
G1 X93.666 Y87.771 E.13245
G1 X93.025 Y86.223 E.05253
G1 X93.025 Y53.398 E1.0292
G1 X93.643 Y51.906 E.05063
M204 S1000
;WIPE_START
G1 F8640
G1 X93.666 Y51.851 E-.01377
G1 X96.073 Y49.443 E-.78623
;WIPE_END
G1 Z.6 F720
G1 X96 Y53.42 F10800
G1 Z.2 F720
G1 E.8 F2100
M204 S800
G1 F1200
G1 X96.738 Y52.27 E.04284
G1 X97.918 Y51.308 E.04774
G1 X99.867 Y50.697 E.06404
G1 X129.303 Y50.701 E.92295
G1 X130.323 Y50.895 E.03255
G1 X131.301 Y51.31 E.03331
G1 X132.426 Y52.206 E.04509
G1 X133.318 Y53.544 E.05042
G1 X133.727 Y55.09 E.05014
M73 Q5 S10
G1 X133.727 Y84.531 E.9231
G1 X133.346 Y86.015 E.04804
M73 P5 R10
G1 X132.488 Y87.352 E.04981
G1 X131.309 Y88.313 E.04769
G1 X129.36 Y88.924 E.06404
G1 X99.894 Y88.924 E.92389
G1 X98.409 Y88.544 E.04806
G1 X97.072 Y87.686 E.04981
G1 X96.111 Y86.506 E.04772
G1 X95.5 Y84.557 E.06404
G1 X95.5 Y55.091 E.92389
G1 X95.88 Y53.606 E.04806
G1 X95.968 Y53.47 E.00508
M204 S1000
G1 X95.968 Y53.47 F10800
G1 X96.277 Y53.67
M204 S800
G1 F1200
G1 X97.012 Y52.531 E.0425
G1 X98.111 Y51.633 E.0445
G1 X99.896 Y51.074 E.05865
G1 X129.284 Y51.078 E.92144
G1 X130.231 Y51.261 E.03024
M73 Q6 S10
G1 X131.128 Y51.646 E.03061
M73 P6 R10
G1 X132.167 Y52.482 E.04181
G1 X132.963 Y53.672 E.04489
G1 X133.35 Y55.115 E.04684
G1 X133.35 Y84.506 E.92153
G1 X132.989 Y85.891 E.04488
G1 X132.215 Y87.091 E.04477
G1 X131.665 Y87.6 E.0235
G1 X131.116 Y87.988 E.02108
G1 X129.331 Y88.547 E.05865
G1 X99.918 Y88.547 E.92222
G1 X98.533 Y88.187 E.04487
G1 X97.333 Y87.412 E.04479
G1 X96.824 Y86.863 E.02347
G1 X96.436 Y86.313 E.0211
G1 X95.877 Y84.528 E.05865
G1 X95.877 Y55.115 E.92222
G1 X96.237 Y53.731 E.04484
G1 X96.244 Y53.72 E.00041
M204 S1000
G1 X96.244 Y53.72 F10800
G1 X96.571 Y53.908
M204 S800
G1 F1200
G1 X97.286 Y52.791 E.04158
G1 X98.304 Y51.959 E.04122
G1 X99.924 Y51.451 E.05323
G1 X129.266 Y51.455 E.92
G1 X130.137 Y51.627 E.02784
M73 P7 R10
M73 Q7 S10
G1 X130.953 Y51.982 E.0279
G1 X131.906 Y52.756 E.03849
G1 X132.631 Y53.854 E.04125
G1 X132.973 Y55.139 E.04169
G1 X132.973 Y84.483 E.92006
G1 X132.655 Y85.713 E.03983
G1 X131.94 Y86.831 E.04161
G1 X130.923 Y87.663 E.0412
G1 X129.302 Y88.17 E.05325
G1 X99.942 Y88.17 E.92056
G1 X98.711 Y87.853 E.03986
G1 X97.593 Y87.138 E.04161
G1 X96.761 Y86.12 E.04122
G1 X96.254 Y84.5 E.05322
G1 X96.254 Y55.139 E.92059
G1 X96.556 Y53.966 E.03798
M204 S1000
G1 X96.556 Y53.966 F10800
G1 X96.921 Y54.062
M204 S800
G1 F1200
G1 X96.928 Y54.033 E.00094
G1 X97.56 Y53.051 E.03662
G1 X98.496 Y52.285 E.03792
G1 X99.953 Y51.829 E.04787
G1 X129.246 Y51.832 E.91846
G1 X130.042 Y51.992 E.02546
M73 P8 R10
M73 Q8 S10
G1 X130.777 Y52.316 E.02519
G1 X131.643 Y53.028 E.03515
G1 X132.298 Y54.033 E.03761
G1 X132.596 Y55.163 E.03664
G1 X132.596 Y84.458 E.91852
G1 X132.298 Y85.588 E.03664
G1 X131.667 Y86.571 E.03662
G1 X131.172 Y87.029 E.02114
G1 X130.731 Y87.337 E.01687
G1 X129.274 Y87.793 E.04787
G1 X99.966 Y87.793 E.91893
G1 X98.836 Y87.496 E.03663
G1 X97.854 Y86.864 E.03662
G1 X97.395 Y86.37 E.02114
G1 X97.087 Y85.929 E.01687
G1 X96.631 Y84.471 E.0479
G1 X96.631 Y55.164 E.9189
G1 X96.905 Y54.12 E.03384
M204 S1000
G1 X96.905 Y54.12 F10800
G1 X97.262 Y54.213
M204 S800
G1 F1200
G1 X97.263 Y54.21 E.0001
G1 X97.834 Y53.311 E.03339
G1 X98.687 Y52.611 E.0346
G1 X99.982 Y52.206 E.04254
G1 X129.228 Y52.209 E.91699
G1 X129.909 Y52.346 E.02178
M73 P9 R10
M73 Q9 S10
G1 X130.6 Y52.65 E.02367
G1 X131.38 Y53.299 E.03181
G1 X131.942 Y54.161 E.03226
G1 X132.218 Y55.188 E.03334
G1 X132.218 Y84.434 E.91699
G1 X131.964 Y85.411 E.03165
G1 X131.392 Y86.311 E.03344
G1 X130.54 Y87.011 E.03457
G1 X129.245 Y87.416 E.04254
G1 X99.99 Y87.416 E.91727
G1 X99.013 Y87.162 E.03165
G1 X98.113 Y86.59 E.03344
G1 X97.413 Y85.737 E.0346
G1 X97.008 Y84.443 E.04251
G1 X97.008 Y55.188 E.91727
G1 X97.247 Y54.271 E.02971
M204 S1000
G1 X97.247 Y54.271 F10800
G1 X97.611 Y54.368
M204 S800
G1 F1200
G1 X97.619 Y54.336 E.00103
G1 X98.108 Y53.571 E.02847
G1 X98.877 Y52.938 E.03123
G1 X100.01 Y52.583 E.03723
G1 X129.208 Y52.586 E.91548
G1 X129.812 Y52.711 E.01934
M73 P10 R10
M73 Q10 S10
G1 X130.421 Y52.983 E.02091
G1 X131.114 Y53.568 E.02844
G1 X131.608 Y54.339 E.02871
G1 X131.841 Y55.213 E.02836
G1 X131.841 Y84.409 E.91542
G1 X131.607 Y85.285 E.02843
G1 X131.119 Y86.05 E.02845
G1 X130.68 Y86.457 E.01877
G1 X130.35 Y86.684 E.01256
G1 X129.216 Y87.039 E.03726
G1 X100.015 Y87.039 E.91558
G1 X99.139 Y86.805 E.02843
G1 X98.374 Y86.316 E.02847
G1 X97.967 Y85.877 E.01877
G1 X97.74 Y85.547 E.01256
G1 X97.385 Y84.414 E.03723
G1 X97.385 Y55.213 E.91558
G1 X97.595 Y54.426 E.02554
M204 S1000
G1 X97.958 Y54.526 F10800
M204 S800
G1 F1200
G1 X97.975 Y54.464 E.00202
G1 X98.381 Y53.832 E.02355
G1 X99.066 Y53.265 E.02788
G1 X100.039 Y52.96 E.03197
G1 X129.188 Y52.963 E.91395
G1 X129.712 Y53.075 E.0168
M73 P11 R10
M73 Q11 S10
G1 X130.24 Y53.315 E.01819
G1 X130.848 Y53.836 E.02511
G1 X131.253 Y54.467 E.02351
G1 X131.464 Y55.239 E.02509
G1 X131.464 Y84.383 E.91379
G1 X131.252 Y85.157 E.02516
G1 X130.845 Y85.79 E.0236
G1 X130.161 Y86.357 E.02786
G1 X129.188 Y86.662 E.03197
G1 X100.041 Y86.662 E.91388
G1 X99.267 Y86.449 E.02517
G1 X98.634 Y86.043 E.02358
G1 X98.068 Y85.358 E.02786
G1 X97.762 Y84.385 E.03198
G1 X97.762 Y55.239 E.91385
G1 X97.942 Y54.583 E.02133
M204 S1000
G1 X97.942 Y54.583 F10800
G1 X98.304 Y54.686
M204 S800
G1 F1200
G1 X98.329 Y54.595 E.00296
G1 X98.655 Y54.093 E.01877
G1 X99.253 Y53.593 E.02444
G1 X100.068 Y53.337 E.02678
G1 X129.167 Y53.341 E.91238
G1 X129.61 Y53.438 E.01422
G1 X130.056 Y53.645 E.01542
G1 X130.579 Y54.101 E.02176
G1 X130.898 Y54.597 E.01849
G1 X131.087 Y55.266 E.0218
G1 X131.087 Y84.356 E.9121
G1 X130.897 Y85.026 E.02184
M73 P12 R10
M73 Q12 S10
G1 X130.572 Y85.529 E.01878
G1 X129.974 Y86.028 E.02442
G1 X129.159 Y86.285 E.02679
G1 X100.068 Y86.285 E.91213
G1 X99.398 Y86.095 E.02184
G1 X98.895 Y85.769 E.01879
G1 X98.396 Y85.171 E.02442
G1 X98.139 Y84.356 E.02679
G1 X98.139 Y55.266 E.9121
G1 X98.287 Y54.744 E.01701
M204 S1000
G1 X98.287 Y54.744 F10800
G1 X98.647 Y54.85
M204 S800
G1 F1200
G1 X98.683 Y54.729 E.00396
G1 X98.928 Y54.354 E.01404
G1 X99.438 Y53.923 E.02094
G1 X100.097 Y53.714 E.02168
M73 P12 R9
G1 X129.144 Y53.718 E.91075
G1 X129.869 Y53.973 E.0241
G1 X130.309 Y54.365 E.01848
G1 X130.544 Y54.73 E.01361
G1 X130.71 Y55.294 E.01843
G1 X130.71 Y84.328 E.91034
G1 X130.544 Y84.892 E.01843
M73 P13 R9
M73 Q13 S9
G1 X130.299 Y85.268 E.01407
G1 X129.788 Y85.699 E.02096
G1 X129.13 Y85.908 E.02165
G1 X100.096 Y85.908 E.91034
G1 X99.532 Y85.742 E.01843
G1 X99.156 Y85.496 E.01409
G1 X98.725 Y84.986 E.02094
G1 X98.516 Y84.327 E.02168
G1 X98.516 Y55.294 E.91031
G1 X98.63 Y54.907 E.01265
M204 S1000
G1 X98.63 Y54.907 F10800
G1 X98.988 Y55.018
M204 S800
G1 F1200
G1 X99.034 Y54.868 E.00492
G1 X99.2 Y54.615 E.00949
G1 X99.62 Y54.253 E.01739
G1 X100.127 Y54.091 E.01669
G1 X129.122 Y54.095 E.90912
G1 X129.681 Y54.301 E.01868
G1 X130.036 Y54.626 E.01509
G1 X130.333 Y55.323 E.02376
G1 X130.333 Y84.298 E.90849
G1 X130.192 Y84.754 E.01497
M73 P14 R9
M73 Q14 S9
G1 X130.026 Y85.006 E.00946
G1 X129.606 Y85.368 E.01739
G1 X129.1 Y85.531 E.01667
G1 X100.126 Y85.531 E.90846
G1 X99.67 Y85.39 E.01497
G1 X99.418 Y85.224 E.00946
G1 X99.056 Y84.804 E.01739
G1 X98.893 Y84.297 E.0167
G1 X98.893 Y55.323 E.90846
G1 X98.97 Y55.075 E.00814
M204 S1000
G1 X98.97 Y55.075 F10800
G1 X99.325 Y55.225
M204 S800
G1 F1200
G1 X99.473 Y54.877 E.01186
G1 X99.796 Y54.587 E.01361
G1 X100.157 Y54.468 E.01192
G1 X129.1 Y54.472 E.90749
G1 X129.491 Y54.629 E.01321
G1 X129.76 Y54.883 E.0116
G1 X129.956 Y55.355 E.01602
G1 X129.956 Y84.267 E.90652
G1 X129.754 Y84.745 E.01627
G1 X129.431 Y85.034 E.01359
G1 X129.069 Y85.154 E.01196
G1 X100.157 Y85.154 E.90652
G1 X99.679 Y84.951 E.01628
M73 P15 R9
M73 Q15 S9
G1 X99.39 Y84.628 E.01359
G1 X99.271 Y84.267 E.01192
G1 X99.271 Y55.355 E.90652
G1 X99.302 Y55.28 E.00254
M204 S1000
G1 X99.302 Y55.28 F10800
G1 X99.648 Y55.39
M204 S800
G1 F1200
G1 X99.745 Y55.139 E.00844
G1 X99.979 Y54.921 E.01003
G1 X100.192 Y54.845 E.00709
G1 X129.048 Y54.845 E.90476
G1 X129.479 Y55.136 E.01631
G1 X129.579 Y55.39 E.00856
G1 X129.579 Y84.232 E.90432
G1 X129.481 Y84.483 E.00845
G1 X129.247 Y84.7 E.01001
G1 X129.034 Y84.776 E.00709
G1 X100.192 Y84.776 E.90432
G1 X99.941 Y84.679 E.00844
M73 P16 R9
M73 Q16 S9
G1 X99.724 Y84.445 E.01001
G1 X99.648 Y84.232 E.00709
G1 X99.648 Y55.45 E.90244
M204 S1000
G1 X99.648 Y55.45 F10800
G1 X100.053 Y55.45
M204 S800
G1 F1200
G1 X100.053 Y55.363 E.00273
G1 X100.234 Y55.222 E.00719
G1 X129.061 Y55.251 E.90385
G1 X129.202 Y55.432 E.00719
G1 X129.173 Y84.259 E.90385
G1 X128.992 Y84.399 E.00717
G1 X100.165 Y84.371 E.90385
G1 X100.025 Y84.19 E.00717
G1 X100.053 Y55.51 E.89924
M204 S1000
;WIPE_START
G1 F8640
M73 P17 R9
M73 Q17 S9
G1 X100.053 Y55.45 E-.01385
G1 X100.053 Y55.363 E-.02009
G1 X100.234 Y55.222 E-.05298
G1 X103.322 Y55.225 E-.71308
;WIPE_END
G1 Z.6 F720
; printing object PennyHolderII.stl id:0 copy 0
G1 X123.685 Y64.757 F10800
G1 Z.2 F720
G1 E.8 F2100
M204 S800
;TYPE:Perimeter
;WIDTH:0.419999
G1 F1200
G1 X124.01 Y65.387 E.02223
G1 X124.308 Y66.084 E.02377
G1 X124.554 Y66.801 E.02377
G1 X124.747 Y67.534 E.02377
G1 X124.887 Y68.279 E.02377
G1 X124.971 Y69.033 E.02379
G1 X125 Y69.79 E.02375
G1 X124.974 Y70.548 E.02378
G1 X124.893 Y71.301 E.02375
G1 X124.756 Y72.047 E.02378
G1 X124.566 Y72.781 E.02377
G1 X124.323 Y73.499 E.02377
G1 X124.028 Y74.197 E.02376
G1 X123.682 Y74.872 E.02378
G1 X123.289 Y75.52 E.02376
G1 X122.849 Y76.137 E.02376
G1 X122.365 Y76.721 E.02378
G1 X121.906 Y77.2 E.0208
G1 X121.277 Y77.775 E.02672
G1 X120.677 Y78.239 E.02378
G1 X120.046 Y78.659 E.02377
G1 X119.386 Y79.031 E.02375
G1 X118.7 Y79.354 E.02377
G1 X117.993 Y79.626 E.02375
G1 X117.267 Y79.846 E.02379
G1 X116.527 Y80.012 E.02378
G1 X115.778 Y80.124 E.02375
G1 X115.022 Y80.181 E.02377
G1 X114.264 Y80.183 E.02377
G1 X113.508 Y80.129 E.02376
G1 X112.757 Y80.02 E.02379
G1 X112.017 Y79.857 E.02376
G1 X111.291 Y79.64 E.02376
G1 X110.582 Y79.37 E.02379
G1 X109.895 Y79.05 E.02376
G1 X109.233 Y78.68 E.02378
G1 X108.6 Y78.263 E.02377
G1 X107.999 Y77.801 E.02377
G1 X107.434 Y77.296 E.02376
G1 X106.907 Y76.752 E.02375
G1 X106.515 Y76.283 E.01917
G1 X105.983 Y75.56 E.02814
G1 X105.582 Y74.908 E.024
G1 X105.234 Y74.235 E.02376
G1 X104.936 Y73.537 E.0238
G1 X104.69 Y72.82 E.02377
G1 X104.497 Y72.087 E.02377
G1 X104.358 Y71.342 E.02376
G1 X104.273 Y70.589 E.02376
G1 X104.244 Y69.831 E.02378
G1 X104.27 Y69.074 E.02375
G1 X104.352 Y68.32 E.02378
G1 X104.488 Y67.574 E.02378
G1 X104.678 Y66.841 E.02374
G1 X104.922 Y66.123 E.02378
G1 X105.217 Y65.425 E.02376
G1 X105.562 Y64.75 E.02377
G1 X105.956 Y64.102 E.02378
G1 X106.395 Y63.484 E.02377
G1 X106.785 Y63.014 E.01915
G1 X107.363 Y62.398 E.02649
G1 X107.968 Y61.847 E.02566
G1 X108.567 Y61.383 E.02376
G1 X109.198 Y60.963 E.02377
G1 X109.858 Y60.591 E.02375
G1 X110.544 Y60.268 E.02377
G1 X111.252 Y59.995 E.02379
G1 X111.977 Y59.775 E.02376
G1 X112.573 Y59.641 E.01915
G1 X113.459 Y59.498 E.02814
G1 X114.222 Y59.44 E.02399
G1 X114.981 Y59.439 E.0238
G1 X115.737 Y59.493 E.02376
G1 X116.487 Y59.602 E.02376
G1 X117.227 Y59.765 E.02376
G1 X117.953 Y59.982 E.02376
G1 X118.662 Y60.251 E.02378
G1 X119.349 Y60.572 E.02378
G1 X120.011 Y60.941 E.02376
G1 X120.644 Y61.358 E.02377
G1 X121.245 Y61.821 E.02379
G1 X121.81 Y62.325 E.02374
G1 X122.338 Y62.87 E.02379
G1 X122.729 Y63.338 E.01912
G1 X123.262 Y64.062 E.02819
G1 X123.657 Y64.705 E.02366
M204 S1000
G1 X123.657 Y64.705 F10800
G1 X123.35 Y64.929
M204 S800
;TYPE:External perimeter
G1 F1200
G1 X123.675 Y65.56 E.02225
G1 X123.961 Y66.232 E.0229
G1 X124.197 Y66.923 E.02289
G1 X124.383 Y67.63 E.02292
G1 X124.516 Y68.348 E.0229
G1 X124.596 Y69.074 E.0229
G1 X124.623 Y69.804 E.0229
G1 X124.597 Y70.534 E.0229
G1 X124.518 Y71.26 E.0229
G1 X124.386 Y71.979 E.02292
G1 X124.201 Y72.686 E.02291
G1 X123.966 Y73.377 E.02288
G1 X123.681 Y74.05 E.02292
G1 X123.347 Y74.7 E.02291
G1 X122.967 Y75.323 E.02288
G1 X122.542 Y75.918 E.02293
G1 X122.075 Y76.48 E.02291
G1 X121.634 Y76.938 E.01994
G1 X121.025 Y77.494 E.02586
G1 X120.447 Y77.941 E.02291
G1 X119.838 Y78.344 E.0229
G1 X119.201 Y78.702 E.02291
G1 X118.54 Y79.013 E.0229
G1 X117.858 Y79.274 E.0229
G1 X117.158 Y79.485 E.02292
G1 X116.445 Y79.644 E.0229
G1 X115.723 Y79.751 E.02289
G1 X114.994 Y79.805 E.02292
G1 X114.264 Y79.806 E.02289
G1 X113.535 Y79.753 E.02292
G1 X112.812 Y79.647 E.02291
G1 X112.099 Y79.489 E.0229
G1 X111.399 Y79.279 E.02291
G1 X110.717 Y79.018 E.0229
G1 X110.055 Y78.708 E.02292
G1 X109.418 Y78.351 E.0229
G1 X108.808 Y77.949 E.02291
G1 X108.23 Y77.503 E.02289
G1 X107.686 Y77.015 E.02291
G1 X107.178 Y76.49 E.02291
G1 X106.805 Y76.042 E.01828
G1 X106.286 Y75.337 E.02745
G1 X105.904 Y74.712 E.02297
G1 X105.57 Y74.062 E.02291
G1 X105.283 Y73.39 E.02291
G1 X105.047 Y72.699 E.02289
G1 X104.862 Y71.992 E.02291
G1 X104.729 Y71.274 E.0229
G1 X104.648 Y70.548 E.0229
G1 X104.621 Y69.818 E.0229
G1 X104.647 Y69.088 E.0229
G1 X104.727 Y68.361 E.02293
G1 X104.859 Y67.643 E.02289
G1 X105.043 Y66.936 E.02291
G1 X105.278 Y66.245 E.02288
G1 X105.564 Y65.572 E.02293
G1 X105.897 Y64.922 E.0229
G1 X106.277 Y64.298 E.02291
G1 X106.702 Y63.704 E.0229
G1 X107.075 Y63.255 E.0183
G1 X107.638 Y62.656 E.02577
G1 X108.219 Y62.128 E.02462
G1 X108.797 Y61.681 E.02291
G1 X109.406 Y61.277 E.02291
M73 P18 R9
G1 X110.043 Y60.92 E.0229
G1 X110.704 Y60.609 E.0229
G1 X111.386 Y60.348 E.0229
G1 X112.086 Y60.137 E.02292
M73 Q18 S9
G1 X112.655 Y60.009 E.01829
G1 X113.519 Y59.871 E.02743
G1 X114.25 Y59.817 E.02298
G1 X114.981 Y59.816 E.02292
G1 X115.709 Y59.869 E.02289
G1 X116.432 Y59.975 E.02291
