; generated by PrusaSlicer 2.9.0 on 2024-12-28 at 18:53:17 UTC


;
;
; 

; external perimeters extrusion width = 0.45mm
; perimeters extrusion width = 0.45mm
; infill extrusion width = 0.45mm
; solid infill extrusion width = 0.45mm
; top infill extrusion width = 0.40mm
; first layer extrusion width = 0.42mm

M73 P0 R11
M73 Q0 S11
M201 X1000 Y1000 Z200 E8000 ; sets maximum accelerations, mm/sec^2
M203 X200 Y200 Z12 E120 ; sets maximum feedrates, mm / sec
M204 S1250 T1250 ; sets acceleration (S) and retract acceleration (R), mm/sec^2
M205 X8.00 Y8.00 Z0.40 E4.50 ; sets the jerk limits, mm/sec
M205 S0 T0 ; sets the minimum extruding and travel feed rate, mm/sec

; printing object PennyHolder v1.stl id:0 copy 0
; stop printing object PennyHolder v1.stl id:0 copy 0

;TYPE:Custom
M862.3 P "MK3SMMU3" ; printer model check
M862.1 P0.4 ; nozzle diameter check
M115 U3.14.1 ; tell printer latest fw version
G90 ; use absolute coordinates
M83 ; extruder relative mode
M104 S215 ; set extruder temp
M140 S60 ; set bed temp
M190 S60 ; wait for bed temp
M109 S215 ; wait for extruder temp
G28 W ; home all without mesh bed level
G80 X103.223 Y83.2229 W43.5542 H43.5542 ; mesh bed levelling

; Send the filament type to the MMU unit.
; E stands for extruder number, F stands for filament type (0: default; 1:flex; 2: PVA)
M403 E0 F0
M403 E1 F0
M403 E2 F0
M403 E3 F0
M403 E4 F0


;go outside print area
G1 Y-3 F1000
G1 Z0.4 F1000
; select extruder
T0
; initial load
G1 X55 E29 F1073
G1 X5 E29 F1800
G1 X55 E8 F2000
G1 Z0.3 F1000
G92 E0
G1 X240 E25 F2200
G1 Y-2 F1000
M73 P1 R11
M73 Q1 S11
G1 X55 E25 F1400
G1 Z0.2 F1000
M73 P2 R11
M73 Q2 S11
G1 X5 E4 F1000
G92 E0


M221 S95
G92 E0

; Don't change E values below. Excessive value can damage the printer.
M907 E430 ; set extruder motor current
G21 ; set units to millimeters
G90 ; use absolute coordinates
M83 ; use relative distances for extrusion

M900 K0.05 ; Filament gcode LA 1.5
M900 K30 ; Filament gcode LA 1.0




M107
;LAYER_CHANGE
;Z:0.2
;HEIGHT:0.2
G1 E-.8 F2100
M73 P3 R11
M73 Q3 S11
G1 Z.6 F720
G1 X104.052 Y87.04 F10800
G1 Z.2 F720
G1 E.8 F2100
M204 S800
;TYPE:Skirt/Brim
;WIDTH:0.42
G1 F1200
G1 X107.04 Y84.052 E.13249
G1 X108.588 Y83.411 E.05253
G1 X141.412 Y83.411 E1.02917
G1 X142.96 Y84.052 E.05253
G1 X145.948 Y87.04 E.13249
G1 X146.589 Y88.588 E.05253
G1 X146.589 Y121.412 E1.02917
G1 X145.948 Y122.96 E.05253
M73 P4 R11
M73 Q4 S11
G1 X142.96 Y125.948 E.13249
G1 X141.412 Y126.589 E.05253
G1 X108.588 Y126.589 E1.02917
G1 X107.04 Y125.948 E.05253
G1 X104.052 Y122.96 E.13249
G1 X103.411 Y121.412 E.05253
G1 X103.411 Y88.588 E1.02917
G1 X104.03 Y87.095 E.05068
M73 P4 R10
M204 S1000
;WIPE_START
G1 F8640
G1 X104.052 Y87.04 E-.01368
G1 X106.46 Y84.632 E-.78632
;WIPE_END
G1 Z.6 F720
G1 X106.387 Y88.609 F10800
G1 Z.2 F720
G1 E.8 F2100
M204 S800
G1 F1200
G1 X107.125 Y87.459 E.04284
G1 X108.304 Y86.498 E.04769
G1 X110.254 Y85.886 E.06408
G1 X139.689 Y85.89 E.92291
G1 X140.71 Y86.084 E.03259
M73 Q4 S10
G1 X141.688 Y86.5 E.03332
G1 X142.812 Y87.396 E.04507
G1 X143.705 Y88.734 E.05044
G1 X144.113 Y90.279 E.0501
G1 X144.113 Y119.72 E.9231
M73 Q5 S10
G1 X143.733 Y121.205 E.04806
M73 P5 R10
G1 X142.875 Y122.541 E.04978
G1 X141.696 Y123.502 E.04769
G1 X139.746 Y124.113 E.06407
G1 X110.28 Y124.113 E.92389
G1 X108.795 Y123.733 E.04806
G1 X107.459 Y122.875 E.04978
G1 X106.498 Y121.696 E.04769
G1 X105.887 Y119.746 E.06407
G1 X105.887 Y90.28 E.92389
G1 X106.267 Y88.795 E.04806
G1 X106.354 Y88.659 E.00506
M204 S1000
G1 X106.354 Y88.659 F10800
G1 X106.664 Y88.859
M204 S800
G1 F1200
G1 X107.399 Y87.72 E.0425
G1 X108.498 Y86.823 E.04448
G1 X110.283 Y86.264 E.05865
G1 X139.671 Y86.267 E.92144
G1 X140.617 Y86.45 E.03021
G1 X141.515 Y86.836 E.03065
M73 Q6 S10
G1 X142.553 Y87.671 E.04177
G1 X143.349 Y88.862 E.04492
M73 P6 R10
G1 X143.736 Y90.304 E.04681
G1 X143.736 Y119.695 E.92153
G1 X143.376 Y121.08 E.04487
G1 X142.601 Y122.28 E.04479
G1 X142.052 Y122.789 E.02347
G1 X141.502 Y123.177 E.0211
G1 X139.718 Y123.736 E.05862
G1 X110.305 Y123.736 E.92222
G1 X108.92 Y123.376 E.04487
G1 X107.72 Y122.601 E.04479
G1 X107.211 Y122.052 E.02347
G1 X106.823 Y121.502 E.0211
G1 X106.264 Y119.718 E.05862
G1 X106.264 Y90.305 E.92222
G1 X106.624 Y88.92 E.04487
G1 X106.631 Y88.909 E.00041
M204 S1000
G1 X106.631 Y88.909 F10800
G1 X106.958 Y89.097
M204 S800
G1 F1200
G1 X107.673 Y87.98 E.04158
G1 X108.69 Y87.148 E.0412
G1 X110.311 Y86.641 E.05325
G1 X139.652 Y86.644 E.91997
G1 X140.524 Y86.816 E.02787
M73 P7 R10
M73 Q7 S10
G1 X141.34 Y87.171 E.0279
G1 X142.293 Y87.945 E.03849
G1 X143.017 Y89.043 E.04124
G1 X143.359 Y90.328 E.04169
G1 X143.359 Y119.672 E.92006
G1 X143.042 Y120.903 E.03986
G1 X142.327 Y122.02 E.04158
G1 X141.31 Y122.852 E.0412
G1 X139.689 Y123.359 E.05325
G1 X110.328 Y123.359 E.92059
G1 X109.097 Y123.042 E.03986
G1 X107.98 Y122.327 E.04158
G1 X107.148 Y121.31 E.0412
G1 X106.641 Y119.689 E.05325
G1 X106.641 Y90.328 E.92059
G1 X106.943 Y89.156 E.03795
M204 S1000
G1 X106.943 Y89.156 F10800
G1 X107.307 Y89.251
M204 S800
G1 F1200
G1 X107.315 Y89.223 E.00091
G1 X107.946 Y88.24 E.03662
G1 X108.882 Y87.474 E.03792
G1 X110.34 Y87.018 E.0479
G1 X139.633 Y87.021 E.91846
G1 X140.429 Y87.181 E.02546
M73 P8 R10
M73 Q8 S10
G1 X141.164 Y87.505 E.02519
G1 X142.03 Y88.217 E.03515
G1 X142.685 Y89.223 E.03764
G1 X142.982 Y90.352 E.0366
G1 X142.982 Y119.647 E.91852
G1 X142.685 Y120.777 E.03663
G1 X142.054 Y121.76 E.03662
G1 X141.559 Y122.218 E.02114
G1 X141.118 Y122.526 E.01687
G1 X139.66 Y122.982 E.0479
G1 X110.353 Y122.982 E.9189
G1 X109.223 Y122.685 E.03663
G1 X108.24 Y122.054 E.03662
G1 X107.782 Y121.559 E.02114
G1 X107.474 Y121.118 E.01687
G1 X107.018 Y119.66 E.0479
G1 X107.018 Y90.353 E.9189
G1 X107.292 Y89.309 E.03384
M204 S1000
G1 X107.292 Y89.309 F10800
G1 X107.649 Y89.402
M204 S800
G1 F1200
G1 X107.649 Y89.399 E.00009
G1 X108.221 Y88.5 E.03341
G1 X109.073 Y87.8 E.03457
G1 X110.368 Y87.395 E.04254
G1 X139.615 Y87.398 E.91702
G1 X140.296 Y87.535 E.02178
M73 P9 R10
M73 Q9 S10
G1 X140.987 Y87.839 E.02367
G1 X141.767 Y88.488 E.03181
G1 X142.329 Y89.35 E.03226
G1 X142.605 Y90.378 E.03337
G1 X142.605 Y119.623 E.91696
G1 X142.351 Y120.601 E.03168
G1 X141.779 Y121.5 E.03341
G1 X140.927 Y122.2 E.03457
G1 X139.632 Y122.605 E.04254
G1 X110.377 Y122.605 E.91727
G1 X109.399 Y122.351 E.03168
G1 X108.5 Y121.779 E.03341
G1 X107.8 Y120.927 E.03457
G1 X107.395 Y119.632 E.04254
G1 X107.395 Y90.377 E.91727
G1 X107.633 Y89.46 E.0297
M204 S1000
G1 X107.633 Y89.46 F10800
G1 X107.997 Y89.557
M204 S800
G1 F1200
G1 X108.006 Y89.525 E.00104
G1 X108.495 Y88.76 E.02847
G1 X109.263 Y88.127 E.03121
G1 X110.397 Y87.772 E.03726
G1 X139.595 Y87.776 E.91548
G1 X140.199 Y87.9 E.01933
M73 Q10 S10
G1 X140.808 Y88.172 E.02091
M73 P10 R10
G1 X141.501 Y88.757 E.02844
G1 X141.995 Y89.528 E.02871
G1 X142.228 Y90.402 E.02836
G1 X142.228 Y119.598 E.91542
G1 X141.994 Y120.475 E.02846
G1 X141.505 Y121.24 E.02847
G1 X141.067 Y121.646 E.01873
G1 X140.737 Y121.873 E.01256
G1 X139.603 Y122.228 E.03726
G1 X110.402 Y122.228 E.91558
G1 X109.525 Y121.994 E.02846
G1 X108.76 Y121.505 E.02847
G1 X108.354 Y121.067 E.01873
G1 X108.127 Y120.737 E.01256
G1 X107.772 Y119.603 E.03726
G1 X107.772 Y90.402 E.91558
G1 X107.982 Y89.615 E.02554
M204 S1000
G1 X107.982 Y89.615 F10800
G1 X108.345 Y89.715
M204 S800
G1 F1200
G1 X108.361 Y89.654 E.00198
G1 X108.768 Y89.021 E.0236
G1 X109.452 Y88.454 E.02786
G1 X110.426 Y88.149 E.032
G1 X139.575 Y88.153 E.91395
G1 X140.099 Y88.264 E.01679
G1 X140.627 Y88.504 E.01819
G1 X141.234 Y89.025 E.02508
G1 X141.639 Y89.656 E.02351
G1 X141.851 Y90.428 E.0251
G1 X141.851 Y119.572 E.91379
G1 X141.639 Y120.346 E.02516
M73 P11 R10
M73 Q11 S10
G1 X141.232 Y120.979 E.0236
G1 X140.548 Y121.546 E.02786
G1 X139.574 Y121.851 E.032
G1 X110.428 Y121.851 E.91385
G1 X109.654 Y121.639 E.02516
G1 X109.021 Y121.232 E.0236
G1 X108.454 Y120.548 E.02786
G1 X108.149 Y119.574 E.032
G1 X108.149 Y90.428 E.91385
G1 X108.329 Y89.773 E.0213
M204 S1000
G1 X108.329 Y89.773 F10800
G1 X108.69 Y89.875
M204 S800
G1 F1200
G1 X108.716 Y89.785 E.00294
G1 X109.041 Y89.282 E.01878
G1 X109.64 Y88.782 E.02446
G1 X110.455 Y88.526 E.02678
G1 X139.553 Y88.53 E.91235
G1 X139.997 Y88.627 E.01425
G1 X140.443 Y88.834 E.01542
G1 X140.966 Y89.291 E.02178
G1 X141.285 Y89.786 E.01846
G1 X141.474 Y90.455 E.0218
G1 X141.474 Y119.545 E.9121
G1 X141.284 Y120.215 E.02184
M73 P12 R10
M73 Q12 S10
G1 X140.959 Y120.718 E.01878
G1 X140.36 Y121.218 E.02446
G1 X139.545 Y121.474 E.02678
G1 X110.455 Y121.474 E.9121
G1 X109.785 Y121.284 E.02184
G1 X109.282 Y120.959 E.01878
G1 X108.782 Y120.36 E.02446
G1 X108.526 Y119.545 E.02678
G1 X108.526 Y90.455 E.9121
G1 X108.674 Y89.933 E.01701
M204 S1000
G1 X108.674 Y89.933 F10800
G1 X109.034 Y90.039
M204 S800
G1 F1200
G1 X109.069 Y89.919 E.00392
G1 X109.314 Y89.543 E.01407
G1 X109.825 Y89.112 E.02096
G1 X110.484 Y88.903 E.02168
G1 X139.531 Y88.907 E.91075
G1 X140.256 Y89.162 E.0241
G1 X140.696 Y89.554 E.01848
G1 X140.931 Y89.92 E.01364
G1 X141.097 Y90.483 E.0184
G1 X141.097 Y119.517 E.91034
G1 X140.931 Y120.081 E.01843
M73 P13 R10
M73 Q13 S10
G1 X140.686 Y120.457 E.01407
G1 X140.175 Y120.888 E.02096
G1 X139.516 Y121.097 E.02168
G1 X110.483 Y121.097 E.91031
G1 X109.919 Y120.931 E.01843
M73 P13 R9
G1 X109.543 Y120.686 E.01407
G1 X109.112 Y120.175 E.02096
G1 X108.903 Y119.516 E.02168
G1 X108.903 Y90.483 E.91031
G1 X109.017 Y90.096 E.01265
M73 Q13 S9
M204 S1000
G1 X109.017 Y90.096 F10800
G1 X109.375 Y90.207
M204 S800
G1 F1200
G1 X109.421 Y90.057 E.00492
G1 X109.587 Y89.804 E.00949
G1 X110.007 Y89.443 E.01736
G1 X110.513 Y89.28 E.01667
G1 X139.509 Y89.284 E.90915
G1 X140.068 Y89.491 E.01869
G1 X140.423 Y89.815 E.01507
G1 X140.72 Y90.512 E.02376
G1 X140.72 Y119.488 E.90852
G1 X140.579 Y119.943 E.01494
G1 X140.413 Y120.196 E.00949
G1 X139.993 Y120.557 E.01736
G1 X139.487 Y120.72 E.01667
G1 X110.512 Y120.72 E.90849
G1 X110.057 Y120.579 E.01494
M73 P14 R9
M73 Q14 S9
G1 X109.804 Y120.413 E.00949
G1 X109.443 Y119.993 E.01736
G1 X109.28 Y119.487 E.01667
G1 X109.28 Y90.512 E.90849
G1 X109.357 Y90.264 E.00814
M204 S1000
G1 X109.357 Y90.264 F10800
G1 X109.712 Y90.414
M204 S800
G1 F1200
G1 X109.86 Y90.066 E.01186
G1 X110.183 Y89.776 E.01361
G1 X110.544 Y89.657 E.01192
G1 X139.487 Y89.661 E.90749
G1 X139.878 Y89.818 E.01321
G1 X140.147 Y90.073 E.01162
G1 X140.343 Y90.544 E.016
G1 X140.343 Y119.456 E.90652
G1 X140.14 Y119.934 E.01628
G1 X139.817 Y120.224 E.01361
G1 X139.456 Y120.343 E.01192
G1 X110.544 Y120.343 E.90652
G1 X110.066 Y120.14 E.01628
M73 P15 R9
M73 Q15 S9
G1 X109.776 Y119.817 E.01361
G1 X109.657 Y119.456 E.01192
G1 X109.657 Y90.544 E.90652
G1 X109.689 Y90.47 E.00253
M204 S1000
G1 X109.689 Y90.47 F10800
G1 X110.034 Y90.579
M204 S800
G1 F1200
G1 X110.132 Y90.328 E.00845
G1 X110.366 Y90.111 E.01001
G1 X110.579 Y90.034 E.0071
G1 X139.435 Y90.034 E.90476
G1 X139.866 Y90.325 E.01631
G1 X139.966 Y90.579 E.00856
G1 X139.966 Y119.421 E.90432
G1 X139.868 Y119.672 E.00845
G1 X139.634 Y119.889 E.01001
G1 X139.421 Y119.966 E.0071
G1 X110.579 Y119.966 E.90432
G1 X110.328 Y119.868 E.00845
G1 X110.111 Y119.634 E.01001
G1 X110.034 Y119.421 E.0071
G1 X110.034 Y90.639 E.90244
M204 S1000
G1 X110.034 Y90.639 F10800
M73 P16 R9
M73 Q16 S9
G1 X110.44 Y90.64
M204 S800
G1 F1200
G1 X110.44 Y90.552 E.00276
G1 X110.621 Y90.411 E.00719
G1 X139.448 Y90.44 E.90385
G1 X139.589 Y90.621 E.00719
G1 X139.56 Y119.448 E.90385
G1 X139.379 Y119.589 E.00719
G1 X110.552 Y119.56 E.90385
G1 X110.411 Y119.379 E.00719
G1 X110.44 Y90.7 E.89921
M204 S1000
;WIPE_START
G1 F8640
M73 P17 R9
M73 Q17 S9
G1 X110.44 Y90.64 E-.01385
G1 X110.44 Y90.552 E-.02032
G1 X110.621 Y90.411 E-.05298
G1 X113.708 Y90.414 E-.71285
;WIPE_END
G1 Z.6 F720
; printing object PennyHolder v1.stl id:0 copy 0
G1 X115.661 Y109.371 F10800
G1 Z.2 F720
G1 E.8 F2100
M204 S800
;TYPE:Perimeter
;WIDTH:0.419999
G1 F1200
G1 X115.419 Y108.816 E.01898
G1 X115.199 Y108.206 E.02033
G1 X115.017 Y107.584 E.02032
G1 X114.874 Y106.951 E.02035
G1 X114.772 Y106.311 E.02032
G1 X114.711 Y105.681 E.01985
G1 X114.688 Y105.019 E.02077
G1 X114.707 Y104.37 E.02036
G1 X114.767 Y103.724 E.02034
G1 X114.868 Y103.084 E.02032
G1 X115.008 Y102.451 E.02033
G1 X115.188 Y101.828 E.02033
G1 X115.406 Y101.217 E.02034
G1 X115.663 Y100.622 E.02032
G1 X115.949 Y100.057 E.01986
G1 X116.285 Y99.486 E.02077
G1 X116.649 Y98.948 E.02037
G1 X117.045 Y98.435 E.02032
G1 X117.473 Y97.948 E.02033
G1 X117.931 Y97.489 E.02033
G1 X118.417 Y97.059 E.02035
G1 X118.928 Y96.661 E.02031
G1 X119.464 Y96.295 E.02035
G1 X120.021 Y95.964 E.02032
G1 X120.598 Y95.669 E.02032
G1 X121.193 Y95.411 E.02033
G1 X121.803 Y95.19 E.02034
G1 X122.425 Y95.008 E.02032
G1 X123.057 Y94.865 E.02032
G1 X123.698 Y94.763 E.02035
G1 X124.343 Y94.701 E.02032
G1 X124.976 Y94.68 E.01986
G1 X125.638 Y94.699 E.02077
G1 X126.285 Y94.758 E.02037
G1 X126.925 Y94.859 E.02032
G1 X127.558 Y94.999 E.02033
G1 X128.181 Y95.179 E.02033
G1 X128.792 Y95.398 E.02035
G1 X129.387 Y95.654 E.02031
G1 X129.965 Y95.947 E.02032
G1 X130.524 Y96.276 E.02034
G1 X131.061 Y96.64 E.02034
G1 X131.574 Y97.036 E.02032
G1 X132.061 Y97.464 E.02033
G1 X132.52 Y97.922 E.02033
G1 X132.95 Y98.408 E.02035
G1 X133.348 Y98.919 E.02031
G1 X133.713 Y99.455 E.02033
G1 X134.044 Y100.012 E.02032
G1 X134.34 Y100.59 E.02036
G1 X134.598 Y101.184 E.02031
G1 X134.819 Y101.794 E.02034
G1 X135.001 Y102.416 E.02032
G1 X135.143 Y103.049 E.02034
G1 X135.246 Y103.689 E.02032
G1 X135.307 Y104.319 E.01985
G1 X135.33 Y104.981 E.02077
G1 X135.31 Y105.63 E.02036
G1 X135.25 Y106.276 E.02034
G1 X135.15 Y106.916 E.02031
G1 X135.01 Y107.549 E.02033
G1 X134.83 Y108.172 E.02033
G1 X134.611 Y108.783 E.02035
G1 X134.355 Y109.378 E.02031
G1 X134.068 Y109.943 E.01987
G1 X133.733 Y110.514 E.02076
G1 X133.369 Y111.052 E.02037
G1 X132.972 Y111.565 E.02034
G1 X132.544 Y112.052 E.02033
G1 X132.098 Y112.501 E.01984
G1 X131.602 Y112.94 E.02077
G1 X131.09 Y113.339 E.02035
G1 X130.554 Y113.705 E.02035
G1 X129.996 Y114.036 E.02034
G1 X129.419 Y114.331 E.02032
G1 X128.825 Y114.589 E.02031
G1 X128.215 Y114.81 E.02034
G1 X127.593 Y114.992 E.02032
G1 X126.96 Y115.135 E.02035
G1 X126.32 Y115.237 E.02032
G1 X125.675 Y115.299 E.02032
G1 X125.027 Y115.321 E.02033
G1 X124.379 Y115.301 E.02033
G1 X123.748 Y115.243 E.01987
G1 X123.093 Y115.141 E.02078
G1 X122.459 Y115.001 E.02036
G1 X121.836 Y114.821 E.02033
G1 X121.226 Y114.602 E.02032
G1 X120.631 Y114.346 E.02031
G1 X120.052 Y114.053 E.02035
G1 X119.494 Y113.724 E.02031
G1 X118.957 Y113.36 E.02034
G1 X118.444 Y112.964 E.02032
G1 X117.957 Y112.536 E.02033
G1 X117.508 Y112.089 E.01987
G1 X117.069 Y111.593 E.02077
G1 X116.67 Y111.081 E.02035
G1 X116.304 Y110.545 E.02035
G1 X115.973 Y109.988 E.02032
G1 X115.686 Y109.426 E.01979
M204 S1000
G1 X116.006 Y109.222 F10800
M204 S800
;TYPE:External perimeter
G1 F1200
G1 X115.766 Y108.666 E.01899
G1 X115.554 Y108.078 E.0196
G1 X115.379 Y107.479 E.01957
G1 X115.242 Y106.869 E.0196
G1 X115.144 Y106.252 E.01959
G1 X115.086 Y105.645 E.01912
G1 X115.065 Y105.006 E.02005
G1 X115.084 Y104.382 E.01957
G1 X115.143 Y103.76 E.01959
G1 X115.24 Y103.143 E.01958
G1 X115.376 Y102.533 E.0196
G1 X115.55 Y101.933 E.01959
G1 X115.761 Y101.345 E.01959
G1 X116.009 Y100.771 E.01961
G1 X116.285 Y100.228 E.0191
G1 X116.61 Y99.677 E.02006
G1 X116.961 Y99.16 E.01959
G1 X117.343 Y98.666 E.01958
G1 X117.756 Y98.197 E.01959
G1 X118.198 Y97.755 E.0196
G1 X118.666 Y97.342 E.01957
G1 X119.159 Y96.959 E.01957
G1 X119.676 Y96.607 E.01961
G1 X120.213 Y96.289 E.01957
G1 X120.77 Y96.005 E.0196
G1 X121.343 Y95.757 E.01958
G1 X121.93 Y95.545 E.01957
G1 X122.53 Y95.37 E.0196
G1 X123.14 Y95.233 E.0196
G1 X123.757 Y95.135 E.01959
G1 X124.379 Y95.076 E.01959
G1 X124.988 Y95.057 E.0191
G1 X125.627 Y95.075 E.02004
G1 X126.249 Y95.134 E.01959
G1 X126.866 Y95.231 E.01958
G1 X127.476 Y95.367 E.0196
G1 X128.076 Y95.541 E.01959
G1 X128.664 Y95.752 E.01959
G1 X129.237 Y96 E.01958
G1 X129.794 Y96.283 E.01959
G1 X130.332 Y96.601 E.01959
G1 X130.849 Y96.952 E.01959
G1 X131.343 Y97.334 E.01958
G1 X131.812 Y97.747 E.01959
G1 X132.254 Y98.189 E.0196
G1 X132.667 Y98.657 E.01957
G1 X133.05 Y99.15 E.01957
