; generated by PrusaSlicer 2.9.0 on 2024-12-29 at 18:23:23 UTC


;
;
; 

; external perimeters extrusion width = 0.45mm
; perimeters extrusion width = 0.45mm
; infill extrusion width = 0.45mm
; solid infill extrusion width = 0.45mm
; top infill extrusion width = 0.40mm
; first layer extrusion width = 0.42mm

M73 P0 R11
M73 Q0 S11
M201 X1000 Y1000 Z200 E8000 ; sets maximum accelerations, mm/sec^2
M203 X200 Y200 Z12 E120 ; sets maximum feedrates, mm / sec
M204 S1250 T1250 ; sets acceleration (S) and retract acceleration (R), mm/sec^2
M205 X8.00 Y8.00 Z0.40 E4.50 ; sets the jerk limits, mm/sec
M205 S0 T0 ; sets the minimum extruding and travel feed rate, mm/sec

; printing object PennyHolderII v3.stl id:0 copy 0
; stop printing object PennyHolderII v3.stl id:0 copy 0

;TYPE:Custom
M862.3 P "MK3SMMU3" ; printer model check
M862.1 P0.4 ; nozzle diameter check
M115 U3.14.1 ; tell printer latest fw version
G90 ; use absolute coordinates
M83 ; extruder relative mode
M104 S215 ; set extruder temp
M140 S60 ; set bed temp
M190 S60 ; wait for bed temp
M109 S215 ; wait for extruder temp
G28 W ; home all without mesh bed level
G80 X103.223 Y83.2229 W43.5542 H43.5542 ; mesh bed levelling

; Send the filament type to the MMU unit.
; E stands for extruder number, F stands for filament type (0: default; 1:flex; 2: PVA)
M403 E0 F0
M403 E1 F0
M403 E2 F0
M403 E3 F0
M403 E4 F0


;go outside print area
G1 Y-3 F1000
G1 Z0.4 F1000
; select extruder
T0
; initial load
G1 X55 E29 F1073
G1 X5 E29 F1800
G1 X55 E8 F2000
G1 Z0.3 F1000
G92 E0
G1 X240 E25 F2200
G1 Y-2 F1000
M73 P1 R11
M73 Q1 S11
G1 X55 E25 F1400
G1 Z0.2 F1000
M73 P2 R11
M73 Q2 S11
G1 X5 E4 F1000
G92 E0


M221 S95
G92 E0

; Don't change E values below. Excessive value can damage the printer.
M907 E430 ; set extruder motor current
G21 ; set units to millimeters
G90 ; use absolute coordinates
M83 ; use relative distances for extrusion

M900 K0.05 ; Filament gcode LA 1.5
M900 K30 ; Filament gcode LA 1.0




M107
;LAYER_CHANGE
;Z:0.2
;HEIGHT:0.2
G1 E-.8 F2100
M73 P3 R11
M73 Q3 S11
G1 Z.6 F720
G1 X104.052 Y87.04 F10800
G1 Z.2 F720
G1 E.8 F2100
M204 S800
;TYPE:Skirt/Brim
;WIDTH:0.42
G1 F1200
G1 X107.04 Y84.052 E.13249
G1 X108.588 Y83.411 E.05253
G1 X141.412 Y83.411 E1.02917
G1 X142.96 Y84.052 E.05253
G1 X145.948 Y87.04 E.13249
G1 X146.589 Y88.588 E.05253
G1 X146.589 Y121.412 E1.02917
G1 X145.948 Y122.96 E.05253
G1 X142.96 Y125.948 E.13249
G1 X141.412 Y126.589 E.05253
G1 X108.588 Y126.589 E1.02917
M73 Q4 S11
G1 X107.04 Y125.948 E.05253
M73 P4 R11
G1 X104.052 Y122.96 E.13249
G1 X103.411 Y121.412 E.05253
G1 X103.411 Y88.588 E1.02917
G1 X104.03 Y87.095 E.05068
M204 S1000
;WIPE_START
G1 F8640
G1 X104.052 Y87.04 E-.01368
G1 X106.46 Y84.632 E-.78632
;WIPE_END
G1 Z.6 F720
G1 X106.387 Y88.609 F10800
G1 Z.2 F720
G1 E.8 F2100
M204 S800
G1 F1200
G1 X107.125 Y87.459 E.04284
G1 X108.304 Y86.498 E.04769
G1 X110.254 Y85.886 E.06408
G1 X139.689 Y85.89 E.92291
G1 X140.71 Y86.084 E.03259
G1 X141.688 Y86.5 E.03332
G1 X142.812 Y87.396 E.04507
G1 X143.705 Y88.734 E.05044
G1 X144.113 Y90.279 E.0501
G1 X144.113 Y119.72 E.9231
G1 X143.733 Y121.205 E.04806
M73 P5 R11
M73 Q5 S11
G1 X142.875 Y122.541 E.04978
G1 X141.696 Y123.502 E.04769
G1 X139.746 Y124.113 E.06407
G1 X110.28 Y124.113 E.92389
G1 X108.795 Y123.733 E.04806
G1 X107.459 Y122.875 E.04978
G1 X106.498 Y121.696 E.04769
G1 X105.887 Y119.746 E.06407
G1 X105.887 Y90.28 E.92389
G1 X106.267 Y88.795 E.04806
G1 X106.354 Y88.659 E.00506
M204 S1000
G1 X106.354 Y88.659 F10800
G1 X106.664 Y88.859
M204 S800
G1 F1200
G1 X107.399 Y87.72 E.0425
G1 X108.498 Y86.823 E.04448
G1 X110.283 Y86.264 E.05865
G1 X139.671 Y86.267 E.92144
G1 X140.617 Y86.45 E.03021
G1 X141.515 Y86.836 E.03065
G1 X142.553 Y87.671 E.04177
G1 X143.349 Y88.862 E.04492
G1 X143.736 Y90.304 E.04681
G1 X143.736 Y119.695 E.92153
G1 X143.376 Y121.08 E.04487
M73 P6 R11
M73 Q6 S11
G1 X142.601 Y122.28 E.04479
G1 X142.052 Y122.789 E.02347
G1 X141.502 Y123.177 E.0211
G1 X139.718 Y123.736 E.05862
G1 X110.305 Y123.736 E.92222
G1 X108.92 Y123.376 E.04487
G1 X107.72 Y122.601 E.04479
G1 X107.211 Y122.052 E.02347
G1 X106.823 Y121.502 E.0211
G1 X106.264 Y119.718 E.05862
G1 X106.264 Y90.305 E.92222
G1 X106.624 Y88.92 E.04487
G1 X106.631 Y88.909 E.00041
M204 S1000
G1 X106.631 Y88.909 F10800
G1 X106.958 Y89.097
M204 S800
G1 F1200
G1 X107.673 Y87.98 E.04158
G1 X108.69 Y87.148 E.0412
G1 X110.311 Y86.641 E.05325
G1 X139.652 Y86.644 E.91997
G1 X140.524 Y86.816 E.02787
M73 P6 R10
G1 X141.34 Y87.171 E.0279
G1 X142.293 Y87.945 E.03849
G1 X143.017 Y89.043 E.04124
G1 X143.359 Y90.328 E.04169
G1 X143.359 Y119.672 E.92006
G1 X143.042 Y120.903 E.03986
M73 P7 R10
M73 Q7 S10
G1 X142.327 Y122.02 E.04158
G1 X141.31 Y122.852 E.0412
G1 X139.689 Y123.359 E.05325
G1 X110.328 Y123.359 E.92059
G1 X109.097 Y123.042 E.03986
G1 X107.98 Y122.327 E.04158
G1 X107.148 Y121.31 E.0412
G1 X106.641 Y119.689 E.05325
G1 X106.641 Y90.328 E.92059
G1 X106.943 Y89.156 E.03795
M204 S1000
G1 X106.943 Y89.156 F10800
G1 X107.307 Y89.251
M204 S800
G1 F1200
G1 X107.315 Y89.223 E.00091
G1 X107.946 Y88.24 E.03662
G1 X108.882 Y87.474 E.03792
G1 X110.34 Y87.018 E.0479
G1 X139.633 Y87.021 E.91846
G1 X140.429 Y87.181 E.02546
G1 X141.164 Y87.505 E.02519
G1 X142.03 Y88.217 E.03515
G1 X142.685 Y89.223 E.03764
G1 X142.982 Y90.352 E.0366
G1 X142.982 Y119.647 E.91852
G1 X142.685 Y120.777 E.03663
M73 P8 R10
M73 Q8 S10
G1 X142.054 Y121.76 E.03662
G1 X141.559 Y122.218 E.02114
G1 X141.118 Y122.526 E.01687
G1 X139.66 Y122.982 E.0479
G1 X110.353 Y122.982 E.9189
G1 X109.223 Y122.685 E.03663
G1 X108.24 Y122.054 E.03662
G1 X107.782 Y121.559 E.02114
G1 X107.474 Y121.118 E.01687
G1 X107.018 Y119.66 E.0479
G1 X107.018 Y90.353 E.9189
G1 X107.292 Y89.309 E.03384
M204 S1000
G1 X107.292 Y89.309 F10800
G1 X107.649 Y89.402
M204 S800
G1 F1200
G1 X107.649 Y89.399 E.00009
G1 X108.221 Y88.5 E.03341
G1 X109.073 Y87.8 E.03457
G1 X110.368 Y87.395 E.04254
G1 X139.615 Y87.398 E.91702
G1 X140.296 Y87.535 E.02178
G1 X140.987 Y87.839 E.02367
G1 X141.767 Y88.488 E.03181
G1 X142.329 Y89.35 E.03226
G1 X142.605 Y90.378 E.03337
G1 X142.605 Y119.623 E.91696
G1 X142.351 Y120.601 E.03168
M73 P9 R10
M73 Q9 S10
G1 X141.779 Y121.5 E.03341
G1 X140.927 Y122.2 E.03457
G1 X139.632 Y122.605 E.04254
G1 X110.377 Y122.605 E.91727
G1 X109.399 Y122.351 E.03168
G1 X108.5 Y121.779 E.03341
G1 X107.8 Y120.927 E.03457
G1 X107.395 Y119.632 E.04254
G1 X107.395 Y90.377 E.91727
G1 X107.633 Y89.46 E.0297
M204 S1000
G1 X107.633 Y89.46 F10800
G1 X107.997 Y89.557
M204 S800
G1 F1200
G1 X108.006 Y89.525 E.00104
G1 X108.495 Y88.76 E.02847
G1 X109.263 Y88.127 E.03121
G1 X110.397 Y87.772 E.03726
G1 X139.595 Y87.776 E.91548
G1 X140.199 Y87.9 E.01933
G1 X140.808 Y88.172 E.02091
G1 X141.501 Y88.757 E.02844
G1 X141.995 Y89.528 E.02871
G1 X142.228 Y90.402 E.02836
G1 X142.228 Y119.598 E.91542
G1 X141.994 Y120.475 E.02846
M73 P10 R10
M73 Q10 S10
G1 X141.505 Y121.24 E.02847
G1 X141.067 Y121.646 E.01873
G1 X140.737 Y121.873 E.01256
G1 X139.603 Y122.228 E.03726
G1 X110.402 Y122.228 E.91558
G1 X109.525 Y121.994 E.02846
G1 X108.76 Y121.505 E.02847
G1 X108.354 Y121.067 E.01873
G1 X108.127 Y120.737 E.01256
G1 X107.772 Y119.603 E.03726
G1 X107.772 Y90.402 E.91558
G1 X107.982 Y89.615 E.02554
M204 S1000
G1 X107.982 Y89.615 F10800
G1 X108.345 Y89.715
M204 S800
G1 F1200
G1 X108.361 Y89.654 E.00198
G1 X108.768 Y89.021 E.0236
G1 X109.452 Y88.454 E.02786
G1 X110.426 Y88.149 E.032
G1 X139.575 Y88.153 E.91395
G1 X140.099 Y88.264 E.01679
G1 X140.627 Y88.504 E.01819
G1 X141.234 Y89.025 E.02508
G1 X141.639 Y89.656 E.02351
G1 X141.851 Y90.428 E.0251
G1 X141.851 Y119.572 E.91379
G1 X141.639 Y120.346 E.02516
G1 X141.232 Y120.979 E.0236
G1 X140.548 Y121.546 E.02786
G1 X139.574 Y121.851 E.032
G1 X110.428 Y121.851 E.91385
G1 X109.654 Y121.639 E.02516
M73 P11 R10
M73 Q11 S10
G1 X109.021 Y121.232 E.0236
G1 X108.454 Y120.548 E.02786
G1 X108.149 Y119.574 E.032
G1 X108.149 Y90.428 E.91385
G1 X108.329 Y89.773 E.0213
M204 S1000
G1 X108.329 Y89.773 F10800
G1 X108.69 Y89.875
M204 S800
G1 F1200
G1 X108.716 Y89.785 E.00294
G1 X109.041 Y89.282 E.01878
G1 X109.64 Y88.782 E.02446
G1 X110.455 Y88.526 E.02678
G1 X139.553 Y88.53 E.91235
G1 X139.997 Y88.627 E.01425
G1 X140.443 Y88.834 E.01542
G1 X140.966 Y89.291 E.02178
G1 X141.285 Y89.786 E.01846
G1 X141.474 Y90.455 E.0218
G1 X141.474 Y119.545 E.9121
G1 X141.284 Y120.215 E.02184
G1 X140.959 Y120.718 E.01878
G1 X140.36 Y121.218 E.02446
G1 X139.545 Y121.474 E.02678
G1 X110.455 Y121.474 E.9121
G1 X109.785 Y121.284 E.02184
M73 P12 R10
M73 Q12 S10
G1 X109.282 Y120.959 E.01878
G1 X108.782 Y120.36 E.02446
G1 X108.526 Y119.545 E.02678
G1 X108.526 Y90.455 E.9121
G1 X108.674 Y89.933 E.01701
M204 S1000
G1 X108.674 Y89.933 F10800
G1 X109.034 Y90.039
M204 S800
G1 F1200
G1 X109.069 Y89.919 E.00392
G1 X109.314 Y89.543 E.01407
G1 X109.825 Y89.112 E.02096
G1 X110.484 Y88.903 E.02168
G1 X139.531 Y88.907 E.91075
G1 X140.256 Y89.162 E.0241
G1 X140.696 Y89.554 E.01848
G1 X140.931 Y89.92 E.01364
G1 X141.097 Y90.483 E.0184
G1 X141.097 Y119.517 E.91034
G1 X140.931 Y120.081 E.01843
G1 X140.686 Y120.457 E.01407
G1 X140.175 Y120.888 E.02096
G1 X139.516 Y121.097 E.02168
G1 X110.483 Y121.097 E.91031
G1 X109.919 Y120.931 E.01843
G1 X109.543 Y120.686 E.01407
G1 X109.112 Y120.175 E.02096
G1 X108.903 Y119.516 E.02168
M73 P13 R10
G1 X108.903 Y90.483 E.91031
M73 Q13 S10
G1 X109.017 Y90.096 E.01265
M204 S1000
G1 X109.017 Y90.096 F10800
G1 X109.375 Y90.207
M204 S800
G1 F1200
G1 X109.421 Y90.057 E.00492
G1 X109.587 Y89.804 E.00949
G1 X110.007 Y89.443 E.01736
G1 X110.513 Y89.28 E.01667
G1 X139.509 Y89.284 E.90915
G1 X140.068 Y89.491 E.01869
G1 X140.423 Y89.815 E.01507
G1 X140.72 Y90.512 E.02376
G1 X140.72 Y119.488 E.90852
G1 X140.579 Y119.943 E.01494
G1 X140.413 Y120.196 E.00949
G1 X139.993 Y120.557 E.01736
G1 X139.487 Y120.72 E.01667
G1 X110.512 Y120.72 E.90849
G1 X110.057 Y120.579 E.01494
G1 X109.804 Y120.413 E.00949
G1 X109.443 Y119.993 E.01736
G1 X109.28 Y119.487 E.01667
G1 X109.28 Y90.512 E.90849
G1 X109.357 Y90.264 E.00814
M73 P14 R10
M73 Q14 S10
M204 S1000
G1 X109.357 Y90.264 F10800
G1 X109.712 Y90.414
M204 S800
G1 F1200
G1 X109.86 Y90.066 E.01186
G1 X110.183 Y89.776 E.01361
G1 X110.544 Y89.657 E.01192
G1 X139.487 Y89.661 E.90749
G1 X139.878 Y89.818 E.01321
G1 X140.147 Y90.073 E.01162
G1 X140.343 Y90.544 E.016
G1 X140.343 Y119.456 E.90652
G1 X140.14 Y119.934 E.01628
G1 X139.817 Y120.224 E.01361
G1 X139.456 Y120.343 E.01192
G1 X110.544 Y120.343 E.90652
G1 X110.066 Y120.14 E.01628
G1 X109.776 Y119.817 E.01361
G1 X109.657 Y119.456 E.01192
G1 X109.657 Y90.544 E.90652
G1 X109.689 Y90.47 E.00253
M204 S1000
G1 X109.689 Y90.47 F10800
G1 X110.034 Y90.579
M204 S800
G1 F1200
G1 X110.132 Y90.328 E.00845
G1 X110.366 Y90.111 E.01001
G1 X110.579 Y90.034 E.0071
G1 X139.435 Y90.034 E.90476
G1 X139.866 Y90.325 E.01631
M73 P15 R10
M73 Q15 S10
G1 X139.966 Y90.579 E.00856
G1 X139.966 Y119.421 E.90432
G1 X139.868 Y119.672 E.00845
M73 P15 R9
G1 X139.634 Y119.889 E.01001
G1 X139.421 Y119.966 E.0071
G1 X110.579 Y119.966 E.90432
G1 X110.328 Y119.868 E.00845
M73 Q15 S9
G1 X110.111 Y119.634 E.01001
G1 X110.034 Y119.421 E.0071
G1 X110.034 Y90.639 E.90244
M204 S1000
G1 X110.034 Y90.639 F10800
G1 X110.44 Y90.64
M204 S800
G1 F1200
G1 X110.44 Y90.552 E.00276
G1 X110.621 Y90.411 E.00719
G1 X139.448 Y90.44 E.90385
G1 X139.589 Y90.621 E.00719
M73 P16 R9
G1 X139.56 Y119.448 E.90385
G1 X139.379 Y119.589 E.00719
M73 Q16 S9
G1 X110.552 Y119.56 E.90385
G1 X110.411 Y119.379 E.00719
G1 X110.44 Y90.7 E.89921
M204 S1000
;WIPE_START
G1 F8640
G1 X110.44 Y90.64 E-.01385
G1 X110.44 Y90.552 E-.02032
G1 X110.621 Y90.411 E-.05298
G1 X113.708 Y90.414 E-.71285
;WIPE_END
G1 Z.6 F720
; printing object PennyHolderII v3.stl id:0 copy 0
G1 X135.275 Y106.481 F10800
G1 Z.2 F720
G1 E.8 F2100
M204 S800
;TYPE:Perimeter
;WIDTH:0.419999
G1 F1200
G1 X135.137 Y107.24 E.02419
G1 X134.884 Y108.19 E.03082
G1 X134.627 Y108.897 E.02359
G1 X134.32 Y109.584 E.02359
G1 X133.963 Y110.246 E.02358
G1 X133.56 Y110.881 E.02358
G1 X133.111 Y111.485 E.0236
G1 X132.62 Y112.055 E.02359
G1 X132.089 Y112.588 E.02359
G1 X131.521 Y113.08 E.02356
G1 X130.919 Y113.531 E.02358
G1 X130.285 Y113.937 E.02361
G1 X129.624 Y114.295 E.02357
G1 X128.938 Y114.605 E.0236
G1 X128.232 Y114.865 E.02359
G1 X127.509 Y115.072 E.02358
G1 X126.773 Y115.227 E.02358
G1 X126.484 Y115.267 E.00915
G1 X126.17 Y116.021 E.02561
G1 X126.045 Y116.207 E.00703
G1 X125.745 Y116.361 E.01057
G1 X124.352 Y116.369 E.04368
G1 X124.129 Y116.323 E.00714
G1 X123.955 Y116.206 E.00657
G1 X123.83 Y116.021 E.007
G1 X123.515 Y115.264 E.02571
G1 X122.745 Y115.123 E.02454
G1 X121.81 Y114.873 E.03035
G1 X121.104 Y114.615 E.02357
G1 X120.419 Y114.308 E.02354
G1 X119.758 Y113.952 E.02354
G1 X119.125 Y113.549 E.02353
G1 X118.522 Y113.101 E.02355
G1 X117.954 Y112.611 E.02352
G1 X117.422 Y112.081 E.02355
G1 X116.93 Y111.514 E.02354
G1 X116.48 Y110.913 E.02354
G1 X116.075 Y110.281 E.02354
G1 X115.716 Y109.621 E.02356
G1 X115.407 Y108.937 E.02353
G1 X115.147 Y108.233 E.02353
G1 X114.939 Y107.511 E.02356
G1 X114.784 Y106.777 E.02352
G1 X114.744 Y106.489 E.00912
G1 X113.979 Y106.17 E.02599
G1 X113.795 Y106.046 E.00696
G1 X113.639 Y105.745 E.01063
G1 X113.631 Y104.352 E.04368
G1 X113.677 Y104.129 E.00714
G1 X113.795 Y103.954 E.00662
G1 X113.979 Y103.83 E.00696
G1 X114.744 Y103.511 E.02599
G1 X114.887 Y102.733 E.0248
G1 X115.134 Y101.806 E.03008
G1 X115.391 Y101.101 E.02353
G1 X115.698 Y100.416 E.02354
G1 X116.054 Y99.755 E.02354
G1 X116.457 Y99.121 E.02355
G1 X116.904 Y98.518 E.02353
M73 P17 R9
G1 X117.394 Y97.949 E.02354
G1 X117.924 Y97.417 E.02355
G1 X118.49 Y96.925 E.02351
M73 Q17 S9
G1 X119.091 Y96.474 E.02356
G1 X119.723 Y96.069 E.02354
G1 X120.383 Y95.71 E.02356
G1 X121.066 Y95.4 E.02352
G1 X121.771 Y95.14 E.02356
G1 X122.492 Y94.932 E.02353
G1 X123.226 Y94.776 E.02353
G1 X123.515 Y94.736 E.00915
G1 X123.83 Y93.979 E.02571
G1 X123.955 Y93.794 E.007
G1 X124.255 Y93.639 E.01059
G1 X125.648 Y93.631 E.04368
G1 X125.87 Y93.676 E.0071
G1 X126.045 Y93.794 E.00662
G1 X126.17 Y93.979 E.007
G1 X126.484 Y94.733 E.02561
G1 X127.251 Y94.873 E.02445
G1 X128.193 Y95.123 E.03056
G1 X128.9 Y95.379 E.02358
G1 X129.587 Y95.686 E.02359
G1 X130.25 Y96.043 E.02361
G1 X130.885 Y96.446 E.02358
G1 X131.489 Y96.894 E.02358
G1 X132.059 Y97.385 E.02359
G1 X132.592 Y97.915 E.02357
G1 X133.086 Y98.483 E.0236
G1 X133.537 Y99.085 E.02358
G1 X133.943 Y99.719 E.02361
G1 X134.302 Y100.38 E.02358
G1 X134.612 Y101.065 E.02357
G1 X134.872 Y101.771 E.02359
G1 X135.08 Y102.494 E.02359
G1 X135.235 Y103.23 E.02358
G1 X135.275 Y103.519 E.00915
G1 X136.021 Y103.83 E.02534
G1 X136.208 Y103.956 E.00707
G1 X136.324 Y104.13 E.00656
G1 X136.369 Y104.352 E.0071
G1 X136.369 Y105.648 E.04064
G1 X136.324 Y105.87 E.0071
G1 X136.208 Y106.044 E.00656
G1 X136.021 Y106.17 E.00707
G1 X135.33 Y106.458 E.02347
M204 S1000
G1 X135.33 Y106.458 F10800
G1 X134.93 Y106.216
M204 S800
;TYPE:External perimeter
G1 F1200
G1 X134.768 Y107.163 E.03012
G1 X134.522 Y108.086 E.02995
G1 X134.273 Y108.767 E.02273
G1 X133.976 Y109.429 E.02275
G1 X133.632 Y110.067 E.02273
G1 X133.242 Y110.678 E.02273
G1 X132.809 Y111.259 E.02272
G1 X132.335 Y111.808 E.02274
G1 X131.823 Y112.321 E.02273
G1 X131.275 Y112.795 E.02272
G1 X130.693 Y113.229 E.02276
G1 X130.082 Y113.619 E.02273
G1 X129.445 Y113.964 E.02271
G1 X128.784 Y114.261 E.02272
G1 X128.103 Y114.511 E.02275
G1 X127.406 Y114.71 E.02273
G1 X126.696 Y114.858 E.02274
G1 X126.219 Y114.922 E.01509
G1 X125.822 Y115.876 E.0324
G1 X125.722 Y115.977 E.00446
G1 X125.648 Y115.992 E.00237
G1 X124.352 Y115.992 E.04064
G1 X124.22 Y115.938 E.00447
G1 X123.78 Y114.92 E.03477
G1 X122.822 Y114.754 E.03048
G1 X121.913 Y114.51 E.02951
G1 X121.234 Y114.261 E.02268
G1 X120.574 Y113.964 E.02269
G1 X119.938 Y113.62 E.02267
G1 X119.328 Y113.231 E.02268
G1 X118.748 Y112.799 E.02268
G1 X118.2 Y112.326 E.0227
G1 X117.689 Y111.814 E.02268
G1 X117.215 Y111.267 E.02269
G1 X116.782 Y110.687 E.02269
G1 X116.393 Y110.078 E.02266
G1 X116.048 Y109.442 E.02269
G1 X115.75 Y108.782 E.02271
G1 X115.501 Y108.103 E.02268
G1 X115.302 Y107.408 E.02267
