; generated by PrusaSlicer 2.9.0 on 2024-12-29 at 17:29:39 UTC


;
;
; 

; external perimeters extrusion width = 0.45mm
; perimeters extrusion width = 0.45mm
; infill extrusion width = 0.45mm
; solid infill extrusion width = 0.45mm
; top infill extrusion width = 0.40mm
; first layer extrusion width = 0.42mm

M73 P0 R15
M73 Q0 S15
M201 X1000 Y1000 Z200 E8000 ; sets maximum accelerations, mm/sec^2
M203 X200 Y200 Z12 E120 ; sets maximum feedrates, mm / sec
M204 S1250 T1250 ; sets acceleration (S) and retract acceleration (R), mm/sec^2
M205 X8.00 Y8.00 Z0.40 E4.50 ; sets the jerk limits, mm/sec
M205 S0 T0 ; sets the minimum extruding and travel feed rate, mm/sec

; printing object PennyHolderII v2.stl id:0 copy 0
; stop printing object PennyHolderII v2.stl id:0 copy 0

;TYPE:Custom
M862.3 P "MK3SMMU3" ; printer model check
M862.1 P0.4 ; nozzle diameter check
M115 U3.14.1 ; tell printer latest fw version
G90 ; use absolute coordinates
M83 ; extruder relative mode
M104 S215 ; set extruder temp
M140 S60 ; set bed temp
M190 S60 ; wait for bed temp
M109 S215 ; wait for extruder temp
G28 W ; home all without mesh bed level
G80 X103.223 Y83.2229 W43.5542 H43.5542 ; mesh bed levelling

; Send the filament type to the MMU unit.
; E stands for extruder number, F stands for filament type (0: default; 1:flex; 2: PVA)
M403 E0 F0
M403 E1 F0
M403 E2 F0
M403 E3 F0
M403 E4 F0


;go outside print area
G1 Y-3 F1000
G1 Z0.4 F1000
; select extruder
T0
; initial load
G1 X55 E29 F1073
G1 X5 E29 F1800
G1 X55 E8 F2000
G1 Z0.3 F1000
G92 E0
G1 X240 E25 F2200
G1 Y-2 F1000
M73 P1 R15
M73 Q1 S15
G1 X55 E25 F1400
G1 Z0.2 F1000
M73 P2 R15
M73 Q2 S15
G1 X5 E4 F1000
G92 E0


M221 S95
G92 E0

; Don't change E values below. Excessive value can damage the printer.
M907 E430 ; set extruder motor current
G21 ; set units to millimeters
G90 ; use absolute coordinates
M83 ; use relative distances for extrusion

M900 K0.05 ; Filament gcode LA 1.5
M900 K30 ; Filament gcode LA 1.0




M107
;LAYER_CHANGE
;Z:0.2
;HEIGHT:0.2
G1 E-.8 F2100
M73 P2 R14
M73 Q2 S14
G1 Z.6 F720
G1 X104.052 Y87.04 F10800
G1 Z.2 F720
G1 E.8 F2100
M204 S800
;TYPE:Skirt/Brim
;WIDTH:0.42
G1 F1200
G1 X107.04 Y84.052 E.13249
G1 X108.588 Y83.411 E.05253
G1 X141.412 Y83.411 E1.02917
G1 X142.96 Y84.052 E.05253
G1 X145.948 Y87.04 E.13249
G1 X146.589 Y88.588 E.05253
G1 X146.589 Y121.412 E1.02917
G1 X145.948 Y122.96 E.05253
M73 P3 R14
M73 Q3 S14
G1 X142.96 Y125.948 E.13249
G1 X141.412 Y126.589 E.05253
G1 X108.588 Y126.589 E1.02917
G1 X107.04 Y125.948 E.05253
G1 X104.052 Y122.96 E.13249
G1 X103.411 Y121.412 E.05253
G1 X103.411 Y88.588 E1.02917
G1 X104.03 Y87.095 E.05068
M204 S1000
;WIPE_START
G1 F8640
G1 X104.052 Y87.04 E-.01368
G1 X106.46 Y84.632 E-.78632
;WIPE_END
G1 Z.6 F720
G1 X106.387 Y88.609 F10800
G1 Z.2 F720
G1 E.8 F2100
M204 S800
G1 F1200
G1 X107.125 Y87.459 E.04284
G1 X108.304 Y86.498 E.04769
G1 X110.254 Y85.886 E.06408
G1 X139.689 Y85.89 E.92291
G1 X140.71 Y86.084 E.03259
G1 X141.688 Y86.5 E.03332
G1 X142.812 Y87.396 E.04507
G1 X143.705 Y88.734 E.05044
G1 X144.113 Y90.279 E.0501
G1 X144.113 Y119.72 E.9231
G1 X143.733 Y121.205 E.04806
G1 X142.875 Y122.541 E.04978
G1 X141.696 Y123.502 E.04769
G1 X139.746 Y124.113 E.06407
G1 X110.28 Y124.113 E.92389
G1 X108.795 Y123.733 E.04806
M73 P4 R14
M73 Q4 S14
G1 X107.459 Y122.875 E.04978
G1 X106.498 Y121.696 E.04769
G1 X105.887 Y119.746 E.06407
G1 X105.887 Y90.28 E.92389
G1 X106.267 Y88.795 E.04806
G1 X106.354 Y88.659 E.00506
M204 S1000
G1 X106.354 Y88.659 F10800
G1 X106.664 Y88.859
M204 S800
G1 F1200
G1 X107.399 Y87.72 E.0425
G1 X108.498 Y86.823 E.04448
G1 X110.283 Y86.264 E.05865
G1 X139.671 Y86.267 E.92144
G1 X140.617 Y86.45 E.03021
G1 X141.515 Y86.836 E.03065
G1 X142.553 Y87.671 E.04177
G1 X143.349 Y88.862 E.04492
G1 X143.736 Y90.304 E.04681
G1 X143.736 Y119.695 E.92153
G1 X143.376 Y121.08 E.04487
G1 X142.601 Y122.28 E.04479
G1 X142.052 Y122.789 E.02347
G1 X141.502 Y123.177 E.0211
G1 X139.718 Y123.736 E.05862
G1 X110.305 Y123.736 E.92222
G1 X108.92 Y123.376 E.04487
G1 X107.72 Y122.601 E.04479
G1 X107.211 Y122.052 E.02347
G1 X106.823 Y121.502 E.0211
G1 X106.264 Y119.718 E.05862
G1 X106.264 Y90.305 E.92222
G1 X106.624 Y88.92 E.04487
M73 P5 R14
M73 Q5 S14
G1 X106.631 Y88.909 E.00041
M204 S1000
G1 X106.631 Y88.909 F10800
G1 X106.958 Y89.097
M204 S800
G1 F1200
G1 X107.673 Y87.98 E.04158
G1 X108.69 Y87.148 E.0412
G1 X110.311 Y86.641 E.05325
G1 X139.652 Y86.644 E.91997
G1 X140.524 Y86.816 E.02787
G1 X141.34 Y87.171 E.0279
G1 X142.293 Y87.945 E.03849
G1 X143.017 Y89.043 E.04124
G1 X143.359 Y90.328 E.04169
G1 X143.359 Y119.672 E.92006
G1 X143.042 Y120.903 E.03986
G1 X142.327 Y122.02 E.04158
G1 X141.31 Y122.852 E.0412
G1 X139.689 Y123.359 E.05325
G1 X110.328 Y123.359 E.92059
G1 X109.097 Y123.042 E.03986
G1 X107.98 Y122.327 E.04158
G1 X107.148 Y121.31 E.0412
G1 X106.641 Y119.689 E.05325
G1 X106.641 Y90.328 E.92059
G1 X106.943 Y89.156 E.03795
M204 S1000
G1 X106.943 Y89.156 F10800
G1 X107.307 Y89.251
M204 S800
G1 F1200
G1 X107.315 Y89.223 E.00091
G1 X107.946 Y88.24 E.03662
G1 X108.882 Y87.474 E.03792
G1 X110.34 Y87.018 E.0479
G1 X139.633 Y87.021 E.91846
G1 X140.429 Y87.182 E.02546
M73 P6 R14
M73 Q6 S14
G1 X141.164 Y87.505 E.02517
G1 X142.03 Y88.217 E.03515
G1 X142.685 Y89.223 E.03764
G1 X142.982 Y90.352 E.0366
G1 X142.982 Y119.647 E.91852
G1 X142.685 Y120.777 E.03663
G1 X142.054 Y121.76 E.03662
G1 X141.559 Y122.218 E.02114
G1 X141.118 Y122.526 E.01687
G1 X139.66 Y122.982 E.0479
G1 X110.353 Y122.982 E.9189
G1 X109.223 Y122.685 E.03663
G1 X108.24 Y122.054 E.03662
G1 X107.782 Y121.559 E.02114
G1 X107.474 Y121.118 E.01687
G1 X107.018 Y119.66 E.0479
G1 X107.018 Y90.353 E.9189
G1 X107.292 Y89.309 E.03384
M204 S1000
G1 X107.292 Y89.309 F10800
G1 X107.649 Y89.402
M204 S800
G1 F1200
G1 X107.649 Y89.399 E.00009
G1 X108.221 Y88.5 E.03341
G1 X109.073 Y87.8 E.03457
G1 X110.368 Y87.395 E.04254
G1 X139.615 Y87.398 E.91702
G1 X140.296 Y87.535 E.02178
G1 X140.987 Y87.839 E.02367
G1 X141.767 Y88.488 E.03181
G1 X142.329 Y89.35 E.03226
G1 X142.605 Y90.378 E.03337
G1 X142.605 Y119.623 E.91696
G1 X142.351 Y120.601 E.03168
G1 X141.779 Y121.5 E.03341
G1 X140.927 Y122.2 E.03457
G1 X139.632 Y122.605 E.04254
G1 X110.377 Y122.605 E.91727
G1 X109.399 Y122.351 E.03168
M73 P7 R14
M73 Q7 S14
G1 X108.5 Y121.779 E.03341
G1 X107.8 Y120.927 E.03457
G1 X107.395 Y119.632 E.04254
G1 X107.395 Y90.377 E.91727
G1 X107.633 Y89.46 E.0297
M204 S1000
G1 X107.633 Y89.46 F10800
G1 X107.997 Y89.557
M204 S800
G1 F1200
G1 X108.006 Y89.525 E.00104
G1 X108.495 Y88.76 E.02847
G1 X109.263 Y88.127 E.03121
G1 X110.397 Y87.772 E.03726
G1 X139.595 Y87.776 E.91548
G1 X140.199 Y87.9 E.01933
G1 X140.808 Y88.172 E.02091
G1 X141.501 Y88.757 E.02844
G1 X141.995 Y89.528 E.02871
G1 X142.228 Y90.402 E.02836
G1 X142.228 Y119.598 E.91542
G1 X141.994 Y120.475 E.02846
G1 X141.505 Y121.24 E.02847
G1 X141.067 Y121.646 E.01873
G1 X140.737 Y121.873 E.01256
G1 X139.603 Y122.228 E.03726
G1 X110.402 Y122.228 E.91558
G1 X109.525 Y121.994 E.02846
G1 X108.76 Y121.505 E.02847
G1 X108.354 Y121.067 E.01873
G1 X108.127 Y120.737 E.01256
G1 X107.772 Y119.603 E.03726
G1 X107.772 Y90.402 E.91558
G1 X107.982 Y89.615 E.02554
M73 P8 R14
M73 Q8 S14
M204 S1000
G1 X107.982 Y89.615 F10800
G1 X108.345 Y89.715
M204 S800
G1 F1200
G1 X108.361 Y89.654 E.00198
G1 X108.768 Y89.021 E.0236
G1 X109.452 Y88.454 E.02786
G1 X110.426 Y88.149 E.032
G1 X139.575 Y88.153 E.91395
G1 X140.099 Y88.264 E.01679
G1 X140.627 Y88.504 E.01819
G1 X141.234 Y89.025 E.02508
G1 X141.639 Y89.656 E.02351
G1 X141.851 Y90.428 E.0251
G1 X141.851 Y119.572 E.91379
G1 X141.639 Y120.346 E.02516
G1 X141.232 Y120.979 E.0236
G1 X140.548 Y121.546 E.02786
G1 X139.574 Y121.851 E.032
G1 X110.428 Y121.851 E.91385
G1 X109.654 Y121.639 E.02516
G1 X109.021 Y121.232 E.0236
G1 X108.454 Y120.548 E.02786
G1 X108.149 Y119.574 E.032
G1 X108.149 Y90.428 E.91385
G1 X108.329 Y89.773 E.0213
M73 P8 R13
M204 S1000
G1 X108.329 Y89.773 F10800
G1 X108.69 Y89.875
M204 S800
G1 F1200
G1 X108.716 Y89.785 E.00294
G1 X109.041 Y89.282 E.01878
G1 X109.64 Y88.782 E.02446
G1 X110.455 Y88.526 E.02678
G1 X139.553 Y88.53 E.91235
G1 X139.997 Y88.627 E.01425
G1 X140.443 Y88.834 E.01542
M73 Q8 S13
G1 X140.966 Y89.291 E.02178
G1 X141.285 Y89.786 E.01846
G1 X141.474 Y90.455 E.0218
G1 X141.474 Y119.545 E.9121
G1 X141.284 Y120.215 E.02184
M73 P9 R13
M73 Q9 S13
G1 X140.959 Y120.718 E.01878
G1 X140.36 Y121.218 E.02446
G1 X139.545 Y121.474 E.02678
G1 X110.455 Y121.474 E.9121
G1 X109.785 Y121.284 E.02184
G1 X109.282 Y120.959 E.01878
G1 X108.782 Y120.36 E.02446
G1 X108.526 Y119.545 E.02678
G1 X108.526 Y90.455 E.9121
G1 X108.674 Y89.933 E.01701
M204 S1000
G1 X108.674 Y89.933 F10800
G1 X109.034 Y90.039
M204 S800
G1 F1200
G1 X109.069 Y89.919 E.00392
G1 X109.314 Y89.543 E.01407
G1 X109.825 Y89.112 E.02096
G1 X110.484 Y88.903 E.02168
G1 X139.531 Y88.907 E.91075
G1 X140.256 Y89.162 E.0241
G1 X140.696 Y89.554 E.01848
G1 X140.931 Y89.92 E.01364
G1 X141.097 Y90.483 E.0184
G1 X141.097 Y119.517 E.91034
G1 X140.931 Y120.081 E.01843
G1 X140.686 Y120.457 E.01407
G1 X140.175 Y120.888 E.02096
G1 X139.516 Y121.097 E.02168
G1 X110.483 Y121.097 E.91031
G1 X109.919 Y120.931 E.01843
G1 X109.543 Y120.686 E.01407
G1 X109.112 Y120.175 E.02096
G1 X108.903 Y119.516 E.02168
G1 X108.903 Y90.483 E.91031
M73 P10 R13
G1 X109.017 Y90.096 E.01265
M73 Q10 S13
M204 S1000
G1 X109.017 Y90.096 F10800
G1 X109.375 Y90.207
M204 S800
G1 F1200
G1 X109.421 Y90.057 E.00492
G1 X109.587 Y89.804 E.00949
G1 X110.007 Y89.443 E.01736
G1 X110.513 Y89.28 E.01667
G1 X139.509 Y89.284 E.90915
G1 X140.068 Y89.491 E.01869
G1 X140.423 Y89.815 E.01507
G1 X140.72 Y90.512 E.02376
G1 X140.72 Y119.488 E.90852
G1 X140.579 Y119.943 E.01494
G1 X140.413 Y120.196 E.00949
G1 X139.993 Y120.557 E.01736
G1 X139.487 Y120.72 E.01667
G1 X110.512 Y120.72 E.90849
G1 X110.057 Y120.579 E.01494
G1 X109.804 Y120.413 E.00949
G1 X109.443 Y119.993 E.01736
G1 X109.28 Y119.487 E.01667
G1 X109.28 Y90.512 E.90849
G1 X109.357 Y90.264 E.00814
M204 S1000
G1 X109.357 Y90.264 F10800
G1 X109.712 Y90.414
M204 S800
G1 F1200
G1 X109.86 Y90.066 E.01186
G1 X110.183 Y89.776 E.01361
G1 X110.544 Y89.657 E.01192
G1 X139.487 Y89.661 E.90749
G1 X139.878 Y89.818 E.01321
M73 P11 R13
G1 X140.147 Y90.073 E.01162
G1 X140.343 Y90.544 E.016
M73 Q11 S13
G1 X140.343 Y119.456 E.90652
G1 X140.14 Y119.934 E.01628
G1 X139.817 Y120.224 E.01361
G1 X139.456 Y120.343 E.01192
G1 X110.544 Y120.343 E.90652
G1 X110.066 Y120.141 E.01627
G1 X109.776 Y119.817 E.01363
G1 X109.657 Y119.456 E.01192
G1 X109.657 Y90.544 E.90652
G1 X109.689 Y90.47 E.00253
M204 S1000
G1 X109.689 Y90.47 F10800
G1 X110.034 Y90.579
M204 S800
G1 F1200
G1 X110.132 Y90.328 E.00845
G1 X110.366 Y90.111 E.01001
G1 X110.579 Y90.034 E.0071
G1 X139.435 Y90.034 E.90476
G1 X139.866 Y90.325 E.01631
G1 X139.966 Y90.579 E.00856
G1 X139.966 Y119.421 E.90432
G1 X139.868 Y119.672 E.00845
G1 X139.634 Y119.889 E.01001
G1 X139.421 Y119.966 E.0071
G1 X110.579 Y119.966 E.90432
G1 X110.328 Y119.868 E.00845
G1 X110.111 Y119.634 E.01001
G1 X110.034 Y119.421 E.0071
G1 X110.034 Y90.639 E.90244
M204 S1000
G1 X110.034 Y90.639 F10800
M73 P12 R13
M73 Q12 S13
G1 X110.44 Y90.64
M204 S800
G1 F1200
G1 X110.44 Y90.552 E.00276
G1 X110.621 Y90.411 E.00719
G1 X139.448 Y90.44 E.90385
G1 X139.589 Y90.621 E.00719
G1 X139.56 Y119.448 E.90385
G1 X139.379 Y119.589 E.00719
G1 X110.552 Y119.56 E.90385
G1 X110.411 Y119.379 E.00719
G1 X110.44 Y90.7 E.89921
M204 S1000
;WIPE_START
G1 F8640
G1 X110.44 Y90.64 E-.01385
G1 X110.44 Y90.552 E-.02032
G1 X110.621 Y90.411 E-.05298
G1 X113.708 Y90.414 E-.71285
;WIPE_END
G1 Z.6 F720
; printing object PennyHolderII v2.stl id:0 copy 0
G1 X126.194 Y116.458 F10800
G1 Z.2 F720
G1 E.8 F2100
M204 S800
;TYPE:Perimeter
;WIDTH:0.419999
G1 F1200
G1 X126.178 Y116.481 E.00088
G1 X125.888 Y116.672 E.01089
G1 X125.521 Y116.746 E.01174
G1 X124.479 Y116.746 E.03267
G1 X124.111 Y116.672 E.01177
G1 X123.822 Y116.48 E.01088
G1 X123.641 Y116.237 E.0095
G1 X123.551 Y115.97 E.00883
G1 X123.536 Y115.648 E.01011
G1 X122.666 Y115.491 E.02772
G1 X121.665 Y115.222 E.0325
G1 X120.94 Y114.956 E.02421
G1 X120.237 Y114.638 E.02419
G1 X119.558 Y114.271 E.0242
G1 X118.907 Y113.856 E.02421
G1 X118.288 Y113.396 E.02418
G1 X117.703 Y112.892 E.02421
G1 X117.156 Y112.348 E.02419
G1 X116.649 Y111.766 E.0242
G1 X116.185 Y111.149 E.02421
G1 X115.767 Y110.501 E.02418
G1 X115.396 Y109.824 E.02421
G1 X115.075 Y109.122 E.0242
G1 X114.805 Y108.399 E.0242
G1 X114.588 Y107.658 E.02421
G1 X114.424 Y106.904 E.02419
G1 X114.371 Y106.464 E.0139
G1 X113.971 Y106.437 E.01257
G1 X113.766 Y106.36 E.00687
G1 X113.522 Y106.18 E.00951
G1 X113.329 Y105.89 E.01092
G1 X113.254 Y105.521 E.01181
G1 X113.254 Y104.479 E.03267
G1 X113.329 Y104.11 E.01181
G1 X113.522 Y103.82 E.01092
G1 X113.766 Y103.64 E.00951
G1 X114.037 Y103.549 E.00896
G1 X114.36 Y103.536 E.01014
G1 X114.517 Y102.658 E.02797
G1 X114.784 Y101.665 E.03224
G1 X115.049 Y100.941 E.02417
G1 X115.366 Y100.237 E.02421
G1 X115.733 Y99.558 E.0242
G1 X116.147 Y98.906 E.02422
M73 P13 R13
G1 X116.607 Y98.287 E.02418
G1 X117.11 Y97.701 E.02421
G1 X117.653 Y97.154 E.02417
M73 Q13 S13
G1 X118.235 Y96.646 E.02422
G1 X118.852 Y96.182 E.02421
G1 X119.5 Y95.763 E.02419
G1 X120.176 Y95.392 E.02418
G1 X120.878 Y95.07 E.02422
G1 X121.601 Y94.799 E.02421
G1 X122.341 Y94.581 E.02419
G1 X123.095 Y94.417 E.02419
G1 X123.536 Y94.363 E.01393
G1 X123.565 Y93.964 E.01254
G1 X123.641 Y93.763 E.00674
G1 X123.822 Y93.52 E.0095
G1 X124.111 Y93.328 E.01088
G1 X124.479 Y93.254 E.01177
G1 X125.521 Y93.254 E.03267
G1 X125.888 Y93.328 E.01174
G1 X126.178 Y93.519 E.01089
G1 X126.358 Y93.762 E.00948
G1 X126.449 Y94.028 E.00881
G1 X126.464 Y94.35 E.01011
G1 X127.333 Y94.505 E.02768
G1 X128.338 Y94.773 E.03261
G1 X129.063 Y95.039 E.02421
G1 X129.768 Y95.355 E.02422
G1 X130.448 Y95.722 E.02423
G1 X130.978 Y96.058 E.01968
G1 X131.712 Y96.59 E.02842
G1 X132.307 Y97.1 E.02457
G1 X132.855 Y97.645 E.02423
G1 X133.363 Y98.227 E.02422
G1 X133.828 Y98.845 E.02425
G1 X134.247 Y99.494 E.02422
G1 X134.619 Y100.171 E.02422
G1 X134.941 Y100.874 E.02424
G1 X135.211 Y101.598 E.02423
G1 X135.429 Y102.339 E.02422
G1 X135.594 Y103.094 E.02423
G1 X135.647 Y103.536 E.01396
G1 X136.045 Y103.567 E.01252
G1 X136.24 Y103.643 E.00656
G1 X136.482 Y103.824 E.00948
G1 X136.673 Y104.113 E.01086
G1 X136.746 Y104.479 E.0117
G1 X136.746 Y105.521 E.03267
G1 X136.673 Y105.887 E.0117
G1 X136.482 Y106.176 E.01086
G1 X136.24 Y106.357 E.00948
G1 X135.979 Y106.448 E.00867
G1 X135.658 Y106.464 E.01008
G1 X135.504 Y107.326 E.02746
G1 X135.233 Y108.338 E.03285
G1 X134.967 Y109.064 E.02424
G1 X134.649 Y109.768 E.02422
G1 X134.282 Y110.448 E.02423
G1 X133.867 Y111.1 E.02423
G1 X133.406 Y111.72 E.02422
G1 X132.902 Y112.306 E.02423
G1 X132.357 Y112.853 E.02421
G1 X131.774 Y113.361 E.02425
G1 X131.156 Y113.825 E.02423
G1 X130.507 Y114.244 E.02422
G1 X129.829 Y114.614 E.02422
G1 X129.126 Y114.936 E.02424
G1 X128.402 Y115.206 E.02423
G1 X127.66 Y115.423 E.02424
G1 X126.905 Y115.586 E.02422
G1 X126.464 Y115.639 E.01393
G1 X126.435 Y116.038 E.01254
G1 X126.358 Y116.238 E.00672
G1 X126.23 Y116.41 E.00672
M204 S1000
G1 X126.23 Y116.41 F10800
G1 X125.928 Y116.192
M204 S800
G1 F1200
G1 X125.915 Y116.21 E.0007
G1 X125.619 Y116.361 E.01042
G1 X124.479 Y116.369 E.03574
G1 X124.258 Y116.325 E.00707
G1 X124.084 Y116.209 E.00656
G1 X123.93 Y115.943 E.00964
G1 X123.911 Y115.322 E.01948
G1 X123.214 Y115.222 E.02208
G1 X122.486 Y115.067 E.02334
G1 X121.77 Y114.86 E.02337
G1 X121.072 Y114.602 E.02333
G1 X120.393 Y114.295 E.02336
G1 X119.738 Y113.94 E.02336
G1 X119.111 Y113.539 E.02334
G1 X118.514 Y113.094 E.02335
G1 X117.95 Y112.607 E.02336
G1 X117.422 Y112.082 E.02335
G1 X116.934 Y111.519 E.02336
G1 X116.487 Y110.924 E.02333
G1 X116.085 Y110.297 E.02335
G1 X115.728 Y109.644 E.02333
G1 X115.419 Y108.966 E.02336
G1 X115.159 Y108.268 E.02335
G1 X114.95 Y107.553 E.02336
G1 X114.793 Y106.825 E.02335
G1 X114.709 Y106.087 E.02329
G1 X114.196 Y106.087 E.01608
G1 X113.938 Y106.025 E.00832
G1 X113.791 Y105.917 E.00572
G1 X113.639 Y105.619 E.01049
G1 X113.631 Y104.479 E.03574
G1 X113.676 Y104.257 E.0071
