; generated by PrusaSlicer 2.9.0 on 2024-12-27 at 23:56:52 UTC


;
;
; 

; external perimeters extrusion width = 0.45mm
; perimeters extrusion width = 0.45mm
; infill extrusion width = 0.45mm
; solid infill extrusion width = 0.45mm
; top infill extrusion width = 0.40mm
; first layer extrusion width = 0.42mm

M73 P0 R34
M73 Q0 S34
M201 X1000 Y1000 Z200 E8000 ; sets maximum accelerations, mm/sec^2
M203 X200 Y200 Z12 E120 ; sets maximum feedrates, mm / sec
M204 S1250 T1250 ; sets acceleration (S) and retract acceleration (R), mm/sec^2
M205 X8.00 Y8.00 Z0.40 E4.50 ; sets the jerk limits, mm/sec
M205 S0 T0 ; sets the minimum extruding and travel feed rate, mm/sec

; printing object FlatBeam v1.stl id:0 copy 0
; stop printing object FlatBeam v1.stl id:0 copy 0

;TYPE:Custom
M862.3 P "MK3SMMU3" ; printer model check
M862.1 P0.4 ; nozzle diameter check
M115 U3.14.1 ; tell printer latest fw version
G90 ; use absolute coordinates
M83 ; extruder relative mode
M104 S215 ; set extruder temp
M140 S60 ; set bed temp
M190 S60 ; wait for bed temp
M109 S215 ; wait for extruder temp
G28 W ; home all without mesh bed level
G80 X63.0109 Y87.7016 W114.554 H34.5542 ; mesh bed levelling

; Send the filament type to the MMU unit.
; E stands for extruder number, F stands for filament type (0: default; 1:flex; 2: PVA)
M403 E0 F0
M403 E1 F0
M403 E2 F0
M403 E3 F0
M403 E4 F0


;go outside print area
G1 Y-3 F1000
G1 Z0.4 F1000
; select extruder
T0
; initial load
G1 X55 E29 F1073
G1 X5 E29 F1800
G1 X55 E8 F2000
G1 Z0.3 F1000
G92 E0
G1 X240 E25 F2200
G1 Y-2 F1000
G1 X55 E25 F1400
G1 Z0.2 F1000
M73 P0 R33
G1 X5 E4 F1000
G92 E0


M221 S95
G92 E0

; Don't change E values below. Excessive value can damage the printer.
M907 E430 ; set extruder motor current
G21 ; set units to millimeters
G90 ; use absolute coordinates
M83 ; use relative distances for extrusion

M900 K0.05 ; Filament gcode LA 1.5
M900 K30 ; Filament gcode LA 1.0




M107
;LAYER_CHANGE
;Z:0.2
;HEIGHT:0.2
G1 E-.8 F2100
M73 P1 R33
M73 Q1 S34
G1 Z.6 F720
G1 X66.828 Y88.531 F10800
G1 Z.2 F720
G1 E.8 F2100
M204 S800
;TYPE:Skirt/Brim
;WIDTH:0.42
G1 F1200
G1 X68.375 Y87.89 E.0525
G1 X172.2 Y87.89 E3.25536
G1 X173.748 Y88.531 E.05253
M73 Q1 S33
G1 X176.736 Y91.519 E.13249
G1 X177.377 Y93.066 E.0525
G1 X177.377 Y116.891 E.74702
G1 X176.736 Y118.439 E.05253
G1 X173.748 Y121.426 E.13247
G1 X172.2 Y122.067 E.05253
G1 X68.375 Y122.067 E3.25536
G1 X66.828 Y121.426 E.0525
G1 X63.84 Y118.439 E.13247
G1 X63.199 Y116.891 E.05253
G1 X63.199 Y93.066 E.74702
G1 X63.84 Y91.519 E.0525
G1 X66.786 Y88.574 E.13061
M204 S1000
;WIPE_START
G1 F8640
G1 X66.828 Y88.531 E-.01388
G1 X68.375 Y87.89 E-.38666
G1 X70.105 Y87.89 E-.39946
;WIPE_END
G1 Z.6 F720
G1 X68.07 Y90.999 F10800
G1 Z.2 F720
G1 E.8 F2100
M204 S800
G1 F1200
G1 X69.439 Y90.46 E.04613
G1 X70.193 Y90.365 E.02383
G1 X170.477 Y90.369 E3.14433
G1 X171.497 Y90.563 E.03255
M73 P2 R33
M73 Q2 S33
G1 X172.476 Y90.978 E.03334
G1 X173.6 Y91.874 E.04507
G1 X174.493 Y93.212 E.05044
G1 X174.901 Y94.758 E.05013
G1 X174.882 Y115.345 E.64549
G1 X174.498 Y116.735 E.04521
G1 X173.684 Y117.991 E.04693
G1 X172.506 Y118.958 E.04779
G1 X171.137 Y119.498 E.04614
G1 X170.383 Y119.592 E.02382
G1 X70.068 Y119.592 E3.14531
G1 X68.589 Y119.214 E.04786
G1 X67.322 Y118.415 E.04697
G1 X66.34 Y117.249 E.0478
G1 X65.769 Y115.827 E.04805
G1 X65.674 Y115.074 E.0238
G1 X65.694 Y94.612 E.64157
G1 X66.078 Y93.223 E.04518
G1 X66.892 Y91.966 E.04695
G1 X68.024 Y91.037 E.04592
M204 S1000
G1 X68.024 Y91.037 F10800
G1 X68.238 Y91.338
M204 S800
G1 F1200
G1 X69.511 Y90.831 E.04296
G1 X70.205 Y90.742 E.02194
G1 X170.459 Y90.746 E3.14339
G1 X171.405 Y90.929 E.03021
G1 X172.303 Y91.314 E.03063
G1 X173.341 Y92.15 E.04179
G1 X174.137 Y93.34 E.04489
G1 X174.524 Y94.783 E.04684
G1 X174.512 Y115.272 E.64242
G1 X174.165 Y116.557 E.04173
G1 X173.42 Y117.72 E.04331
G1 X172.338 Y118.619 E.04411
G1 X171.065 Y119.127 E.04297
G1 X170.371 Y119.215 E.02193
G1 X70.093 Y119.215 E3.14415
G1 X68.714 Y118.857 E.04467
M73 P3 R33
M73 Q3 S33
G1 X67.55 Y118.114 E.0433
G1 X66.649 Y117.031 E.04417
G1 X66.14 Y115.756 E.04304
G1 X66.052 Y115.062 E.02193
G1 X66.064 Y94.686 E.63888
G1 X66.411 Y93.401 E.04173
G1 X67.156 Y92.237 E.04333
G1 X68.192 Y91.377 E.04222
M204 S1000
G1 X68.192 Y91.377 F10800
G1 X68.431 Y91.668
M204 S800
G1 F1200
G1 X68.454 Y91.649 E.00094
G1 X69.583 Y91.202 E.03807
G1 X70.217 Y91.119 E.02005
G1 X170.44 Y91.123 E3.14242
G1 X171.312 Y91.295 E.02787
G1 X172.128 Y91.649 E.02789
G1 X173.081 Y92.423 E.03849
G1 X173.805 Y93.522 E.04126
G1 X174.147 Y94.807 E.04169
G1 X174.141 Y115.197 E.63931
G1 X173.808 Y116.429 E.04001
G1 X173.12 Y117.49 E.03965
G1 X172.122 Y118.309 E.04048
G1 X170.993 Y118.756 E.03807
G1 X170.359 Y118.838 E.02004
G1 X70.116 Y118.838 E3.14305
G1 X68.889 Y118.522 E.03973
M73 P3 R32
G1 X67.819 Y117.847 E.03967
G1 X66.987 Y116.861 E.04045
G1 X66.511 Y115.683 E.03984
G1 X66.429 Y115.049 E.02004
G1 X66.435 Y94.76 E.63615
G1 X66.768 Y93.528 E.04001
G1 X67.456 Y92.468 E.03962
G1 X68.385 Y91.706 E.03767
M204 S1000
G1 X68.385 Y91.706 F10800
G1 X68.62 Y91.989
M204 S800
G1 F1200
G1 X68.623 Y91.987 E.00011
G1 X69.656 Y91.572 E.03491
G1 X70.23 Y91.496 E.01815
G1 X170.421 Y91.5 E3.14142
G1 X171.217 Y91.66 E.02546
M73 P4 R32
M73 Q4 S33
G1 X171.952 Y91.984 E.02519
G1 X172.818 Y92.696 E.03515
G1 X173.473 Y93.701 E.03761
G1 X173.77 Y94.831 E.03663
G1 X173.77 Y115.126 E.63634
G1 X173.474 Y116.252 E.0365
G1 X172.856 Y117.219 E.03598
G1 X171.953 Y117.97 E.03683
G1 X170.92 Y118.385 E.03491
G1 X170.346 Y118.461 E.01815
G1 X70.141 Y118.461 E3.14186
G1 X69.014 Y118.165 E.03653
M73 Q4 S32
G1 X68.047 Y117.546 E.036
G1 X67.296 Y116.644 E.0368
G1 X66.882 Y115.61 E.03492
G1 X66.806 Y115.037 E.01812
G1 X66.806 Y94.832 E.63351
G1 X67.102 Y93.705 E.03653
G1 X67.72 Y92.738 E.03598
G1 X68.574 Y92.028 E.03482
M204 S1000
G1 X68.574 Y92.028 F10800
G1 X68.794 Y92.325
M204 S800
G1 F1200
G1 X69.731 Y91.943 E.03173
G1 X70.243 Y91.874 E.0162
G1 X170.402 Y91.877 E3.14042
G1 X171.084 Y92.014 E.02181
G1 X171.775 Y92.318 E.02367
G1 X172.555 Y92.967 E.03181
G1 X173.117 Y93.829 E.03226
G1 X173.393 Y94.856 E.03334
G1 X173.393 Y115.102 E.6348
G1 X173.139 Y116.077 E.03159
G1 X172.589 Y116.951 E.03238
G1 X171.782 Y117.633 E.03313
G1 X170.845 Y118.015 E.03173
G1 X170.333 Y118.084 E.0162
G1 X70.165 Y118.084 E3.1407
G1 X69.19 Y117.83 E.03159
M73 P5 R32
M73 Q5 S32
G1 X68.315 Y117.28 E.0324
G1 X67.634 Y116.473 E.03311
G1 X67.252 Y115.535 E.03176
G1 X67.183 Y115.024 E.01617
G1 X67.183 Y94.856 E.63235
G1 X67.437 Y93.881 E.03159
G1 X67.987 Y93.006 E.0324
G1 X68.748 Y92.363 E.03124
M204 S1000
G1 X68.748 Y92.363 F10800
G1 X68.967 Y92.661
M204 S800
G1 F1200
G1 X69.808 Y92.313 E.02854
G1 X70.256 Y92.251 E.01418
G1 X170.383 Y92.254 E3.13941
G1 X170.986 Y92.378 E.0193
G1 X171.596 Y92.651 E.02095
G1 X172.289 Y93.236 E.02844
G1 X172.783 Y94.007 E.02871
G1 X173.016 Y94.881 E.02836
G1 X173.016 Y115.077 E.63323
G1 X172.783 Y115.952 E.02839
G1 X172.322 Y116.684 E.02712
G1 X171.609 Y117.297 E.02948
G1 X170.768 Y117.645 E.02854
G1 X170.32 Y117.707 E.01418
G1 X70.19 Y117.707 E3.13951
G1 X69.315 Y117.473 E.0284
G1 X68.582 Y117.012 E.02715
G1 X67.97 Y116.3 E.02944
G1 X67.622 Y115.459 E.02854
G1 X67.56 Y115.011 E.01418
G1 X67.56 Y94.881 E.63116
G1 X67.793 Y94.006 E.02839
G1 X68.254 Y93.273 E.02715
G1 X68.921 Y92.7 E.02757
M204 S1000
G1 X68.921 Y92.7 F10800
G1 X69.164 Y92.987
M204 S800
G1 F1200
G1 X69.187 Y92.968 E.00094
G1 X69.884 Y92.683 E.02361
G1 X70.27 Y92.628 E.01223
G1 X170.362 Y92.631 E3.13831
G1 X170.887 Y92.743 E.01683
G1 X171.415 Y92.982 E.01817
G1 X172.022 Y93.503 E.02508
G1 X172.427 Y94.134 E.02351
G1 X172.639 Y94.907 E.02513
G1 X172.639 Y115.051 E.6316
G1 X172.427 Y115.823 E.0251
M73 P6 R32
G1 X172.021 Y116.456 E.02358
M73 Q6 S32
G1 X171.389 Y116.989 E.02592
G1 X170.692 Y117.275 E.02362
G1 X170.306 Y117.33 E.01223
G1 X70.216 Y117.33 E3.13825
G1 X69.444 Y117.118 E.0251
G1 X68.811 Y116.711 E.0236
G1 X68.278 Y116.08 E.0259
G1 X67.992 Y115.383 E.02362
G1 X67.937 Y114.997 E.01223
G1 X67.937 Y94.907 E.62991
G1 X68.149 Y94.134 E.02513
G1 X68.555 Y93.502 E.02355
G1 X69.118 Y93.026 E.02312
M204 S1000
G1 X69.118 Y93.026 F10800
G1 X69.36 Y93.305
M204 S800
G1 F1200
G1 X69.361 Y93.304 E.00004
G1 X69.963 Y93.052 E.02046
G1 X70.284 Y93.005 E.01017
G1 X170.341 Y93.008 E3.13722
G1 X170.785 Y93.106 E.01426
M73 P6 R31
G1 X171.231 Y93.313 E.01542
G1 X171.754 Y93.769 E.02176
G1 X172.073 Y94.265 E.01849
G1 X172.262 Y94.934 E.0218
G1 X172.262 Y115.024 E.62991
G1 X172.073 Y115.693 E.0218
G1 X171.753 Y116.189 E.01851
G1 X171.215 Y116.654 E.0223
G1 X170.613 Y116.905 E.02045
G1 X170.292 Y116.953 E.01018
G1 X70.243 Y116.953 E3.13697
G1 X69.574 Y116.763 E.02181
G1 X69.078 Y116.444 E.01849
G1 X68.613 Y115.905 E.02232
G1 X68.361 Y115.303 E.02046
G1 X68.314 Y114.983 E.01014
G1 X68.314 Y94.934 E.62862
G1 X68.503 Y94.265 E.0218
G1 X68.823 Y93.769 E.01851
G1 X69.314 Y93.345 E.02034
M204 S1000
G1 X69.314 Y93.345 F10800
G1 X69.539 Y93.638
M204 S800
G1 F1200
G1 X70.045 Y93.421 E.01726
G1 X170.319 Y93.385 E3.14402
G1 X171.044 Y93.641 E.02411
M73 P7 R31
M73 Q7 S31
G1 X171.484 Y94.033 E.01848
G1 X171.719 Y94.398 E.01361
G1 X171.885 Y94.962 E.01843
G1 X171.885 Y114.996 E.62815
G1 X171.719 Y115.559 E.0184
G1 X171.483 Y115.924 E.01363
G1 X171.037 Y116.32 E.0187
G1 X170.531 Y116.537 E.01726
G1 X70.271 Y116.576 E3.14358
G1 X69.708 Y116.41 E.0184
G1 X69.342 Y116.174 E.01365
G1 X68.947 Y115.727 E.0187
G1 X68.73 Y115.221 E.01726
G1 X68.691 Y94.962 E.63521
G1 X68.857 Y94.398 E.01843
G1 X69.093 Y94.033 E.01363
G1 X69.494 Y93.677 E.01681
M204 S1000
G1 X69.494 Y93.677 F10800
G1 X69.722 Y93.969
M204 S800
G1 F1200
G1 X70.315 Y93.759 E.01972
G1 X170.297 Y93.763 E3.13487
G1 X170.856 Y93.969 E.01868
G1 X171.211 Y94.294 E.01509
G1 X171.508 Y94.991 E.02376
G1 X171.508 Y114.966 E.6263
G1 X171.211 Y115.663 E.02376
G1 X170.854 Y115.988 E.01514
G1 X170.261 Y116.198 E.01972
G1 X70.3 Y116.198 E3.13421
G1 X69.603 Y115.901 E.02376
M73 P8 R31
M73 Q8 S31
G1 X69.278 Y115.545 E.01511
G1 X69.068 Y114.952 E.01972
G1 X69.068 Y94.991 E.62586
G1 X69.365 Y94.294 E.02376
G1 X69.677 Y94.009 E.01325
M204 S1000
G1 X69.677 Y94.009 F10800
G1 X69.909 Y94.298
M204 S800
G1 F1200
G1 X70.221 Y94.155 E.01076
G1 X170.275 Y94.14 E3.13712
G1 X170.666 Y94.297 E.01321
G1 X170.935 Y94.551 E.0116
G1 X171.131 Y95.023 E.01602
G1 X171.131 Y114.935 E.62433
G1 X170.935 Y115.406 E.016
G1 X170.667 Y115.66 E.01158
G1 X170.354 Y115.802 E.01078
G1 X70.332 Y115.821 E3.13612
G1 X69.861 Y115.625 E.016
G1 X69.607 Y115.358 E.01155
G1 X69.465 Y115.045 E.01078
G1 X69.445 Y95.023 E.62778
G1 X69.641 Y94.551 E.01602
G1 X69.865 Y94.339 E.00967
M204 S1000
G1 X69.865 Y94.339 F10800
G1 X70.104 Y94.674
M204 S800
G1 F1200
G1 X70.321 Y94.519 E.00836
G1 X170.223 Y94.513 E3.13236
G1 X170.654 Y94.803 E.01629
M73 P9 R31
G1 X170.754 Y95.058 E.00859
G1 X170.754 Y114.9 E.62213
G1 X170.654 Y115.154 E.00856
M73 Q9 S31
G1 X170.255 Y115.438 E.01536
G1 X70.367 Y115.444 E3.13192
G1 X70.113 Y115.345 E.00855
G1 X69.829 Y114.946 E.01536
G1 X69.822 Y95.058 E.62357
G1 X69.922 Y94.803 E.00859
G1 X70.055 Y94.709 E.00511
M204 S1000
G1 X70.055 Y94.709 F10800
G1 X70.323 Y94.977
M204 S800
G1 F1200
G1 X70.409 Y94.89 E.00384
G1 X170.236 Y94.919 E3.13001
G1 X170.377 Y95.1 E.00719
M73 P9 R30
G1 X170.377 Y114.858 E.6195
G1 X170.167 Y115.067 E.00929
G1 X70.409 Y115.067 E3.12784
G1 X70.199 Y114.858 E.00929
G1 X70.199 Y95.1 E.6195
G1 X70.28 Y95.019 E.00359
M204 S1000
;WIPE_START
G1 F8640
G1 X70.323 Y94.977 E-.01388
G1 X70.409 Y94.89 E-.02825
G1 X73.691 Y94.891 E-.75787
;WIPE_END
G1 Z.6 F720
; printing object FlatBeam v1.stl id:0 copy 0
G1 X169.501 Y114.192 F10800
G1 Z.2 F720
G1 E.8 F2100
M204 S800
;TYPE:Perimeter
;WIDTH:0.419999
G1 F1200
M73 P10 R30
G1 X71.075 Y114.192 E3.08607
G1 X71.075 Y95.766 E.57773
M73 Q10 S30
G1 X169.501 Y95.766 E3.08607
G1 X169.501 Y104.979 E.28887
G1 X169.501 Y114.132 E.28699
M204 S1000
G1 X169.501 Y114.132 F10800
G1 X169.878 Y114.569
M204 S800
;TYPE:External perimeter
G1 F1200
G1 X70.698 Y114.569 E3.10971
G1 X70.698 Y95.389 E.60137
G1 X169.878 Y95.389 E3.10971
G1 X169.878 Y104.979 E.30069
M73 P11 R30
M73 Q11 S30
G1 X169.878 Y114.509 E.29881
M204 S1000
;WIPE_START
G1 F8640
G1 X169.878 Y114.569 E-.01385
G1 X166.473 Y114.569 E-.78615
;WIPE_END
G1 Z.6 F720
G1 X168.565 Y95.935 F10800
G1 Z.2 F720
G1 E.8 F2100
M204 S800
;TYPE:Solid infill
;WIDTH:0.421721
G1 F1200
G1 X169.162 Y96.532 E.02659
G1 X169.162 Y97.067 E.01685
G1 X168.199 Y96.105 E.04287
G1 X167.664 Y96.105 E.01685
G1 X169.162 Y97.603 E.06673
G1 X169.162 Y98.139 E.01688
G1 X167.128 Y96.105 E.0906
G1 X166.592 Y96.105 E.01688
G1 X169.162 Y98.675 E.11448
G1 X169.162 Y99.21 E.01685
G1 X166.056 Y96.105 E.13833
G1 X165.521 Y96.105 E.01685
G1 X169.162 Y99.746 E.16219
G1 X169.162 Y100.282 E.01688
G1 X164.985 Y96.105 E.18606
G1 X164.449 Y96.105 E.01688
G1 X169.162 Y100.817 E.20991
G1 X169.162 Y101.353 E.01688
G1 X163.914 Y96.105 E.23377
G1 X163.378 Y96.105 E.01688
G1 X169.162 Y101.889 E.25764
G1 X169.162 Y102.424 E.01685
G1 X162.842 Y96.105 E.2815
G1 X162.307 Y96.105 E.01685
G1 X169.162 Y102.96 E.30535
G1 X169.162 Y103.496 E.01688
G1 X161.771 Y96.105 E.32923
G1 X161.235 Y96.105 E.01688
G1 X169.162 Y104.032 E.3531
G1 X169.162 Y104.567 E.01685
G1 X160.699 Y96.105 E.37695
G1 X160.164 Y96.105 E.01685
G1 X169.162 Y105.103 E.40081
G1 X169.162 Y105.639 E.01688
G1 X159.628 Y96.105 E.42468
G1 X159.092 Y96.105 E.01688
G1 X169.162 Y106.174 E.44854
G1 X169.162 Y106.71 E.01688
G1 X158.557 Y96.105 E.47239
G1 X158.021 Y96.105 E.01688
G1 X169.162 Y107.246 E.49627
G1 X169.162 Y107.782 E.01688
G1 X157.485 Y96.105 E.52014
G1 X156.949 Y96.105 E.01688
G1 X169.162 Y108.317 E.54399
G1 X169.162 Y108.853 E.01688
G1 X156.414 Y96.105 E.56785
G1 X155.878 Y96.105 E.01688
G1 X169.162 Y109.389 E.59172
G1 X169.162 Y109.924 E.01685
G1 X155.342 Y96.105 E.61558
G1 X154.807 Y96.105 E.01685
G1 X169.162 Y110.46 E.63943
G1 X169.162 Y110.996 E.01688
G1 X154.271 Y96.105 E.66331
G1 X153.735 Y96.105 E.01688
G1 X169.162 Y111.531 E.68716
G1 X169.162 Y112.067 E.01688
M73 P12 R30
G1 X153.2 Y96.105 E.71101
G1 X152.664 Y96.105 E.01688
M73 Q12 S30
G1 X169.162 Y112.603 E.73489
G1 X169.162 Y113.139 E.01688
G1 X152.128 Y96.105 E.75876
G1 X151.592 Y96.105 E.01688
G1 X169.162 Y113.674 E.78262
G1 X169.162 Y113.852 E.00561
G1 X168.804 Y113.852 E.01128
G1 X151.057 Y96.105 E.79052
G1 X150.521 Y96.105 E.01688
M73 P12 R29
G1 X168.268 Y113.852 E.79052
G1 X167.732 Y113.852 E.01688
G1 X149.985 Y96.105 E.79052
G1 X149.45 Y96.105 E.01685
G1 X167.197 Y113.852 E.79052
G1 X166.661 Y113.852 E.01688
G1 X148.914 Y96.105 E.79052
G1 X148.378 Y96.105 E.01688
G1 X166.125 Y113.852 E.79052
G1 X165.59 Y113.852 E.01685
G1 X147.842 Y96.105 E.79055
G1 X147.307 Y96.105 E.01685
G1 X165.054 Y113.852 E.79052
G1 X164.518 Y113.852 E.01688
G1 X146.771 Y96.105 E.79052
G1 X146.235 Y96.105 E.01688
G1 X163.982 Y113.852 E.79052
G1 X163.447 Y113.852 E.01685
G1 X145.7 Y96.105 E.79052
G1 X145.164 Y96.105 E.01688
M73 Q12 S29
G1 X162.911 Y113.852 E.79052
G1 X162.375 Y113.852 E.01688
M73 P13 R29
G1 X144.628 Y96.105 E.79052
G1 X144.093 Y96.105 E.01685
M73 Q13 S29
G1 X161.84 Y113.852 E.79052
G1 X161.304 Y113.852 E.01688
G1 X143.557 Y96.105 E.79052
G1 X143.021 Y96.105 E.01688
G1 X160.768 Y113.852 E.79052
G1 X160.233 Y113.852 E.01685
G1 X142.485 Y96.105 E.79055
G1 X141.95 Y96.105 E.01685
G1 X159.697 Y113.852 E.79052
G1 X159.161 Y113.852 E.01688
G1 X141.414 Y96.105 E.79052
G1 X140.878 Y96.105 E.01688
G1 X158.625 Y113.852 E.79052
G1 X158.09 Y113.852 E.01685
G1 X140.343 Y96.105 E.79052
G1 X139.807 Y96.105 E.01688
G1 X157.554 Y113.852 E.79052
G1 X157.018 Y113.852 E.01688
G1 X139.271 Y96.105 E.79052
G1 X138.735 Y96.105 E.01688
G1 X156.483 Y113.852 E.79055
G1 X155.947 Y113.852 E.01688
G1 X138.2 Y96.105 E.79052
G1 X137.664 Y96.105 E.01688
G1 X155.411 Y113.852 E.79052
G1 X154.875 Y113.852 E.01688
G1 X137.128 Y96.105 E.79052
G1 X136.593 Y96.105 E.01685
G1 X154.34 Y113.852 E.79052
G1 X153.804 Y113.852 E.01688
M73 P14 R29
G1 X136.057 Y96.105 E.79052
G1 X135.521 Y96.105 E.01688
M73 Q14 S29
G1 X153.268 Y113.852 E.79052
