; generated by PrusaSlicer 2.9.0 on 2025-01-22 at 00:12:49 UTC


;
;
; 

; external perimeters extrusion width = 0.60mm
; perimeters extrusion width = 0.50mm
; infill extrusion width = 0.50mm
; solid infill extrusion width = 0.50mm
; top infill extrusion width = 0.45mm
; first layer extrusion width = 0.42mm

M73 P0 R102
M73 Q0 S104
M201 X1000 Y1000 Z200 E5000 ; sets maximum accelerations, mm/sec^2
M203 X200 Y200 Z12 E120 ; sets maximum feedrates, mm / sec
M204 S1250 T1250 ; sets acceleration (S) and retract acceleration (R), mm/sec^2
M205 X8.00 Y8.00 Z0.40 E4.50 ; sets the jerk limits, mm/sec
M205 S0 T0 ; sets the minimum extruding and travel feed rate, mm/sec

; printing object 150mm-cf-v2.stl id:0 copy 0
; stop printing object 150mm-cf-v2.stl id:0 copy 0

;TYPE:Custom
M862.3 P "MK3S" ; printer model check
M862.1 P0.4 ; nozzle diameter check
M115 U3.14.1 ; tell printer latest fw version
G90 ; use absolute coordinates
M83 ; extruder relative mode
M104 S215 ; set extruder temp
M140 S60 ; set bed temp
M190 S60 ; wait for bed temp
M109 S215 ; wait for extruder temp
G28 W ; home all without mesh bed level
G80 X22.6515 Y77.6515 W204.697 H54.697 ; mesh bed levelling

G1 Z0.2 F720
G1 Y-3 F1000 ; go outside print area
G92 E0
G1 X60 E9 F1000 ; intro line
G1 X100 E12.5 F1000 ; intro line

G92 E0
M221 S95

; Don't change E values below. Excessive value can damage the printer.

M907 E538 ; set extruder motor current
G21 ; set units to millimeters
G90 ; use absolute coordinates
M83 ; use relative distances for extrusion

M900 K0.05 ; Filament gcode LA 1.5
M900 K30 ; Filament gcode LA 1.0




M107
;LAYER_CHANGE
;Z:0.2
;HEIGHT:0.2
G1 E-.8 F2100
G1 Z.6 F720
G1 X37.65 Y80.81 F10800
G1 Z.2 F720
G1 E.8 F2100
M204 S800
;TYPE:Skirt/Brim
;WIDTH:0.42
G1 F1200
G1 X40.228 Y79.659 E.08852
G1 X42.554 Y78.881 E.0769
G1 X45.262 Y78.257 E.08713
G1 X47.611 Y77.945 E.0743
G1 X49.98 Y77.84 E.07435
G1 X200.02 Y77.84 E4.7044
G1 X202.795 Y77.984 E.08713
G1 X205.161 Y78.335 E.075
G1 X207.526 Y78.904 E.07627
G1 X210.133 Y79.801 E.08644
G1 X212.349 Y80.81 E.07634
G1 X214.428 Y81.989 E.07494
G1 X216.378 Y83.334 E.07427
G1 X218.491 Y85.106 E.08646
G1 X220.169 Y86.81 E.07498
G1 X221.716 Y88.688 E.07629
G1 X223.258 Y90.974 E.08646
G1 X224.401 Y93.074 E.07497
G1 X225.364 Y95.287 E.07567
G1 X226.116 Y97.542 E.07453
G1 X226.74 Y100.243 E.08692
G1 X227.055 Y102.611 E.0749
G1 X227.16 Y105.041 E.07626
G1 X227.016 Y107.788 E.08625
G1 X226.665 Y110.161 E.07521
G1 X226.102 Y112.508 E.07568
G1 X225.341 Y114.772 E.07489
G1 X224.223 Y117.284 E.08621
G1 X223.045 Y119.374 E.07522
G1 X221.673 Y121.369 E.07592
G1 X219.892 Y123.493 E.08691
G1 X218.19 Y125.169 E.0749
G1 X216.313 Y126.715 E.07624
G1 X214.024 Y128.259 E.08657
G1 X211.897 Y129.416 E.07592
G1 X209.706 Y130.366 E.07488
G1 X207.069 Y131.224 E.08695
G1 X204.738 Y131.743 E.07488
G1 X202.389 Y132.055 E.0743
G1 X200.01 Y132.16 E.07466
G1 X49.99 Y132.16 E4.70377
G1 X46.712 Y131.96 E.10297
G1 X44.777 Y131.653 E.06143
G1 X42.493 Y131.102 E.07367
G1 X40.315 Y130.374 E.072
G1 X38.502 Y129.606 E.06174
G1 X36.456 Y128.542 E.07231
G1 X34.794 Y127.504 E.06144
G1 X32.94 Y126.133 E.0723
M73 Q0 S103
G1 X31.447 Y124.836 E.06201
G1 X29.844 Y123.204 E.07173
G1 X28.572 Y121.689 E.06202
G1 X27.234 Y119.811 E.0723
G1 X26.043 Y117.796 E.07339
G1 X25.171 Y116.009 E.06235
G1 X24.327 Y113.863 E.0723
G1 X23.755 Y111.99 E.0614
G1 X23.257 Y109.738 E.07232
G1 X22.94 Y107.326 E.07628
G1 X22.845 Y104.504 E.08853
G1 X23.038 Y101.731 E.08716
G1 X23.442 Y99.313 E.07687
G1 X24.162 Y96.628 E.08716
G1 X25.171 Y93.991 E.08853
G1 X26.265 Y91.797 E.07687
G1 X27.739 Y89.44 E.08716
G1 X29.221 Y87.51 E.0763
G1 X31.149 Y85.447 E.08853
G1 X33.246 Y83.623 E.08714
G1 X35.242 Y82.2 E.07686
G1 X37.598 Y80.84 E.08529
M204 S1000
;WIPE_START
G1 F8640
G1 X37.65 Y80.81 E-.01386
G1 X40.228 Y79.659 E-.6519
G1 X40.779 Y79.475 E-.13424
;WIPE_END
G1 Z.6 F720
G1 X38.769 Y83.051 F10800
G1 Z.2 F720
G1 E.8 F2100
M204 S800
G1 F1200
G1 X39.571 Y82.626 E.02846
G1 X41.897 Y81.683 E.0787
G1 X44.359 Y80.969 E.08037
G1 X46.51 Y80.563 E.06863
G1 X48.227 Y80.379 E.05414
G1 X49.96 Y80.315 E.05437
G1 X200.029 Y80.315 E4.70531
G1 X202.228 Y80.416 E.06902
M73 P0 R101
G1 X204.634 Y80.754 E.07618
G1 X206.799 Y81.27 E.06978
G1 X208.916 Y81.982 E.07003
G1 X210.892 Y82.848 E.06764
G1 X213.113 Y84.086 E.07973
G1 X214.912 Y85.328 E.06854
G1 X216.863 Y86.973 E.08001
G1 X218.391 Y88.535 E.06851
G1 X219.993 Y90.521 E.08
G1 X221.194 Y92.344 E.06845
G1 X222.334 Y94.488 E.07614
G1 X223.209 Y96.593 E.07148
G1 X223.861 Y98.677 E.06847
G1 X224.367 Y101.051 E.07611
G1 X224.628 Y103.316 E.07149
G1 X224.681 Y105.469 E.06753
G1 X224.542 Y107.648 E.06846
G1 X224.16 Y110.065 E.07672
G1 X223.584 Y112.29 E.07206
G1 X222.752 Y114.574 E.07622
G1 X221.778 Y116.623 E.07113
G1 X220.664 Y118.503 E.06852
G1 X219.16 Y120.564 E.08
G1 X217.709 Y122.197 E.06849
G1 X215.88 Y123.899 E.07834
G1 X214.096 Y125.264 E.07043
G1 X212.035 Y126.552 E.0762
G1 X210.037 Y127.552 E.07005
G1 X207.965 Y128.364 E.06978
G1 X205.639 Y129.032 E.07588
G1 X203.49 Y129.437 E.06857
G1 X201.773 Y129.621 E.05414
G1 X200.04 Y129.685 E.05437
G1 X49.97 Y129.685 E4.70534
G1 X47.391 Y129.547 E.08098
G1 X45.252 Y129.224 E.06783
G1 X43.268 Y128.749 E.06396
G1 X41.205 Y128.065 E.06815
G1 X39.542 Y127.361 E.05662
G1 X37.705 Y126.405 E.06493
G1 X36.151 Y125.434 E.05745
G1 X34.435 Y124.159 E.06703
G1 X32.825 Y122.73 E.0675
G1 X31.406 Y121.236 E.06461
G1 X30.253 Y119.812 E.05745
G1 X29.041 Y118.041 E.06729
G1 X27.988 Y116.173 E.06723
G1 X27.133 Y114.298 E.06461
G1 X26.514 Y112.601 E.05664
G1 X25.939 Y110.516 E.06781
G1 X25.561 Y108.478 E.06499
G1 X25.345 Y106.213 E.07134
G1 X25.35 Y103.692 E.07904
G1 X25.607 Y101.215 E.07808
G1 X26.065 Y98.962 E.07209
G1 X26.774 Y96.64 E.07612
G1 X27.657 Y94.505 E.07244
G1 X28.848 Y92.274 E.0793
G1 X30.257 Y90.183 E.07906
G1 X31.709 Y88.424 E.07152
G1 X33.511 Y86.63 E.07973
G1 X35.201 Y85.243 E.06855
G1 X37.346 Y83.805 E.08097
G1 X38.716 Y83.079 E.04861
M204 S1000
G1 X38.716 Y83.079 F10800
G1 X38.868 Y83.405
M204 S800
G1 F1200
G1 X40.864 Y82.475 E.06904
G1 X43.237 Y81.652 E.07875
G1 X45.429 Y81.126 E.07068
G1 X48.261 Y80.755 E.08955
G1 X49.963 Y80.692 E.0534
G1 X200.027 Y80.692 E4.70515
G1 X202.189 Y80.791 E.06786
M73 P1 R101
G1 X203.382 Y80.929 E.03766
G1 X204.568 Y81.126 E.0377
G1 X206.691 Y81.631 E.06842
G1 X208.775 Y82.332 E.06894
G1 X210.721 Y83.184 E.06661
G1 X212.911 Y84.404 E.0786
M73 Q1 S103
G1 X214.68 Y85.626 E.06741
G1 X216.603 Y87.246 E.07884
G1 X218.107 Y88.783 E.06743
G1 X219.686 Y90.74 E.07884
G1 X220.868 Y92.534 E.06736
G1 X221.995 Y94.653 E.07525
G1 X222.854 Y96.719 E.07015
G1 X223.496 Y98.769 E.06735
G1 X223.995 Y101.116 E.07523
G1 X224.251 Y103.339 E.07016
G1 X224.27 Y106.346 E.09428
G1 X224.009 Y108.802 E.07744
G1 X223.79 Y109.992 E.03794
G1 X223.225 Y112.174 E.07067
G1 X222.842 Y113.313 E.03768
G1 X222 Y115.338 E.06876
G1 X221.014 Y117.218 E.06656
G1 X219.64 Y119.322 E.07879
G1 X218.869 Y120.325 E.03967
G1 X217.441 Y121.931 E.06738
G1 X216.563 Y122.792 E.03856
G1 X214.686 Y124.37 E.07689
G1 X212.882 Y125.614 E.06871
G1 X210.972 Y126.69 E.06874
G1 X209.887 Y127.206 E.03767
G1 X207.848 Y128.006 E.06868
G1 X205.548 Y128.666 E.07503
G1 X203.433 Y129.064 E.06748
G1 X201.74 Y129.245 E.05339
G1 X200.036 Y129.308 E.05346
G1 X49.973 Y129.308 E4.70512
G1 X48.707 Y129.273 E.03971
G1 X46.545 Y129.061 E.06811
G1 X44.464 Y128.669 E.0664
G1 X42.423 Y128.097 E.06646
G1 X39.704 Y127.02 E.0917
G1 X37.89 Y126.077 E.0641
G1 X36.365 Y125.124 E.05638
G1 X34.675 Y123.868 E.06602
G1 X33.089 Y122.461 E.06648
G1 X31.688 Y120.986 E.06378
G1 X29.887 Y118.65 E.09248
G1 X28.913 Y117.091 E.05764
G1 X27.94 Y115.209 E.06643
G1 X26.874 Y112.487 E.09166
G1 X26.307 Y110.434 E.06678
G1 X25.934 Y108.421 E.06419
G1 X25.722 Y106.2 E.06995
G1 X25.726 Y103.717 E.07785
G1 X25.981 Y101.268 E.0772
G1 X26.429 Y99.059 E.07067
G1 X27.13 Y96.764 E.07524
G1 X27.997 Y94.669 E.07109
G1 X29.169 Y92.472 E.07807
G1 X29.836 Y91.424 E.03895
G1 X31.333 Y89.431 E.07815
G1 X32.849 Y87.774 E.07042
G1 X34.432 Y86.332 E.06714
G1 X36.46 Y84.812 E.07946
G1 X38.616 Y83.523 E.07876
G1 X38.814 Y83.431 E.00685
M204 S1000
G1 X38.814 Y83.431 F10800
G1 X39 Y83.782
M204 S800
G1 F1200
G1 X39.89 Y83.31 E.03159
G1 X42.154 Y82.392 E.0766
G1 X44.542 Y81.7 E.07795
G1 X46.624 Y81.308 E.06643
G1 X48.281 Y81.131 E.05225
G1 X49.967 Y81.069 E.0529
G1 X200.024 Y81.069 E4.70493
G1 X202.15 Y81.166 E.06673
G1 X204.502 Y81.497 E.07447
G1 X206.582 Y81.992 E.06704
G1 X208.635 Y82.682 E.06791
G1 X210.55 Y83.52 E.06554
G1 X212.708 Y84.722 E.07745
G1 X214.449 Y85.923 E.06632
G1 X216.344 Y87.52 E.0777
G1 X217.823 Y89.031 E.06629
G1 X219.379 Y90.959 E.07768
G1 X220.542 Y92.724 E.06627
G1 X221.656 Y94.818 E.07437
G1 X222.498 Y96.845 E.06882
G1 X223.13 Y98.861 E.06624
G1 X223.624 Y101.182 E.0744
G1 X223.875 Y103.362 E.0688
G1 X223.927 Y105.449 E.06546
G1 X223.794 Y107.558 E.06626
G1 X223.42 Y109.919 E.07495
G1 X222.866 Y112.058 E.06928
G1 X222.053 Y114.291 E.07451
G1 X221.115 Y116.263 E.06847
G1 X220.038 Y118.083 E.06631
G1 X218.578 Y120.085 E.07769
G1 X217.174 Y121.665 E.06627
G1 X215.395 Y123.321 E.07621
G1 X213.673 Y124.64 E.06801
G1 X211.658 Y125.899 E.0745
G1 X209.738 Y126.86 E.06732
G1 X207.731 Y127.647 E.06759
M73 Q1 S102
G1 X205.457 Y128.3 E.07418
G1 X203.376 Y128.692 E.0664
G1 X201.719 Y128.869 E.05225
G1 X200.033 Y128.931 E.0529
G1 X49.976 Y128.931 E4.70493
G1 X47.476 Y128.797 E.0785
G1 X45.403 Y128.485 E.06573
G1 X43.464 Y128.021 E.06251
G1 X41.468 Y127.358 E.06595
G1 X39.865 Y126.679 E.05458
G1 X38.075 Y125.748 E.06326
G1 X36.579 Y124.814 E.0553
G1 X34.915 Y123.578 E.06499
G1 X33.354 Y122.192 E.06545
G1 X31.97 Y120.735 E.06301
G1 X30.86 Y119.365 E.05529
G1 X29.685 Y117.648 E.06523
G1 X28.663 Y115.836 E.06523
G1 X27.829 Y114.008 E.063
G1 X27.233 Y112.373 E.05456
G1 X26.675 Y110.352 E.06574
G1 X26.307 Y108.364 E.06339
G1 X26.099 Y106.187 E.06857
G1 X26.103 Y103.732 E.07697
G1 X26.354 Y101.321 E.076
G1 X26.794 Y99.155 E.0693
M73 P1 R100
G1 X27.487 Y96.887 E.07436
G1 X28.336 Y94.834 E.06966
G1 X29.49 Y92.671 E.07687
G1 X30.86 Y90.636 E.07692
G1 X32.261 Y88.938 E.06902
G1 X34.011 Y87.195 E.07744
G1 X35.645 Y85.853 E.0663
G1 X37.725 Y84.458 E.07853
G1 X38.947 Y83.81 E.04337
M204 S1000
G1 X38.947 Y83.81 F10800
G1 X39.096 Y84.13
M204 S800
G1 F1200
G1 X41.147 Y83.173 E.07096
G1 X43.456 Y82.374 E.07661
G1 X45.562 Y81.868 E.06791
G1 X48.314 Y81.507 E.08703
G1 X49.97 Y81.446 E.05196
G1 X200.022 Y81.446 E4.70478
G1 X202.111 Y81.541 E.06557
G1 X203.277 Y81.675 E.0368
G1 X204.436 Y81.868 E.03684
G1 X206.483 Y82.356 E.06598
G1 X208.494 Y83.031 E.06651
G1 X210.379 Y83.857 E.06453
G1 X212.506 Y85.04 E.07631
G1 X214.217 Y86.221 E.06519
G1 X216.084 Y87.793 E.07653
G1 X217.539 Y89.279 E.06521
G1 X219.072 Y91.178 E.07652
G1 X220.216 Y92.913 E.06516
G1 X221.317 Y94.983 E.07351
G1 X222.143 Y96.971 E.0675
G1 X222.764 Y98.954 E.06515
G1 X223.252 Y101.247 E.07351
G1 X223.498 Y103.385 E.06748
G1 X223.518 Y106.293 E.09118
G1 X223.264 Y108.684 E.07539
G1 X223.05 Y109.846 E.03705
G1 X222.507 Y111.942 E.06789
G1 X222.133 Y113.055 E.03681
G1 X221.322 Y115.008 E.0663
G1 X220.367 Y116.829 E.06447
G1 X219.031 Y118.878 E.0767
G1 X218.287 Y119.845 E.03826
G1 X216.907 Y121.399 E.06516
G1 X216.049 Y122.24 E.03767
G1 X214.222 Y123.775 E.07482
G1 X212.49 Y124.969 E.06596
G1 X210.641 Y126.013 E.06658
G1 X209.581 Y126.517 E.0368
G1 X207.614 Y127.289 E.06625
G1 X205.366 Y127.934 E.07333
G1 X203.32 Y128.319 E.06528
G1 X201.686 Y128.493 E.05152
G1 X200.03 Y128.554 E.05196
G1 X49.978 Y128.554 E4.70478
G1 X48.747 Y128.52 E.03861
G1 X46.663 Y128.316 E.06565
G1 X44.645 Y127.937 E.06438
G1 X42.667 Y127.383 E.06441
G1 X40.027 Y126.338 E.08902
G1 X38.26 Y125.419 E.06245
G1 X36.794 Y124.503 E.0542
G1 X35.156 Y123.287 E.06396
G1 X33.618 Y121.923 E.06446
G1 X32.252 Y120.485 E.06219
G1 X30.505 Y118.219 E.08971
G1 X29.572 Y116.725 E.05523
G1 X28.629 Y114.902 E.06435
G1 X27.592 Y112.258 E.08905
G1 X27.044 Y110.271 E.06463
G1 X26.68 Y108.306 E.06266
G1 X26.476 Y106.173 E.06718
G1 X26.479 Y103.757 E.07575
G1 X26.727 Y101.374 E.07512
G1 X27.159 Y99.252 E.0679
G1 X27.843 Y97.01 E.0735
G1 X28.675 Y94.998 E.06827
G1 X29.811 Y92.869 E.07566
G1 X30.462 Y91.846 E.03802
G1 X31.919 Y89.906 E.07607
G1 X33.375 Y88.316 E.0676
G1 X34.907 Y86.918 E.06503
G1 X36.872 Y85.444 E.07702
G1 X38.96 Y84.194 E.0763
G1 X39.042 Y84.156 E.00283
M204 S1000
G1 X39.042 Y84.156 F10800
G1 X39.231 Y84.512
M204 S800
G1 F1200
G1 X40.2 Y83.997 E.03441
G1 X42.41 Y83.102 E.07476
G1 X44.724 Y82.432 E.07553
G1 X46.737 Y82.054 E.06422
G1 X48.348 Y81.882 E.0508
G1 X49.974 Y81.823 E.05102
G1 X200.019 Y81.823 E4.70456
G1 X202.072 Y81.916 E.06444
M73 P2 R100
M73 Q2 S102
G1 X204.37 Y82.239 E.07276
G1 X206.384 Y82.72 E.06492
G1 X208.354 Y83.381 E.06515
G1 X210.208 Y84.193 E.06346
G1 X212.303 Y85.358 E.07516
G1 X213.986 Y86.519 E.06411
G1 X215.825 Y88.067 E.07537
G1 X217.255 Y89.527 E.06408
G1 X218.765 Y91.397 E.07536
G1 X219.89 Y93.103 E.06407
G1 X220.978 Y95.148 E.07263
G1 X221.788 Y97.097 E.06618
G1 X222.399 Y99.046 E.06404
G1 X222.881 Y101.312 E.07264
G1 X223.122 Y103.408 E.06615
G1 X223.173 Y105.43 E.06342
G1 X223.045 Y107.469 E.06406
G1 X222.68 Y109.773 E.07314
G1 X222.148 Y111.826 E.0665
G1 X221.355 Y114.007 E.07276
G1 X220.452 Y115.903 E.06585
G1 X219.412 Y117.663 E.0641
G1 X217.996 Y119.605 E.07536
G1 X216.639 Y121.133 E.06408
G1 X214.903 Y122.75 E.07439
G1 X213.25 Y124.015 E.06526
G1 X211.282 Y125.245 E.07277
G1 X209.423 Y126.175 E.06517
G1 X207.496 Y126.931 E.0649
G1 X205.275 Y127.568 E.07245
G1 X203.263 Y127.946 E.06419
G1 X201.652 Y128.118 E.0508
G1 X200.026 Y128.177 E.05102
G1 X49.981 Y128.177 E4.70456
G1 X47.561 Y128.048 E.07599
G1 X45.553 Y127.746 E.06367
G1 X43.661 Y127.293 E.061
G1 X41.73 Y126.651 E.0638
G1 X40.188 Y125.997 E.05252
G1 X38.445 Y125.091 E.06159
G1 X37.008 Y124.193 E.05313
G1 X35.396 Y122.996 E.06295
G1 X33.882 Y121.654 E.06343
G1 X32.533 Y120.234 E.06141
G1 X31.467 Y118.917 E.05313
G1 X30.329 Y117.255 E.06316
G1 X29.338 Y115.5 E.06319
G1 X28.525 Y113.718 E.06141
G1 X27.952 Y112.144 E.05252
G1 X27.412 Y110.189 E.06359
G1 X27.052 Y108.249 E.06187
G1 X26.853 Y106.16 E.0658
G1 X26.856 Y103.772 E.07487
G1 X27.101 Y101.427 E.07393
G1 X27.523 Y99.348 E.06651
G1 X28.2 Y97.133 E.07262
G1 X29.015 Y95.163 E.06685
G1 X30.136 Y93.059 E.07475
G1 X31.469 Y91.081 E.07479
G1 X32.813 Y89.452 E.06622
G1 X34.511 Y87.759 E.07518
G1 X36.09 Y86.462 E.06407
G1 X38.104 Y85.11 E.07606
G1 X39.178 Y84.54 E.03812
M204 S1000
G1 X39.178 Y84.54 F10800
G1 X39.325 Y84.855
M204 S800
G1 F1200
G1 X41.439 Y83.869 E.07314
G1 X43.675 Y83.095 E.07419
G1 X45.694 Y82.611 E.0651
G1 X48.381 Y82.258 E.08497
G1 X49.977 Y82.2 E.05007
G1 X200.017 Y82.2 E4.7044
G1 X202.033 Y82.292 E.06328
M73 Q2 S101
G1 X203.172 Y82.422 E.03594
G1 X204.304 Y82.611 E.03598
G1 X206.275 Y83.081 E.06353
G1 X208.213 Y83.731 E.06409
G1 X210.037 Y84.529 E.06242
G1 X212.101 Y85.677 E.07405
G1 X213.754 Y86.817 E.06296
G1 X215.565 Y88.34 E.07419
G1 X216.971 Y89.775 E.06299
G1 X218.458 Y91.617 E.07423
G1 X219.564 Y93.292 E.06293
G1 X220.639 Y95.313 E.07177
G1 X221.432 Y97.223 E.06484
G1 X222.033 Y99.139 E.06296
G1 X222.51 Y101.377 E.07175
G1 X222.746 Y103.432 E.06486
G1 X222.766 Y106.241 E.08808
G1 X222.519 Y108.566 E.07331
G1 X222.31 Y109.7 E.03615
G1 X221.79 Y111.71 E.0651
G1 X221.425 Y112.797 E.03595
G1 X220.643 Y114.678 E.06387
G1 X219.721 Y116.441 E.06238
G1 X218.427 Y118.426 E.07429
G1 X217.705 Y119.365 E.03714
G1 X216.372 Y120.868 E.06299
G1 X215.542 Y121.681 E.03643
G1 X213.758 Y123.18 E.07306
G1 X212.09 Y124.33 E.06352
G1 X210.309 Y125.336 E.06413
G1 X209.274 Y125.828 E.03593
G1 X207.379 Y126.572 E.06383
G1 X205.185 Y127.202 E.07157
G1 X203.206 Y127.573 E.06313
G1 X201.619 Y127.742 E.05004
G1 X200.023 Y127.8 E.05007
G1 X49.983 Y127.8 E4.7044
G1 X48.797 Y127.768 E.0372
M73 P2 R99
G1 X46.78 Y127.571 E.06354
G1 X44.826 Y127.205 E.06233
G1 X42.911 Y126.669 E.06235
G1 X40.349 Y125.656 E.08638
G1 X38.63 Y124.762 E.06075
G1 X37.222 Y123.883 E.05204
G1 X35.636 Y122.706 E.06193
G1 X34.146 Y121.385 E.06243
