; generated by PrusaSlicer 2.9.0 on 2024-12-29 at 18:31:56 UTC


;
;
; 

; external perimeters extrusion width = 0.45mm
; perimeters extrusion width = 0.45mm
; infill extrusion width = 0.45mm
; solid infill extrusion width = 0.45mm
; top infill extrusion width = 0.40mm
; first layer extrusion width = 0.42mm

M73 P0 R46
M73 Q0 S46
M201 X1000 Y1000 Z200 E8000 ; sets maximum accelerations, mm/sec^2
M203 X200 Y200 Z12 E120 ; sets maximum feedrates, mm / sec
M204 S1250 T1250 ; sets acceleration (S) and retract acceleration (R), mm/sec^2
M205 X8.00 Y8.00 Z0.40 E4.50 ; sets the jerk limits, mm/sec
M205 S0 T0 ; sets the minimum extruding and travel feed rate, mm/sec

; printing object 3D_Print_Scrapper.stl id:0 copy 0
; stop printing object 3D_Print_Scrapper.stl id:0 copy 0

;TYPE:Custom
M862.3 P "MK3SMMU3" ; printer model check
M862.1 P0.4 ; nozzle diameter check
M115 U3.14.1 ; tell printer latest fw version
G90 ; use absolute coordinates
M83 ; extruder relative mode
M104 S215 ; set extruder temp
M140 S60 ; set bed temp
M190 S60 ; wait for bed temp
M109 S215 ; wait for extruder temp
G28 W ; home all without mesh bed level
G80 X93.7229 Y45.9844 W62.5542 H118.21 ; mesh bed levelling

; Send the filament type to the MMU unit.
; E stands for extruder number, F stands for filament type (0: default; 1:flex; 2: PVA)
M403 E0 F0
M403 E1 F0
M403 E2 F0
M403 E3 F0
M403 E4 F0


;go outside print area
G1 Y-3 F1000
G1 Z0.4 F1000
; select extruder
T0
; initial load
G1 X55 E29 F1073
G1 X5 E29 F1800
G1 X55 E8 F2000
G1 Z0.3 F1000
G92 E0
G1 X240 E25 F2200
G1 Y-2 F1000
G1 X55 E25 F1400
G1 Z0.2 F1000
M73 P0 R45
G1 X5 E4 F1000
G92 E0


M221 S95
G92 E0

; Don't change E values below. Excessive value can damage the printer.
M907 E430 ; set extruder motor current
G21 ; set units to millimeters
G90 ; use absolute coordinates
M83 ; use relative distances for extrusion

M900 K0.05 ; Filament gcode LA 1.5
M900 K30 ; Filament gcode LA 1.0




M107
;LAYER_CHANGE
;Z:0.2
;HEIGHT:0.2
G1 E-.8 F2100
G1 Z.6 F720
G1 X94.552 Y49.801 F10800
G1 Z.2 F720
M73 Q0 S45
G1 E.8 F2100
M204 S800
;TYPE:Skirt/Brim
;WIDTH:0.42
G1 F1200
G1 X97.54 Y46.814 E.13247
G1 X99.088 Y46.173 E.05253
G1 X150.912 Y46.173 E1.62491
G1 X152.46 Y46.814 E.05253
G1 X155.448 Y49.801 E.13247
G1 X156.089 Y51.349 E.05253
G1 X156.089 Y81.932 E.95891
G1 X144.051 Y146.335 E2.05428
M73 P1 R45
M73 Q1 S45
G1 X143.146 Y148.644 E.07776
G1 X142.671 Y149.354 E.02678
G1 X128.66 Y163.365 E.62127
G1 X127.112 Y164.006 E.05253
G1 X122.888 Y164.006 E.13244
G1 X121.34 Y163.365 E.05253
G1 X107.329 Y149.354 E.62127
G1 X106.854 Y148.644 E.02678
G1 X105.949 Y146.335 E.07776
G1 X93.949 Y82.335 E2.04164
G1 X93.911 Y51.349 E.97155
G1 X94.53 Y49.857 E.05065
M204 S1000
;WIPE_START
G1 F8640
G1 X94.552 Y49.801 E-.01389
G1 X96.96 Y47.394 E-.78611
;WIPE_END
G1 Z.6 F720
G1 X97.052 Y50.991 F10800
G1 Z.2 F720
G1 E.8 F2100
M204 S800
G1 F1200
G1 X98.034 Y49.825 E.0478
G1 X99.301 Y49.026 E.04697
G1 X100.781 Y48.648 E.04789
G1 X149.189 Y48.652 E1.5178
G1 X150.21 Y48.846 E.03259
G1 X151.188 Y49.261 E.03331
G1 X152.313 Y50.157 E.04509
G1 X153.18 Y51.44 E.04855
G1 X153.607 Y52.992 E.05047
G1 X153.606 Y81.243 E.88579
G1 X153.342 Y82.503 E.04036
G1 X152.466 Y84.059 E.05599
G1 X141.613 Y94.911 E.48122
G1 X141.613 Y145.129 E1.57455
G1 X141.501 Y146.021 E.02819
G1 X140.473 Y148.052 E.07137
G1 X128.162 Y160.362 E.54587
G1 X127.25 Y160.987 E.03467
G1 X126.225 Y161.397 E.03461
G1 X123.9 Y161.427 E.0729
G1 X123.044 Y161.121 E.0285
G1 X121.893 Y160.417 E.0423
G1 X109.527 Y148.052 E.54831
G1 X108.499 Y146.021 E.07137
G1 X108.387 Y145.129 E.02819
G1 X108.387 Y94.911 E1.57455
G1 X97.527 Y84.052 E.48153
G1 X96.499 Y82.021 E.07137
G1 X96.387 Y81.129 E.02819
G1 X96.387 Y53.166 E.87676
G1 X96.481 Y52.413 E.02379
G1 X97.03 Y51.047 E.04616
M204 S1000
G1 X97.03 Y51.047 F10800
G1 X97.361 Y51.209
M204 S800
G1 F1200
G1 X98.262 Y50.127 E.04415
G1 X99.426 Y49.383 E.04331
G1 X100.805 Y49.025 E.04467
G1 X149.171 Y49.029 E1.51648
G1 X150.117 Y49.212 E.03021
M73 P2 R45
M73 Q2 S45
G1 X151.015 Y49.597 E.03063
G1 X152.053 Y50.433 E.04179
G1 X152.849 Y51.623 E.04489
G1 X153.236 Y53.066 E.04684
G1 X153.229 Y81.224 E.88287
G1 X152.998 Y82.346 E.03592
G1 X152.18 Y83.811 E.05261
G1 X141.236 Y94.755 E.48528
G1 X141.236 Y145.117 E1.57907
G1 X141.131 Y145.941 E.02604
G1 X140.185 Y147.806 E.06557
G1 X127.908 Y160.083 E.54438
G1 X127.056 Y160.663 E.03232
G1 X126.119 Y161.034 E.0316
G1 X123.994 Y161.061 E.06663
G1 X123.223 Y160.788 E.02564
G1 X122.143 Y160.134 E.03959
G1 X109.815 Y147.806 E.54664
G1 X108.869 Y145.941 E.06557
G1 X108.764 Y145.117 E.02604
G1 X108.764 Y94.755 E1.57907
G1 X97.815 Y83.806 E.4855
G1 X96.869 Y81.941 E.06557
G1 X96.764 Y81.117 E.02604
G1 X96.764 Y53.178 E.87601
G1 X96.852 Y52.484 E.02193
G1 X97.339 Y51.265 E.04116
M204 S1000
G1 X97.339 Y51.265 F10800
G1 X97.688 Y51.406
M204 S800
G1 F1200
G1 X97.699 Y51.379 E.00091
G1 X98.531 Y50.393 E.04045
G1 X99.601 Y49.718 E.03967
G1 X100.828 Y49.402 E.03973
G1 X149.152 Y49.406 E1.51517
G1 X150.024 Y49.578 E.02787
M73 P2 R44
G1 X150.84 Y49.932 E.02789
G1 X151.793 Y50.706 E.03849
G1 X152.517 Y51.805 E.04126
G1 X152.859 Y53.09 E.04169
G1 X152.852 Y81.205 E.88153
G1 X152.654 Y82.189 E.03147
G1 X151.895 Y83.563 E.04922
G1 X140.859 Y94.599 E.48935
G1 X140.859 Y145.105 E1.58358
G1 X140.761 Y145.86 E.02387
G1 X139.898 Y147.56 E.05978
G1 X127.654 Y159.804 E.54292
G1 X126.898 Y160.32 E.0287
G1 X126.012 Y160.67 E.02987
G1 X124.086 Y160.694 E.06039
G1 X123.399 Y160.455 E.02281
G1 X122.393 Y159.851 E.03679
G1 X110.102 Y147.56 E.545
G1 X109.239 Y145.86 E.05978
G1 X109.141 Y145.105 E.02387
G1 X109.141 Y94.599 E1.58358
G1 X98.102 Y83.56 E.48949
G1 X97.239 Y81.86 E.05978
M73 P3 R44
M73 Q3 S44
G1 X97.141 Y81.105 E.02387
G1 X97.141 Y53.191 E.87522
G1 X97.223 Y52.557 E.02004
G1 X97.666 Y51.461 E.03707
M204 S1000
G1 X97.666 Y51.461 F10800
G1 X98.008 Y51.599
M204 S800
G1 F1200
G1 X98.008 Y51.596 E.00009
G1 X98.759 Y50.694 E.0368
G1 X99.726 Y50.075 E.036
G1 X100.853 Y49.779 E.03653
G1 X149.133 Y49.783 E1.51379
G1 X149.929 Y49.943 E.02546
G1 X150.664 Y50.267 E.02519
G1 X151.53 Y50.978 E.03513
G1 X152.185 Y51.984 E.03764
G1 X152.482 Y53.114 E.03663
G1 X152.475 Y81.187 E.88021
G1 X152.309 Y82.035 E.02709
G1 X151.609 Y83.316 E.04577
G1 X140.482 Y94.442 E.49337
G1 X140.482 Y145.092 E1.5881
G1 X140.392 Y145.779 E.02172
G1 X139.61 Y147.315 E.05404
G1 X127.4 Y159.524 E.54139
G1 X126.704 Y159.996 E.02637
G1 X125.908 Y160.307 E.0268
G1 X124.178 Y160.327 E.05425
G1 X123.574 Y160.12 E.02002
G1 X122.643 Y159.567 E.03395
G1 X110.39 Y147.315 E.5433
G1 X109.608 Y145.779 E.05404
G1 X109.518 Y145.092 E.02172
G1 X109.518 Y94.442 E1.5881
G1 X98.39 Y83.315 E.49341
G1 X97.608 Y81.779 E.05404
G1 X97.518 Y81.092 E.02172
G1 X97.518 Y53.203 E.87444
G1 X97.594 Y52.63 E.01812
G1 X97.985 Y51.654 E.03297
M204 S1000
G1 X97.985 Y51.654 F10800
G1 X98.334 Y51.796
M204 S800
G1 F1200
G1 X98.346 Y51.767 E.00098
G1 X99.027 Y50.96 E.03311
G1 X99.902 Y50.41 E.0324
G1 X100.877 Y50.156 E.03159
G1 X149.115 Y50.16 E1.51247
G1 X149.796 Y50.296 E.02177
G1 X150.487 Y50.601 E.02368
G1 X151.267 Y51.25 E.03181
G1 X151.829 Y52.111 E.03224
G1 X152.105 Y53.139 E.03337
G1 X152.098 Y81.17 E.87889
G1 X151.963 Y81.882 E.02272
G1 X151.322 Y83.069 E.0423
G1 X140.105 Y94.286 E.49738
G1 X140.105 Y145.079 E1.59258
G1 X140.022 Y145.697 E.01955
G1 X139.322 Y147.069 E.04829
G1 X127.147 Y159.245 E.53988
G1 X126.513 Y159.671 E.02395
G1 X125.805 Y159.942 E.02377
G1 X124.267 Y159.959 E.04823
G1 X123.747 Y159.784 E.0172
G1 X122.892 Y159.283 E.03107
G1 X110.678 Y147.069 E.54159
G1 X109.978 Y145.697 E.04829
G1 X109.895 Y145.079 E.01955
G1 X109.895 Y94.286 E1.59258
G1 X98.678 Y83.069 E.49738
M73 P4 R44
M73 Q4 S44
G1 X97.978 Y81.697 E.04829
G1 X97.895 Y81.079 E.01955
G1 X97.895 Y53.216 E.87362
G1 X97.964 Y52.705 E.01617
G1 X98.311 Y51.852 E.02887
M204 S1000
G1 X98.311 Y51.852 F10800
G1 X98.659 Y51.996
M204 S800
G1 F1200
G1 X98.682 Y51.94 E.0019
G1 X99.294 Y51.228 E.02944
G1 X100.027 Y50.767 E.02715
G1 X100.902 Y50.533 E.0284
G1 X149.095 Y50.537 E1.51106
G1 X149.699 Y50.661 E.01933
G1 X150.308 Y50.934 E.02093
G1 X151.001 Y51.519 E.02844
G1 X151.495 Y52.289 E.02868
G1 X151.728 Y53.164 E.02839
G1 X151.724 Y81.122 E.8766
G1 X151.615 Y81.733 E.01946
G1 X151.036 Y82.823 E.0387
G1 X139.728 Y94.13 E.50139
G1 X139.728 Y145.066 E1.59706
G1 X139.653 Y145.614 E.01734
G1 X139.035 Y146.823 E.04257
G1 X126.893 Y158.965 E.5384
G1 X126.357 Y159.326 E.02026
G1 X125.701 Y159.578 E.02203
G1 X124.355 Y159.591 E.0422
G1 X123.918 Y159.448 E.01442
G1 X123.141 Y158.999 E.02814
G1 X110.965 Y146.823 E.5399
G1 X110.347 Y145.614 E.04257
G1 X110.272 Y145.066 E.01734
G1 X110.272 Y94.13 E1.59706
G1 X98.965 Y82.823 E.50137
G1 X98.347 Y81.614 E.04257
G1 X98.272 Y81.066 E.01734
G1 X98.272 Y53.23 E.87278
G1 X98.334 Y52.781 E.01421
G1 X98.636 Y52.051 E.02477
M204 S1000
G1 X98.636 Y52.051 F10800
G1 X98.977 Y52.191
M204 S800
G1 F1200
G1 X98.99 Y52.16 E.00105
G1 X99.523 Y51.529 E.0259
G1 X100.156 Y51.122 E.0236
G1 X100.928 Y50.91 E.0251
G1 X149.074 Y50.914 E1.50958
G1 X149.599 Y51.026 E.01683
G1 X150.127 Y51.265 E.01817
G1 X150.734 Y51.786 E.02508
G1 X151.139 Y52.417 E.02351
G1 X151.351 Y53.189 E.0251
G1 X151.349 Y81.078 E.87444
G1 X151.266 Y81.587 E.01617
M73 P4 R43
G1 X150.748 Y82.577 E.03503
G1 X139.351 Y93.974 E.50536
G1 X139.351 Y145.053 E1.60155
G1 X139.284 Y145.53 E.0151
G1 X138.748 Y146.577 E.03688
G1 X126.64 Y158.685 E.53689
G1 X126.167 Y159 E.01782
G1 X125.6 Y159.214 E.019
G1 X124.441 Y159.223 E.03634
G1 X124.086 Y159.11 E.01168
G1 X123.389 Y158.714 E.02513
G1 X111.252 Y146.577 E.53817
G1 X110.716 Y145.53 E.03688
M73 P5 R43
G1 X110.649 Y145.053 E.0151
M73 Q5 S44
G1 X110.649 Y93.974 E1.60155
G1 X99.252 Y82.577 E.50536
G1 X98.716 Y81.53 E.03688
G1 X98.649 Y81.053 E.0151
G1 X98.649 Y53.243 E.87196
G1 X98.704 Y52.857 E.01223
M73 Q5 S43
G1 X98.954 Y52.247 E.02067
M204 S1000
G1 X98.954 Y52.247 F10800
G1 X99.301 Y52.392
M204 S800
G1 F1200
G1 X99.325 Y52.335 E.00194
G1 X99.79 Y51.796 E.02232
G1 X100.286 Y51.477 E.01849
G1 X100.955 Y51.288 E.0218
G1 X149.053 Y51.291 E1.50808
G1 X149.497 Y51.389 E.01426
G1 X149.943 Y51.595 E.0154
G1 X150.466 Y52.052 E.02178
G1 X150.785 Y52.548 E.01849
G1 X150.974 Y53.216 E.02177
G1 X150.974 Y81.039 E.87237
G1 X150.916 Y81.445 E.01286
G1 X150.46 Y82.331 E.03124
G1 X138.974 Y93.818 E.50933
G1 X138.974 Y145.039 E1.606
G1 X138.916 Y145.445 E.01286
G1 X138.46 Y146.331 E.03124
G1 X126.387 Y158.404 E.53534
G1 X125.979 Y158.672 E.01531
G1 X125.501 Y158.848 E.01597
G1 X124.524 Y158.854 E.03063
G1 X123.636 Y158.428 E.03088
G1 X111.54 Y146.331 E.53638
G1 X111.084 Y145.445 E.03124
G1 X111.026 Y145.039 E.01286
G1 X111.026 Y93.818 E1.606
G1 X99.54 Y82.331 E.50933
G1 X99.084 Y81.445 E.03124
G1 X99.026 Y81.039 E.01286
G1 X99.026 Y53.257 E.87109
G1 X99.073 Y52.937 E.01014
G1 X99.278 Y52.447 E.01665
M204 S1000
G1 X99.278 Y52.447 F10800
G1 X99.624 Y52.595
M204 S800
G1 F1200
G1 X99.659 Y52.513 E.0028
G1 X100.054 Y52.066 E.0187
G1 X100.42 Y51.83 E.01365
G1 X100.983 Y51.665 E.01839
G1 X149.031 Y51.668 E1.50651
G1 X149.756 Y51.924 E.02411
G1 X150.196 Y52.316 E.01848
G1 X150.431 Y52.681 E.01361
G1 X150.597 Y53.244 E.0184
G1 X150.547 Y81.358 E.8815
G1 X150.173 Y82.085 E.02563
G1 X138.597 Y93.661 E.5133
G1 X138.547 Y145.358 E1.62092
G1 X138.173 Y146.085 E.02563
G1 X126.135 Y158.123 E.53379
G1 X125.406 Y158.482 E.02548
M73 P6 R43
G1 X124.603 Y158.485 E.02518
G1 X123.883 Y158.141 E.02502
G1 X111.827 Y146.085 E.53458
M73 Q6 S43
G1 X111.453 Y145.358 E.02563
G1 X111.403 Y93.661 E1.62092
G1 X99.827 Y82.085 E.5133
G1 X99.453 Y81.358 E.02563
G1 X99.442 Y53.019 E.88855
G1 X99.6 Y52.65 E.01259
M204 S1000
G1 X99.6 Y52.65 F10800
G1 X99.961 Y52.778
M204 S800
G1 F1200
G1 X99.99 Y52.695 E.00276
G1 X100.316 Y52.339 E.01514
G1 X101.012 Y52.042 E.02373
G1 X149.009 Y52.045 E1.50491
G1 X149.568 Y52.252 E.01869
G1 X149.923 Y52.577 E.01509
G1 X150.22 Y53.274 E.02376
G1 X150.18 Y81.27 E.8778
G1 X149.886 Y81.839 E.02008
G1 X138.22 Y93.505 E.51729
G1 X138.18 Y145.27 E1.62306
G1 X137.886 Y145.839 E.02008
G1 X125.883 Y157.842 E.53223
G1 X125.31 Y158.116 E.01991
G1 X124.678 Y158.115 E.01982
G1 X124.129 Y157.854 E.01906
G1 X112.114 Y145.839 E.53277
G1 X111.82 Y145.27 E.02008
G1 X111.78 Y93.505 E1.62306
G1 X100.114 Y81.839 E.51729
G1 X99.82 Y81.27 E.02008
G1 X99.78 Y53.288 E.87736
G1 X99.941 Y52.835 E.01507
M204 S1000
G1 X99.941 Y52.835 F10800
G1 X100.272 Y52.986
M204 S800
G1 F1200
G1 X100.319 Y52.882 E.00358
G1 X100.573 Y52.615 E.01155
G1 X101.044 Y52.419 E.016
G1 X148.987 Y52.422 E1.50322
G1 X149.378 Y52.579 E.01321
G1 X149.647 Y52.834 E.01162
G1 X149.843 Y53.306 E.01602
G1 X149.813 Y81.179 E.87394
G1 X149.599 Y81.593 E.01461
G1 X137.843 Y93.349 E.52128
G1 X137.813 Y145.179 E1.62509
G1 X137.599 Y145.593 E.01461
M73 P7 R42
G1 X125.629 Y157.562 E.53075
G1 X125.215 Y157.75 E.01426
M73 Q7 S43
G1 X124.745 Y157.744 E.01474
G1 X124.373 Y157.565 E.01294
G1 X112.401 Y145.593 E.53086
G1 X112.187 Y145.179 E.01461
G1 X112.157 Y93.349 E1.62509
G1 X100.401 Y81.593 E.52128
G1 X100.187 Y81.179 E.01461
G1 X100.177 Y53.195 E.87742
G1 X100.247 Y53.04 E.00533
M204 S1000
G1 X100.247 Y53.04 F10800
G1 X100.562 Y53.264
M204 S800
G1 F1200
G1 X100.825 Y52.895 E.01421
G1 X101.079 Y52.796 E.00855
G1 X148.935 Y52.796 E1.50049
G1 X149.366 Y53.086 E.01629
G1 X149.466 Y53.341 E.00859
G1 X149.447 Y81.085 E.86989
G1 X149.311 Y81.347 E.00926
M73 Q7 S42
G1 X137.466 Y93.193 E.52525
G1 X137.447 Y145.085 E1.62704
G1 X137.311 Y145.347 E.00926
G1 X125.375 Y157.283 E.52926
G1 X125.124 Y157.382 E.00846
G1 X124.819 Y157.37 E.00957
G1 X124.615 Y157.273 E.00708
G1 X112.689 Y145.347 E.52882
G1 X112.553 Y145.085 E.00926
G1 X112.534 Y93.193 E1.62704
G1 X100.689 Y81.347 E.52525
G1 X100.553 Y81.085 E.00926
G1 X100.541 Y53.318 E.87061
M204 S1000
G1 X100.541 Y53.318 F10800
G1 X100.911 Y53.383
M204 S800
G1 F1200
G1 X101.121 Y53.173 E.00931
G1 X148.948 Y53.202 E1.49958
G1 X149.089 Y53.383 E.00719
G1 X149.083 Y80.985 E.86544
G1 X137.089 Y93.037 E.53312
G1 X137.083 Y144.985 E1.62879
G1 X125.148 Y156.977 E.53048
M73 P8 R42
G1 X124.921 Y157.006 E.00718
M73 Q8 S42
G1 X112.917 Y144.985 E.53265
G1 X112.911 Y93.037 E1.62879
G1 X100.917 Y80.985 E.53312
G1 X100.911 Y53.443 E.86356
M204 S1000
;WIPE_START
G1 F8640
G1 X100.911 Y53.383 E-.01385
G1 X101.121 Y53.173 E-.06857
G1 X104.229 Y53.175 E-.71758
;WIPE_END
G1 Z.6 F720
; printing object 3D_Print_Scrapper.stl id:0 copy 0
G1 X130.976 Y144.759 F10800
G1 Z.2 F720
G1 E.8 F2100
M204 S800
;TYPE:Perimeter
;WIDTH:0.419999
G1 F1200
G1 X130.899 Y144.883 E.00458
G1 X130.782 Y144.973 E.00463
G1 X125.283 Y148.148 E.19909
G1 X125 Y148.224 E.00919
G1 X124.717 Y148.148 E.00919
G1 X119.218 Y144.973 E.19909
G1 X119.038 Y144.808 E.00766
G1 X118.966 Y144.666 E.00499
G1 X118.935 Y144.483 E.00582
G1 X118.935 Y138.134 E.19907
G1 X118.993 Y137.886 E.00799
G1 X119.134 Y137.703 E.00724
G1 X119.218 Y137.644 E.00322
G1 X124.717 Y134.47 E.19908
G1 X124.959 Y134.395 E.00794
G1 X125.231 Y134.443 E.00866
G1 X125.283 Y134.47 E.00184
G1 X130.782 Y137.644 E.19908
G1 X130.943 Y137.784 E.00669
G1 X131.05 Y138.005 E.0077
G1 X131.065 Y138.134 E.00407
G1 X131.065 Y144.483 E.19907
G1 X131.034 Y144.666 E.00582
G1 X131.008 Y144.708 E.00155
M204 S1000
G1 X131.008 Y144.708 F10800
G1 X130.652 Y144.568
M204 S800
;TYPE:External perimeter
G1 F1200
G1 X130.632 Y144.616 E.00163
G1 X125.094 Y147.821 E.20062
G1 X124.953 Y147.841 E.00447
G1 X124.906 Y147.821 E.0016
G1 X119.407 Y144.646 E.19909
G1 X119.323 Y144.544 E.00414
G1 X119.312 Y138.134 E.20098
G1 X119.379 Y137.99 E.00498
G1 X119.407 Y137.97 E.00108
G1 X124.906 Y134.796 E.19908
G1 X125.06 Y134.781 E.00485
G1 X125.094 Y134.796 E.00117
G1 X130.593 Y137.97 E.19908
G1 X130.683 Y138.091 E.00473
G1 X130.688 Y144.483 E.20042
G1 X130.675 Y144.513 E.00103
M204 S1000
;WIPE_START
G1 F8640
G1 X130.652 Y144.568 E-.01377
G1 X130.632 Y144.616 E-.01201
G1 X127.73 Y146.296 E-.77422
;WIPE_END
G1 Z.6 F720
G1 X113.734 Y92.694 F10800
G1 Z.2 F720
G1 E.8 F2100
M204 S800
;TYPE:Perimeter
G1 F1200
G1 X113.621 Y92.508 E.00682
G1 X101.787 Y80.674 E.52474
G1 X101.787 Y54.049 E.83481
