; generated by PrusaSlicer 2.9.0 on 2025-01-25 at 19:01:48 UTC


;
;
; 

; external perimeters extrusion width = 0.60mm
; perimeters extrusion width = 0.50mm
; infill extrusion width = 0.50mm
; solid infill extrusion width = 0.50mm
; top infill extrusion width = 0.45mm
; first layer extrusion width = 0.42mm

M73 P0 R24
M73 Q0 S24
M201 X1000 Y1000 Z200 E5000 ; sets maximum accelerations, mm/sec^2
M203 X200 Y200 Z12 E120 ; sets maximum feedrates, mm / sec
M204 S1250 T1250 ; sets acceleration (S) and retract acceleration (R), mm/sec^2
M205 X8.00 Y8.00 Z0.40 E4.50 ; sets the jerk limits, mm/sec
M205 S0 T0 ; sets the minimum extruding and travel feed rate, mm/sec

; printing object tweezers.STL id:0 copy 0
; stop printing object tweezers.STL id:0 copy 0

;TYPE:Custom
M862.3 P "MK3S" ; printer model check
M862.1 P0.4 ; nozzle diameter check
M115 U3.14.1 ; tell printer latest fw version
G90 ; use absolute coordinates
M83 ; extruder relative mode
M104 S215 ; set extruder temp
M140 S60 ; set bed temp
M190 S60 ; wait for bed temp
M109 S215 ; wait for extruder temp
G28 W ; home all without mesh bed level
G80 X23.6751 Y74.7261 W95.0826 H65.0769 ; mesh bed levelling

G1 Z0.2 F720
G1 Y-3 F1000 ; go outside print area
G92 E0
G1 X60 E9 F1000 ; intro line
G1 X100 E12.5 F1000 ; intro line

G92 E0
M221 S95

; Don't change E values below. Excessive value can damage the printer.

M907 E538 ; set extruder motor current
G21 ; set units to millimeters
G90 ; use absolute coordinates
M83 ; use relative distances for extrusion

M900 K0.05 ; Filament gcode LA 1.5
M900 K30 ; Filament gcode LA 1.0




M107
;LAYER_CHANGE
;Z:0.2
;HEIGHT:0.2
G1 E-.8 F2100
G1 Z.6 F720
G1 X30.636 Y78.804 F10800
G1 Z.2 F720
G1 E.8 F2100
M204 S800
;TYPE:Skirt/Brim
;WIDTH:0.42
G1 F1200
G1 X39.977 Y75.172 E.31424
G1 X40.602 Y75.03 E.0201
G1 X42.109 Y74.914 E.04739
G1 X42.749 Y74.959 E.02012
G1 X108.319 Y89.45 E2.10551
G1 X110.452 Y90.232 E.07123
G1 X111.345 Y90.715 E.03183
G1 X112.943 Y91.92 E.06275
G1 X113.689 Y92.638 E.03246
G1 X115.153 Y94.462 E.07333
G1 X116.149 Y96.163 E.0618
G1 X117.319 Y98.979 E.09561
G1 X117.937 Y101.213 E.07268
G1 X118.331 Y103.414 E.07011
G1 X118.558 Y105.904 E.0784
G1 X118.567 Y108.405 E.07842
G1 X118.361 Y110.886 E.07806
G1 X117.958 Y113.21 E.07395
G1 X117.144 Y116.058 E.09287
G1 X116.372 Y117.924 E.06332
G1 X115.253 Y119.91 E.07147
G1 X114.792 Y120.57 E.02524
G1 X113.526 Y122.066 E.06145
G1 X112.943 Y122.609 E.02498
G1 X111.599 Y123.645 E.05321
G1 X110.452 Y124.298 E.04138
G1 X108.489 Y125.034 E.06573
G1 X42.749 Y139.57 E2.11102
G1 X42.109 Y139.615 E.02012
M73 P1 R24
M73 Q1 S24
G1 X40.602 Y139.499 E.04739
G1 X39.977 Y139.357 E.0201
G1 X27.049 Y134.331 E.4349
G1 X26.014 Y133.495 E.04172
G1 X24.225 Y130.779 E.10197
G1 X23.864 Y129.575 E.03941
G1 X23.864 Y84.954 E1.39906
G1 X24.225 Y83.75 E.03941
G1 X26.014 Y81.034 E.10197
G1 X27.049 Y80.198 E.04172
G1 X30.58 Y78.825 E.11879
M204 S1000
;WIPE_START
G1 F8640
G1 X30.636 Y78.804 E-.01381
G1 X33.809 Y77.57 E-.78619
;WIPE_END
G1 Z.6 F720
G1 X31.507 Y81.174 F10800
G1 Z.2 F720
G1 E.8 F2100
M204 S800
G1 F1200
G1 X40.503 Y77.622 E.30325
G1 X42.536 Y77.458 E.06395
G1 X107.754 Y91.86 E2.09413
G1 X109.556 Y92.55 E.0605
G1 X111.752 Y94.192 E.08597
G1 X113.05 Y95.774 E.06416
G1 X114.022 Y97.435 E.06034
G1 X114.929 Y99.631 E.0745
G1 X115.511 Y101.71 E.06769
G1 X115.882 Y103.779 E.06591
G1 X116.094 Y106.218 E.07676
G1 X116.086 Y108.486 E.07111
G1 X115.884 Y110.735 E.0708
G1 X115.511 Y112.819 E.06638
G1 X114.944 Y114.855 E.06627
G1 X114.005 Y117.126 E.07705
G1 X112.896 Y118.971 E.06749
G1 X111.414 Y120.658 E.07041
G1 X109.701 Y121.899 E.06632
G1 X107.771 Y122.665 E.06511
G1 X42.586 Y137.071 E2.09315
G1 X40.552 Y136.916 E.06396
M73 P2 R24
M73 Q2 S24
G1 X28.975 Y132.403 E.38959
G1 X27.744 Y131.481 E.04822
G1 X26.861 Y130.214 E.04842
G1 X26.414 Y128.664 E.05058
G1 X26.425 Y127.003 E.05208
G1 X26.803 Y125.564 E.04665
G1 X27.581 Y124.325 E.04587
G1 X28.867 Y123.274 E.05207
G1 X29.541 Y122.965 E.02325
G1 X30.224 Y122.764 E.02232
G1 X31.534 Y122.674 E.04117
G1 X41.738 Y124.103 E.32306
G1 X104.689 Y110.87 E2.01692
G1 X105.135 Y109.566 E.04321
M73 P2 R23
G1 X105.373 Y107.753 E.05733
G1 X105.29 Y105.827 E.06044
G1 X105.135 Y104.963 E.02752
G1 X104.689 Y103.659 E.04321
G1 X41.737 Y90.426 E2.01695
G1 X31.191 Y91.863 E.33372
G1 X30.079 Y91.728 E.03512
G1 X29.015 Y91.331 E.03561
G1 X28.006 Y90.624 E.03863
G1 X27.242 Y89.779 E.03572
G1 X26.527 Y88.075 E.05794
G1 X26.439 Y87.703 E.01199
G1 X26.47 Y85.488 E.06946
G1 X26.81 Y84.422 E.03508
G1 X27.343 Y83.507 E.0332
G1 X28.444 Y82.454 E.04777
G1 X28.741 Y82.266 E.01102
G1 X31.452 Y81.196 E.09138
M204 S1000
G1 X31.452 Y81.196 F10800
G1 X31.604 Y81.578
M204 S800
G1 F1200
G1 X40.616 Y77.983 E.30422
G1 X42.482 Y77.832 E.0587
G1 X107.659 Y92.225 E2.09281
G1 X109.352 Y92.868 E.05678
M73 Q2 S23
G1 X111.507 Y94.481 E.0844
M73 P3 R23
G1 X112.732 Y95.977 E.06063
M73 Q3 S23
G1 X113.678 Y97.592 E.05868
G1 X114.576 Y99.765 E.07372
G1 X115.141 Y101.786 E.0658
G1 X115.507 Y103.82 E.0648
G1 X115.717 Y106.242 E.07623
G1 X115.709 Y108.477 E.07008
G1 X115.509 Y110.693 E.06976
G1 X115.141 Y112.743 E.0653
G1 X114.584 Y114.743 E.0651
G1 X113.674 Y116.945 E.07471
G1 X112.601 Y118.735 E.06544
G1 X111.174 Y120.366 E.06795
G1 X109.539 Y121.557 E.06342
G1 X107.675 Y122.3 E.06292
G1 X42.531 Y136.697 E2.09183
G1 X40.663 Y136.554 E.05874
G1 X29.18 Y132.086 E.38634
G1 X27.995 Y131.198 E.04643
G1 X27.189 Y130.027 E.04457
G1 X26.785 Y128.589 E.04683
G1 X26.801 Y127.03 E.04888
G1 X27.138 Y125.74 E.0418
G1 X27.884 Y124.552 E.04398
G1 X29.085 Y123.583 E.04838
G1 X30.273 Y123.139 E.03977
G1 X31.502 Y123.05 E.03864
G1 X41.751 Y124.485 E.32448
G1 X104.92 Y111.207 E2.0239
G1 X105.286 Y110.414 E.02738
G1 X105.502 Y109.652 E.02483
G1 X105.75 Y107.769 E.05955
G1 X105.664 Y105.777 E.06252
G1 X105.286 Y104.115 E.05344
G1 X104.92 Y103.322 E.02738
G1 X41.75 Y90.043 E2.02394
G1 X31.211 Y91.486 E.33353
G1 X30.189 Y91.367 E.03226
G1 X29.17 Y90.987 E.0341
G1 X28.242 Y90.329 E.03567
G1 X27.544 Y89.551 E.03277
G1 X26.812 Y87.642 E.0641
G1 X26.846 Y85.524 E.06642
G1 X27.161 Y84.56 E.0318
M73 P4 R23
G1 X27.654 Y83.721 E.03051
G1 X28.689 Y82.741 E.04469
M73 Q4 S23
G1 X31.548 Y81.6 E.09652
M204 S1000
G1 X31.548 Y81.6 F10800
G1 X31.674 Y81.919
M204 S800
G1 F1200
G1 X40.728 Y78.344 E.30521
G1 X42.429 Y78.206 E.05351
G1 X107.565 Y92.591 E2.0915
G1 X109.147 Y93.186 E.05299
G1 X111.263 Y94.769 E.08286
G1 X112.414 Y96.181 E.05712
G1 X113.335 Y97.748 E.05699
G1 X114.224 Y99.898 E.07295
G1 X114.772 Y101.862 E.06393
G1 X115.132 Y103.861 E.06369
G1 X115.34 Y106.25 E.07519
G1 X115.333 Y108.451 E.06901
G1 X115.135 Y110.651 E.06926
G1 X114.772 Y112.668 E.06426
G1 X114.224 Y114.631 E.0639
G1 X113.343 Y116.763 E.07233
G1 X112.306 Y118.5 E.06343
G1 X110.934 Y120.074 E.06547
G1 X109.377 Y121.216 E.06054
G1 X107.578 Y121.935 E.06074
G1 X42.477 Y136.323 E2.09045
G1 X40.774 Y136.193 E.05355
G1 X29.383 Y131.768 E.38316
G1 X28.288 Y130.958 E.04271
G1 X27.518 Y129.84 E.04256
G1 X27.156 Y128.516 E.04304
G1 X27.178 Y127.06 E.04566
G1 X27.494 Y125.866 E.03873
G1 X28.185 Y124.782 E.04031
G1 X29.261 Y123.917 E.04329
G1 X30.36 Y123.506 E.03679
G1 X31.469 Y123.426 E.03486
G1 X41.764 Y124.868 E.32594
G1 X105.162 Y111.541 E2.03124
G1 X105.642 Y110.538 E.03486
G1 X105.87 Y109.737 E.02611
G1 X106.127 Y107.786 E.0617
G1 X106.127 Y106.743 E.0327
G1 X105.87 Y104.792 E.0617
M73 P5 R23
G1 X105.642 Y103.991 E.02611
G1 X105.162 Y102.988 E.03486
G1 X41.764 Y89.661 E2.03124
G1 X31.229 Y91.109 E.33342
M73 Q5 S23
G1 X30.296 Y91.005 E.02943
G1 X29.367 Y90.664 E.03103
G1 X28.478 Y90.034 E.03416
G1 X27.848 Y89.326 E.02971
G1 X27.185 Y87.583 E.05847
G1 X27.223 Y85.56 E.06344
G1 X27.512 Y84.7 E.02845
G1 X27.964 Y83.937 E.02781
G1 X29.051 Y82.955 E.04593
G1 X31.618 Y81.941 E.08654
M204 S1000
G1 X31.618 Y81.941 F10800
G1 X31.759 Y82.297
M204 S800
G1 F1200
G1 X40.841 Y78.705 E.30622
G1 X42.375 Y78.581 E.04825
G1 X107.471 Y92.956 E2.09021
G1 X108.989 Y93.529 E.05087
G1 X110.985 Y95.025 E.07821
G1 X112.096 Y96.384 E.05504
G1 X113.003 Y97.927 E.05612
G1 X113.864 Y100.011 E.0707
G1 X114.402 Y101.937 E.0627
G1 X114.76 Y103.92 E.06318
G1 X114.963 Y106.257 E.07355
G1 X114.956 Y108.426 E.06801
G1 X114.762 Y110.593 E.06822
G1 X114.406 Y112.575 E.06314
G1 X113.863 Y114.518 E.06326
G1 X113.012 Y116.582 E.07
G1 X112.01 Y118.266 E.06144
G1 X110.693 Y119.783 E.06299
G1 X109.214 Y120.875 E.05764
G1 X107.482 Y121.571 E.05853
G1 X42.423 Y135.949 E2.0891
G1 X40.884 Y135.831 E.0484
G1 X29.585 Y131.448 E.37999
G1 X28.58 Y130.717 E.03897
G1 X27.847 Y129.653 E.04051
G1 X27.533 Y128.496 E.03759
G1 X27.555 Y127.09 E.04409
G1 X27.85 Y125.993 E.03562
G1 X28.484 Y125.013 E.0366
G1 X29.439 Y124.251 E.03831
G1 X30.448 Y123.873 E.03378
M73 P6 R23
G1 X31.437 Y123.802 E.03109
G1 X41.778 Y125.251 E.3274
G1 X105.355 Y111.886 E2.03698
M73 Q6 S23
G1 X105.727 Y111.32 E.02124
G1 X106.238 Y109.822 E.04963
G1 X106.504 Y107.802 E.06388
G1 X106.412 Y105.678 E.06666
G1 X105.999 Y103.868 E.05821
G1 X105.727 Y103.209 E.02235
G1 X105.355 Y102.643 E.02124
G1 X41.777 Y89.278 E2.03701
G1 X31.245 Y90.732 E.33336
M73 P6 R22
G1 X30.402 Y90.642 E.02658
G1 X29.564 Y90.341 E.02792
G1 X28.714 Y89.739 E.03266
G1 X28.153 Y89.102 E.02661
G1 X27.558 Y87.526 E.05282
G1 X27.589 Y85.653 E.05873
G1 X27.863 Y84.84 E.0269
G1 X28.273 Y84.155 E.02503
G1 X29.176 Y83.318 E.0386
G1 X31.703 Y82.319 E.0852
M204 S1000
G1 X31.703 Y82.319 F10800
G1 X31.84 Y82.665
M204 S800
G1 F1200
G1 X40.954 Y79.066 E.30724
G1 X42.321 Y78.955 E.043
G1 X107.376 Y93.321 E2.0889
G1 X108.83 Y93.872 E.04875
G1 X110.708 Y95.281 E.07361
G1 X111.795 Y96.611 E.05386
G1 X112.671 Y98.107 E.05436
G1 X113.503 Y100.123 E.06838
G1 X114.037 Y102.03 E.06209
G1 X114.387 Y103.978 E.06206
G1 X114.586 Y106.264 E.07195
G1 X114.58 Y108.4 E.06697
G1 X114.389 Y110.534 E.06718
G1 X114.037 Y112.499 E.06259
G1 X113.503 Y114.406 E.06209
G1 X112.681 Y116.402 E.06768
G1 X111.713 Y118.033 E.05947
G1 X110.452 Y119.493 E.06049
G1 X109.009 Y120.558 E.05623
G1 X107.386 Y121.206 E.05479
G1 X42.369 Y135.574 E2.08775
M73 Q6 S22
G1 X40.995 Y135.469 E.04321
M73 P7 R22
M73 Q7 S22
G1 X29.745 Y131.106 E.37833
G1 X28.83 Y130.433 E.03561
G1 X28.177 Y129.468 E.03653
G1 X27.91 Y128.475 E.03224
G1 X27.931 Y127.12 E.04249
G1 X28.206 Y126.123 E.03243
G1 X28.782 Y125.246 E.0329
G1 X29.616 Y124.585 E.03337
G1 X30.535 Y124.241 E.03077
G1 X31.404 Y124.179 E.02732
G1 X41.791 Y125.633 E.32885
G1 X105.554 Y112.23 E2.04293
G1 X106.066 Y111.488 E.02827
G1 X106.356 Y110.785 E.02384
G1 X106.787 Y108.901 E.0606
G1 X106.881 Y107.819 E.03405
G1 X106.881 Y106.71 E.03477
G1 X106.606 Y104.622 E.06603
G1 X106.066 Y103.041 E.05238
G1 X105.554 Y102.3 E.02824
G1 X41.79 Y88.896 E2.04297
G1 X31.262 Y90.354 E.33325
G1 X30.465 Y90.27 E.02513
G1 X29.719 Y89.997 E.02491
G1 X28.953 Y89.446 E.02959
G1 X28.459 Y88.88 E.02356
G1 X27.932 Y87.474 E.04708
G1 X27.966 Y85.691 E.05591
G1 X28.212 Y84.984 E.02347
G1 X28.581 Y84.374 E.02235
G1 X29.392 Y83.631 E.03449
G1 X31.784 Y82.687 E.08063
M204 S1000
G1 X31.784 Y82.687 F10800
G1 X31.918 Y83.029
M204 S800
G1 F1200
G1 X41.066 Y79.427 E.30826
G1 X42.267 Y79.329 E.03778
G1 X107.281 Y93.687 E2.08759
G1 X108.671 Y94.215 E.04662
M73 P8 R22
M73 Q8 S22
G1 X110.43 Y95.537 E.06899
G1 X111.493 Y96.838 E.05268
G1 X112.339 Y98.286 E.05258
G1 X113.143 Y100.236 E.06613
G1 X113.667 Y102.106 E.06089
G1 X114.015 Y104.036 E.06149
G1 X114.209 Y106.272 E.07037
G1 X114.204 Y108.375 E.06594
G1 X114.017 Y110.476 E.06614
G1 X113.671 Y112.407 E.06151
G1 X113.143 Y114.294 E.06144
G1 X112.349 Y116.222 E.06538
G1 X111.416 Y117.8 E.05748
G1 X110.21 Y119.203 E.05801
G1 X108.846 Y120.217 E.05329
G1 X107.289 Y120.841 E.05259
G1 X42.314 Y135.2 E2.0864
G1 X41.105 Y135.108 E.03802
G1 X29.905 Y130.763 E.37667
G1 X29.082 Y130.151 E.03216
G1 X28.509 Y129.287 E.03251
G1 X28.288 Y128.456 E.02696
G1 X28.308 Y127.15 E.04095
G1 X28.56 Y126.255 E.02915
G1 X29.078 Y125.481 E.0292
G1 X29.794 Y124.918 E.02856
G1 X30.622 Y124.608 E.02772
G1 X31.372 Y124.555 E.02357
G1 X41.804 Y126.016 E.33028
G1 X105.654 Y112.594 E2.04573
G1 X106.094 Y112.188 E.01877
G1 X106.405 Y111.655 E.01935
G1 X106.974 Y109.992 E.05511
G1 X107.258 Y107.835 E.06821
G1 X107.161 Y105.578 E.07083
G1 X106.974 Y104.537 E.03316
G1 X106.405 Y102.874 E.05511
G1 X106.094 Y102.341 E.01935
G1 X105.654 Y101.935 E.01877
G1 X41.804 Y88.513 E2.04573
G1 X31.276 Y89.977 E.33327
M73 P9 R22
M73 Q9 S22
G1 X30.568 Y89.906 E.02231
G1 X29.916 Y89.674 E.0217
G1 X29.192 Y89.153 E.02797
G1 X28.767 Y88.66 E.02041
G1 X28.307 Y87.431 E.04115
G1 X28.342 Y85.731 E.05331
G1 X28.559 Y85.131 E.02001
G1 X28.888 Y84.595 E.01972
G1 X29.619 Y83.934 E.0309
G1 X31.863 Y83.051 E.07561
M204 S1000
G1 X31.863 Y83.051 F10800
G1 X31.997 Y83.393
M204 S800
G1 F1200
G1 X41.178 Y79.788 E.30926
G1 X42.213 Y79.704 E.03256
G1 X107.186 Y94.052 E2.08626
G1 X108.512 Y94.558 E.0445
G1 X110.153 Y95.794 E.06441
G1 X111.175 Y97.042 E.05058
G1 X112.006 Y98.465 E.05167
G1 X112.783 Y100.348 E.06387
G1 X113.302 Y102.199 E.06028
G1 X113.642 Y104.094 E.06037
G1 X113.832 Y106.279 E.06877
G1 X113.827 Y108.35 E.06493
G1 X113.644 Y110.418 E.06509
G1 X113.302 Y112.331 E.06093
G1 X112.783 Y114.182 E.06028
G1 X112.018 Y116.042 E.06306
G1 X111.119 Y117.567 E.05551
G1 X109.967 Y118.914 E.05557
G1 X108.682 Y119.876 E.05033
G1 X107.192 Y120.476 E.05036
G1 X42.26 Y134.826 E2.08502
G1 X41.216 Y134.746 E.03283
G1 X30.067 Y130.422 E.37494
G1 X29.335 Y129.87 E.02875
G1 X28.864 Y129.157 E.02679
G1 X28.665 Y128.434 E.02351
G1 X28.684 Y127.18 E.03932
G1 X28.89 Y126.439 E.02411
G1 X29.374 Y125.716 E.02728
G1 X29.971 Y125.251 E.02373
G1 X30.707 Y124.976 E.02464
G1 X31.339 Y124.931 E.01987
G1 X41.817 Y126.398 E.33173
G1 X105.749 Y112.959 E2.04835
G1 X106.109 Y112.756 E.01296
M73 P10 R22
M73 Q10 S22
G1 X106.403 Y112.406 E.01433
G1 X106.744 Y111.823 E.02118
G1 X107.069 Y111.033 E.02678
G1 X107.342 Y110.077 E.03117
G1 X107.535 Y109.001 E.03428
G1 X107.635 Y107.851 E.03619
G1 X107.635 Y106.678 E.03678
G1 X107.535 Y105.528 E.03619
G1 X107.342 Y104.452 E.03428
G1 X107.069 Y103.496 E.03117
G1 X106.744 Y102.706 E.02678
G1 X106.403 Y102.123 E.02118
G1 X106.109 Y101.773 E.01433
G1 X105.749 Y101.57 E.01296
G1 X41.817 Y88.131 E2.04835
G1 X31.288 Y89.599 E.33332
G1 X30.672 Y89.543 E.01939
G1 X30.069 Y89.329 E.02006
G1 X29.433 Y88.863 E.02472
G1 X29.077 Y88.443 E.01726
G1 X28.685 Y87.383 E.03544
G1 X28.708 Y85.827 E.04879
G1 X28.891 Y85.311 E.01717
G1 X29.194 Y84.817 E.01817
G1 X29.844 Y84.238 E.02729
G1 X31.941 Y83.415 E.07063
M204 S1000
G1 X31.941 Y83.415 F10800
G1 X32.075 Y83.757
M204 S800
G1 F1200
G1 X41.29 Y80.149 E.31029
G1 X42.16 Y80.078 E.02737
G1 X107.091 Y94.417 E2.08492
G1 X108.352 Y94.9 E.04234
M73 P10 R21
G1 X109.875 Y96.05 E.05984
G1 X110.874 Y97.269 E.04942
G1 X111.674 Y98.643 E.04985
G1 X112.423 Y100.46 E.06162
G1 X112.936 Y102.292 E.05965
G1 X113.269 Y104.152 E.05925
G1 X113.455 Y106.287 E.06719
G1 X113.451 Y108.325 E.0639
G1 X113.271 Y110.36 E.06406
G1 X112.932 Y112.256 E.06039
G1 X112.423 Y114.069 E.05904
G1 X111.686 Y115.863 E.06081
G1 X110.821 Y117.336 E.05356
G1 X109.723 Y118.626 E.05311
G1 X108.517 Y119.536 E.04737
G1 X107.096 Y120.111 E.04806
G1 X42.206 Y134.452 E2.08368
G1 X41.326 Y134.385 E.02767
G1 X30.227 Y130.079 E.37327
G1 X29.629 Y129.632 E.02341
M73 P11 R21
G1 X29.218 Y129.023 E.02304
G1 X29.043 Y128.411 E.01996
G1 X29.061 Y127.209 E.03769
G1 X29.222 Y126.62 E.01915
G1 X29.633 Y125.992 E.02353
G1 X30.151 Y125.583 E.02069
M73 Q10 S21
G1 X30.793 Y125.344 E.02148
G1 X31.306 Y125.307 E.01613
M73 Q11 S21
G1 X41.83 Y126.781 E.33319
G1 X105.856 Y113.322 E2.05137
G1 X106.37 Y113.031 E.01852
G1 X106.713 Y112.624 E.01669
G1 X107.082 Y111.991 E.02297
G1 X107.426 Y111.157 E.02829
G1 X107.709 Y110.162 E.03243
G1 X107.909 Y109.051 E.03539
G1 X108.012 Y107.868 E.03723
G1 X108.012 Y106.661 E.03784
G1 X107.909 Y105.479 E.0372
G1 X107.709 Y104.367 E.03543
G1 X107.426 Y103.372 E.03243
G1 X107.082 Y102.538 E.02829
G1 X106.713 Y101.905 E.02297
G1 X106.37 Y101.498 E.01669
G1 X105.856 Y101.207 E.01852
G1 X41.83 Y87.748 E2.05137
G1 X31.298 Y89.222 E.33344
