; generated by PrusaSlicer 2.9.0 on 2024-12-30 at 18:56:49 UTC


;
;
; 

; external perimeters extrusion width = 0.45mm
; perimeters extrusion width = 0.45mm
; infill extrusion width = 0.45mm
; solid infill extrusion width = 0.45mm
; top infill extrusion width = 0.40mm
; first layer extrusion width = 0.42mm

M73 P0 R44
M73 Q0 S44
M201 X1000 Y1000 Z200 E8000 ; sets maximum accelerations, mm/sec^2
M203 X200 Y200 Z12 E120 ; sets maximum feedrates, mm / sec
M204 S1250 T1250 ; sets acceleration (S) and retract acceleration (R), mm/sec^2
M205 X8.00 Y8.00 Z0.40 E4.50 ; sets the jerk limits, mm/sec
M205 S0 T0 ; sets the minimum extruding and travel feed rate, mm/sec

; printing object tweezers.STL id:0 copy 0
; stop printing object tweezers.STL id:0 copy 0

;TYPE:Custom
M862.3 P "MK3SMMU3" ; printer model check
M862.1 P0.4 ; nozzle diameter check
M115 U3.14.1 ; tell printer latest fw version
G90 ; use absolute coordinates
M83 ; extruder relative mode
M104 S215 ; set extruder temp
M140 S60 ; set bed temp
M190 S60 ; wait for bed temp
M109 S215 ; wait for extruder temp
G28 W ; home all without mesh bed level
G80 X77.2642 Y77.5176 W95.2528 H54.9648 ; mesh bed levelling

; Send the filament type to the MMU unit.
; E stands for extruder number, F stands for filament type (0: default; 1:flex; 2: PVA)
M403 E0 F0
M403 E1 F0
M403 E2 F0
M403 E3 F0
M403 E4 F0


;go outside print area
G1 Y-3 F1000
G1 Z0.4 F1000
; select extruder
T0
; initial load
G1 X55 E29 F1073
G1 X5 E29 F1800
G1 X55 E8 F2000
G1 Z0.3 F1000
G92 E0
G1 X240 E25 F2200
G1 Y-2 F1000
G1 X55 E25 F1400
G1 Z0.2 F1000
G1 X5 E4 F1000
G92 E0


M221 S95
G92 E0

; Don't change E values below. Excessive value can damage the printer.
M907 E430 ; set extruder motor current
G21 ; set units to millimeters
G90 ; use absolute coordinates
M83 ; use relative distances for extrusion

M900 K0.05 ; Filament gcode LA 1.5
M900 K30 ; Filament gcode LA 1.0




M107
;LAYER_CHANGE
;Z:0.2
;HEIGHT:0.2
G1 E-.8 F2100
G1 Z.6 F720
G1 X79.997 Y82.674 F10800
G1 Z.2 F720
G1 E.8 F2100
M204 S800
;TYPE:Skirt/Brim
;WIDTH:0.42
G1 F1200
G1 X82.055 Y81.537 E.07372
G1 X83.206 Y81.088 E.03874
G1 X94.119 Y77.868 E.35675
G1 X95.818 Y77.706 E.05351
G1 X96.338 Y77.735 E.01633
G1 X161.752 Y89.3 E2.08282
G1 X163.711 Y89.879 E.06405
M73 P1 R43
M73 Q1 S44
G1 X164.529 Y90.236 E.02798
G1 X166.103 Y91.187 E.05766
G1 X166.721 Y91.65 E.02421
G1 X168.038 Y92.895 E.05682
G1 X168.596 Y93.536 E.02665
G1 X169.838 Y95.311 E.06793
G1 X170.673 Y96.924 E.05695
G1 X171.614 Y99.522 E.08664
G1 X172.048 Y101.458 E.06221
G1 X172.301 Y103.607 E.06785
G1 X172.31 Y106.276 E.08369
G1 X172.095 Y108.26 E.06257
G1 X171.647 Y110.351 E.06705
G1 X170.673 Y113.076 E.09073
G1 X169.838 Y114.689 E.05695
G1 X168.596 Y116.464 E.06793
G1 X166.896 Y118.199 E.07616
G1 X166.103 Y118.813 E.03145
G1 X164.529 Y119.764 E.05766
G1 X163.711 Y120.121 E.02798
G1 X162.222 Y120.589 E.04894
G1 X96.338 Y132.265 E2.09794
G1 X95.818 Y132.294 E.01633
G1 X94.119 Y132.132 E.05351
G1 X83.206 Y128.912 E.35675
G1 X82.055 Y128.463 E.03874
G1 X79.997 Y127.327 E.07371
G1 X79.094 Y126.38 E.04103
G1 X77.679 Y123.514 E.10022
G1 X77.453 Y122.545 E.0312
G1 X77.453 Y87.455 E1.10022
G1 X77.679 Y86.486 E.0312
G1 X79.094 Y83.62 E.10022
G1 X79.956 Y82.717 E.03914
M204 S1000
;WIPE_START
G1 F8640
G1 X79.997 Y82.674 E-.01372
G1 X82.055 Y81.537 E-.5429
G1 X83.037 Y81.154 E-.24338
;WIPE_END
G1 Z.6 F720
G1 X81.852 Y84.563 F10800
G1 Z.2 F720
G1 E.8 F2100
M204 S800
G1 F1200
G1 X83.497 Y83.616 E.05951
G1 X85.892 Y83.012 E.07744
G1 X94.56 Y80.329 E.2845
G1 X96.209 Y80.226 E.0518
M73 Q1 S43
G1 X161.311 Y91.736 E2.07288
G1 X162.974 Y92.249 E.05457
G1 X164.963 Y93.421 E.07239
G1 X166.621 Y95.026 E.07235
G1 X167.642 Y96.465 E.05532
G1 X168.471 Y98.058 E.05631
G1 X169.229 Y100.183 E.07074
G1 X169.629 Y102 E.05833
G1 X169.839 Y103.861 E.05872
G1 X169.84 Y106.121 E.07086
G1 X169.636 Y107.959 E.05798
G1 X169.238 Y109.783 E.05854
G1 X168.561 Y111.734 E.06475
G1 X167.695 Y113.448 E.06021
G1 X166.604 Y114.993 E.0593
G1 X165.229 Y116.37 E.06101
G1 X163.412 Y117.549 E.06791
G1 X161.317 Y118.263 E.0694
G1 X96.184 Y129.773 E2.07384
G1 X94.534 Y129.669 E.05184
G1 X85.891 Y126.987 E.28374
G1 X83.285 Y126.298 E.08452
G1 X81.97 Y125.531 E.04773
G1 X80.963 Y124.471 E.04584
G1 X80.306 Y123.109 E.04741
G1 X80.096 Y121.678 E.04535
G1 X80.299 Y120.034 E.05194
G1 X80.904 Y118.597 E.04889
G1 X81.351 Y118.027 E.02271
G1 X81.971 Y117.417 E.02727
G1 X83.907 Y116.483 E.0674
G1 X84.637 Y116.392 E.02307
G1 X86.243 Y116.401 E.05036
G1 X88.347 Y116.754 E.06689
G1 X95.529 Y117.559 E.2266
G1 X158.756 Y106.926 E2.01028
G1 X158.954 Y106.393 E.01783
G1 X159.132 Y105.301 E.03469
G1 X159.069 Y104.12 E.03708
G1 X158.756 Y103.074 E.03423
G1 X95.529 Y92.441 E2.01028
G1 X88.347 Y93.246 E.2266
M73 P2 R43
M73 Q2 S43
G1 X86.179 Y93.604 E.0689
G1 X84.544 Y93.604 E.05126
G1 X83.423 Y93.366 E.03593
G1 X82.366 Y92.858 E.03677
G1 X81.2 Y91.804 E.04928
G1 X80.642 Y90.909 E.03307
G1 X80.333 Y90.109 E.02689
G1 X80.107 Y88.163 E.06143
G1 X80.472 Y86.405 E.0563
G1 X81.04 Y85.421 E.03562
G1 X81.811 Y84.606 E.03518
M204 S1000
G1 X81.811 Y84.606 F10800
G1 X82.066 Y84.874
M204 S800
G1 F1200
G1 X83.615 Y83.975 E.05615
G1 X85.994 Y83.375 E.07693
G1 X94.65 Y80.696 E.2841
G1 X96.166 Y80.601 E.04763
G1 X161.233 Y92.105 E2.07177
G1 X162.842 Y92.603 E.05281
G1 X164.717 Y93.707 E.06822
G1 X166.324 Y95.259 E.07005
G1 X167.327 Y96.673 E.05436
G1 X168.131 Y98.22 E.05466
G1 X168.87 Y100.298 E.06915
G1 X169.258 Y102.071 E.05691
G1 X169.463 Y103.892 E.05746
G1 X169.464 Y106.09 E.06892
G1 X169.262 Y107.907 E.05732
G1 X168.872 Y109.691 E.05726
G1 X168.219 Y111.575 E.06252
G1 X167.379 Y113.242 E.05853
G1 X166.305 Y114.762 E.05836
G1 X164.977 Y116.089 E.05886
G1 X163.227 Y117.22 E.06533
G1 X161.237 Y117.895 E.06589
G1 X96.141 Y129.398 E2.07266
G1 X94.624 Y129.302 E.04766
G1 X85.994 Y126.625 E.28331
G1 X83.451 Y125.958 E.08243
G1 X82.223 Y125.25 E.04444
G1 X81.288 Y124.278 E.04229
G1 X80.674 Y123.023 E.04381
G1 X80.474 Y121.696 E.04208
G1 X80.657 Y120.154 E.04869
G1 X81.217 Y118.808 E.04571
G1 X82.213 Y117.708 E.04653
G1 X83.985 Y116.853 E.06169
G1 X84.648 Y116.769 E.02095
G1 X86.224 Y116.778 E.04942
G1 X88.299 Y117.128 E.06598
G1 X95.539 Y117.939 E.22842
G1 X158.99 Y107.269 E2.01739
G1 X159.317 Y106.497 E.02629
G1 X159.509 Y105.321 E.03736
G1 X159.509 Y104.679 E.02013
G1 X159.317 Y103.503 E.03736
G1 X158.99 Y102.731 E.02629
G1 X95.539 Y92.061 E2.01739
G1 X88.299 Y92.872 E.22842
G1 X86.13 Y93.23 E.06893
G1 X84.565 Y93.227 E.04907
G1 X83.526 Y93.003 E.03333
G1 X82.555 Y92.53 E.03387
G1 X81.506 Y91.582 E.04433
G1 X80.972 Y90.725 E.03166
G1 X80.694 Y89.997 E.02443
G1 X80.482 Y88.207 E.05652
G1 X80.814 Y86.565 E.05253
G1 X81.331 Y85.661 E.03265
G1 X82.025 Y84.918 E.03188
M204 S1000
G1 X82.025 Y84.918 F10800
G1 X82.282 Y85.185
M204 S800
G1 F1200
G1 X83.733 Y84.334 E.05274
G1 X86.096 Y83.739 E.0764
G1 X94.741 Y81.063 E.28375
G1 X96.122 Y80.976 E.04339
G1 X161.156 Y92.474 E2.07072
G1 X162.709 Y92.956 E.05098
G1 X164.506 Y94.02 E.06548
G1 X166.027 Y95.491 E.06634
G1 X167.012 Y96.88 E.05339
G1 X167.79 Y98.382 E.05304
G1 X168.504 Y100.391 E.06685
G1 X168.888 Y102.142 E.05621
G1 X169.087 Y103.924 E.05622
G1 X169.088 Y106.059 E.06694
G1 X168.891 Y107.836 E.05606
G1 X168.506 Y109.6 E.05661
G1 X167.877 Y111.417 E.06029
G1 X167.063 Y113.036 E.05682
G1 X166.007 Y114.531 E.05739
G1 X164.725 Y115.807 E.05671
G1 X163.043 Y116.89 E.06272
G1 X161.158 Y117.526 E.06238
G1 X96.097 Y129.023 E2.07155
G1 X94.714 Y128.935 E.04345
M73 P3 R43
M73 Q3 S43
G1 X86.097 Y126.262 E.28288
G1 X83.615 Y125.618 E.0804
G1 X82.474 Y124.968 E.04117
G1 X81.612 Y124.083 E.03874
G1 X81.042 Y122.935 E.04019
G1 X80.851 Y121.713 E.03878
G1 X81.016 Y120.272 E.04548
G1 X81.531 Y119.018 E.0425
G1 X82.456 Y117.999 E.04315
G1 X84.064 Y117.223 E.05598
G1 X84.658 Y117.146 E.01878
G1 X86.205 Y117.155 E.04851
G1 X88.251 Y117.502 E.06507
G1 X95.55 Y118.32 E.23029
G1 X159.194 Y107.617 E2.02353
G1 X159.504 Y107.095 E.01904
M73 P3 R42
G1 X159.68 Y106.601 E.01644
G1 X159.886 Y105.342 E.04
G1 X159.886 Y104.658 E.02145
G1 X159.68 Y103.399 E.04
G1 X159.504 Y102.905 E.01644
G1 X159.194 Y102.383 E.01904
G1 X95.55 Y91.68 E2.02353
G1 X88.251 Y92.498 E.23029
G1 X86.081 Y92.855 E.06895
G1 X84.586 Y92.85 E.04687
G1 X83.67 Y92.653 E.02938
G1 X82.744 Y92.203 E.03228
G1 X81.812 Y91.36 E.0394
G1 X81.302 Y90.542 E.03022
G1 X81.055 Y89.886 E.02198
G1 X80.858 Y88.25 E.05167
G1 X81.158 Y86.723 E.04879
G1 X81.624 Y85.9 E.02965
G1 X82.241 Y85.229 E.02858
M204 S1000
G1 X82.241 Y85.229 F10800
G1 X82.5 Y85.494
M204 S800
G1 F1200
G1 X83.852 Y84.693 E.04927
G1 X86.198 Y84.102 E.07586
G1 X94.831 Y81.429 E.28336
G1 X96.078 Y81.351 E.03918
G1 X161.078 Y92.844 E2.06964
G1 X162.575 Y93.309 E.04915
G1 X164.294 Y94.333 E.06274
G1 X165.729 Y95.724 E.06266
G1 X166.683 Y97.066 E.05163
G1 X167.449 Y98.544 E.0522
G1 X168.138 Y100.483 E.06452
G1 X168.514 Y102.194 E.05493
G1 X168.711 Y103.955 E.05556
M73 Q3 S42
G1 X168.712 Y106.028 E.065
G1 X168.518 Y107.785 E.05542
G1 X168.14 Y109.508 E.05531
G1 X167.534 Y111.259 E.0581
G1 X166.747 Y112.83 E.05509
G1 X165.708 Y114.3 E.05644
G1 X164.474 Y115.526 E.05454
G1 X162.9 Y116.541 E.05872
G1 X161.078 Y117.157 E.0603
G1 X96.054 Y128.647 E2.07037
G1 X94.805 Y128.569 E.03924
G1 X86.2 Y125.899 E.28249
G1 X83.78 Y125.278 E.07834
G1 X82.683 Y124.653 E.03959
G1 X81.935 Y123.887 E.03357
G1 X81.409 Y122.846 E.03657
G1 X81.229 Y121.728 E.03551
G1 X81.376 Y120.389 E.04224
G1 X81.846 Y119.228 E.03927
G1 X82.698 Y118.29 E.03973
G1 X84.144 Y117.593 E.05033
G1 X84.669 Y117.524 E.0166
G1 X86.185 Y117.532 E.04753
G1 X88.203 Y117.876 E.06419
G1 X95.56 Y118.7 E.23212
G1 X159.404 Y107.964 E2.02989
G1 X159.851 Y107.245 E.02655
M73 P4 R42
G1 X160.043 Y106.706 E.01794
G1 X160.263 Y105.362 E.0427
G1 X160.186 Y103.934 E.04484
G1 X159.851 Y102.755 E.03843
G1 X159.404 Y102.036 E.02655
M73 Q4 S42
G1 X95.56 Y91.3 E2.02989
G1 X88.203 Y92.124 E.23212
G1 X86.032 Y92.481 E.06898
G1 X84.607 Y92.473 E.04468
G1 X83.815 Y92.304 E.02539
G1 X82.933 Y91.876 E.03074
G1 X82.118 Y91.139 E.03445
G1 X81.632 Y90.359 E.02882
G1 X81.416 Y89.776 E.01949
G1 X81.234 Y88.291 E.04691
G1 X81.502 Y86.88 E.04503
G1 X81.918 Y86.136 E.02673
G1 X82.459 Y85.539 E.02526
M204 S1000
G1 X82.459 Y85.539 F10800
G1 X82.719 Y85.802
M204 S800
G1 F1200
G1 X83.972 Y85.052 E.04579
G1 X86.3 Y84.465 E.07528
G1 X94.921 Y81.796 E.28296
G1 X96.035 Y81.726 E.035
G1 X161.001 Y93.213 E2.06856
G1 X162.442 Y93.663 E.04733
G1 X164.048 Y94.619 E.0586
G1 X165.432 Y95.957 E.06036
G1 X166.368 Y97.273 E.05063
G1 X167.108 Y98.705 E.05054
G1 X167.772 Y100.576 E.06225
G1 X168.144 Y102.265 E.05423
G1 X168.335 Y103.986 E.05429
G1 X168.336 Y105.997 E.06305
G1 X168.147 Y107.714 E.05416
G1 X167.774 Y109.417 E.05466
G1 X167.182 Y111.124 E.05665
G1 X166.416 Y112.648 E.05348
G1 X165.41 Y114.068 E.05456
G1 X164.223 Y115.244 E.05239
G1 X162.716 Y116.21 E.05613
G1 X160.999 Y116.788 E.0568
G1 X96.01 Y128.272 E2.06925
G1 X94.895 Y128.202 E.03503
G1 X86.302 Y125.536 E.2821
G1 X83.944 Y124.937 E.07628
G1 X82.893 Y124.338 E.03793
G1 X82.257 Y123.688 E.02851
G1 X81.776 Y122.753 E.03297
G1 X81.607 Y121.741 E.03217
G1 X81.736 Y120.503 E.03903
G1 X82.161 Y119.436 E.03601
G1 X82.94 Y118.58 E.03629
G1 X84.224 Y117.963 E.04467
G1 X86.166 Y117.909 E.06091
G1 X88.155 Y118.25 E.06327
G1 X95.571 Y119.081 E.23398
G1 X159.459 Y108.337 E2.03129
G1 X159.748 Y108.144 E.0109
G1 X160.198 Y107.396 E.02737
G1 X160.559 Y106.128 E.04134
G1 X160.64 Y105.383 E.0235
G1 X160.64 Y104.617 E.02402
G1 X160.405 Y103.189 E.04538
G1 X159.965 Y102.153 E.03529
G1 X159.748 Y101.856 E.01153
G1 X159.459 Y101.663 E.0109
G1 X95.571 Y90.919 E2.03129
G1 X88.155 Y91.75 E.23398
G1 X85.984 Y92.107 E.06898
G1 X84.629 Y92.096 E.04249
G1 X83.959 Y91.955 E.02147
G1 X83.122 Y91.548 E.02918
G1 X82.424 Y90.917 E.0295
G1 X81.963 Y90.177 E.02734
G1 X81.778 Y89.667 E.01701
G1 X81.61 Y88.33 E.04225
G1 X81.847 Y87.034 E.04131
G1 X82.215 Y86.37 E.0238
G1 X82.679 Y85.847 E.02192
M204 S1000
G1 X82.679 Y85.847 F10800
G1 X82.941 Y86.108
M204 S800
G1 F1200
G1 X84.092 Y85.41 E.04221
G1 X86.402 Y84.828 E.07469
G1 X95.011 Y82.163 E.28257
G1 X95.991 Y82.102 E.03079
G1 X160.923 Y93.582 E2.06747
G1 X162.307 Y94.016 E.04548
M73 P5 R42
G1 X163.835 Y94.931 E.05584
G1 X165.135 Y96.19 E.05674
G1 X166.04 Y97.458 E.04884
M73 Q5 S42
G1 X166.767 Y98.867 E.04971
G1 X167.406 Y100.668 E.05992
G1 X167.773 Y102.336 E.05355
G1 X167.959 Y104.017 E.05303
G1 X167.96 Y105.966 E.06111
G1 X167.774 Y107.663 E.05353
G1 X167.408 Y109.325 E.05336
G1 X166.83 Y110.988 E.0552
G1 X166.086 Y112.465 E.05185
G1 X165.112 Y113.837 E.05276
G1 X163.972 Y114.961 E.0502
G1 X162.533 Y115.88 E.05353
G1 X160.92 Y116.419 E.05332
G1 X95.967 Y127.897 E2.06811
G1 X94.985 Y127.835 E.03085
G1 X86.404 Y125.172 E.28171
G1 X84.108 Y124.597 E.07421
G1 X83.103 Y124.024 E.03627
G1 X82.548 Y123.447 E.0251
G1 X82.142 Y122.66 E.02777
G1 X81.984 Y121.752 E.0289
G1 X82.097 Y120.616 E.03579
G1 X82.478 Y119.643 E.03276
G1 X83.182 Y118.871 E.03276
G1 X84.305 Y118.332 E.03906
G1 X86.146 Y118.286 E.05774
G1 X88.107 Y118.624 E.06239
G1 X95.581 Y119.462 E.23581
G1 X159.546 Y108.705 E2.03374
G1 X159.831 Y108.585 E.0097
G1 X160.287 Y108.046 E.02214
G1 X160.768 Y106.916 E.03851
G1 X161.017 Y105.403 E.04808
G1 X160.932 Y103.811 E.04999
G1 X160.768 Y103.084 E.02337
G1 X160.287 Y101.954 E.03851
G1 X159.831 Y101.415 E.02214
G1 X159.546 Y101.295 E.0097
G1 X95.581 Y90.538 E2.03374
G1 X88.107 Y91.376 E.23581
M73 P5 R41
G1 X85.969 Y91.73 E.06795
G1 X84.65 Y91.719 E.04136
G1 X84.1 Y91.605 E.01761
G1 X83.352 Y91.248 E.02599
G1 X82.73 Y90.694 E.02612
G1 X82.294 Y89.995 E.02583
G1 X82.14 Y89.56 E.01447
G1 X81.986 Y88.366 E.03775
G1 X82.193 Y87.187 E.03753
G1 X82.514 Y86.601 E.02095
G1 X82.902 Y86.153 E.01858
M204 S1000
G1 X82.902 Y86.153 F10800
G1 X83.166 Y86.412
M204 S800
G1 F1200
G1 X84.212 Y85.769 E.0385
G1 X86.504 Y85.191 E.07411
G1 X95.101 Y82.53 E.28217
G1 X95.948 Y82.477 E.02661
G1 X160.845 Y93.951 E2.06636
G1 X162.172 Y94.369 E.04362
G1 X163.621 Y95.243 E.05306
G1 X164.838 Y96.422 E.05313
G1 X165.725 Y97.666 E.0479
G1 X166.426 Y99.028 E.04803
G1 X167.041 Y100.761 E.05766
G1 X167.4 Y102.388 E.05224
G1 X167.583 Y104.048 E.05236
G1 X167.584 Y105.936 E.0592
G1 X167.403 Y107.592 E.05223
G1 X167.043 Y109.233 E.05268
G1 X166.478 Y110.852 E.05376
G1 X165.756 Y112.282 E.05023
G1 X164.815 Y113.604 E.05088
G1 X163.722 Y114.678 E.04805
G1 X162.391 Y115.53 E.04955
G1 X160.84 Y116.05 E.05129
G1 X95.923 Y127.522 E2.06697
G1 X95.076 Y127.468 E.02661
G1 X86.505 Y124.809 E.28137
G1 X84.272 Y124.256 E.07213
G1 X83.315 Y123.711 E.03453
G1 X82.842 Y123.21 E.0216
G1 X82.491 Y122.516 E.02438
G1 X82.362 Y121.761 E.02402
G1 X82.458 Y120.725 E.03262
G1 X82.795 Y119.847 E.02949
G1 X83.423 Y119.162 E.02914
G1 X84.388 Y118.701 E.03353
G1 X86.091 Y118.66 E.05341
G1 X88.059 Y118.998 E.06261
G1 X95.592 Y119.842 E.23767
M73 Q5 S41
G1 X159.634 Y109.073 E2.03618
G1 X160.062 Y108.886 E.01464
M73 P6 R41
M73 Q6 S41
G1 X160.317 Y108.643 E.01104
G1 X160.891 Y107.696 E.03472
G1 X161.304 Y106.251 E.04712
G1 X161.394 Y105.424 E.02608
G1 X161.304 Y103.749 E.05259
G1 X160.891 Y102.304 E.04712
G1 X160.317 Y101.357 E.03472
G1 X160.062 Y101.114 E.01104
G1 X159.634 Y100.927 E.01464
G1 X95.592 Y90.158 E2.03618
G1 X88.059 Y91.002 E.23767
G1 X85.954 Y91.352 E.06691
G1 X84.673 Y91.342 E.04017
G1 X84.2 Y91.241 E.01516
G1 X83.579 Y90.946 E.02156
G1 X83.034 Y90.47 E.02269
G1 X82.626 Y89.815 E.0242
G1 X82.502 Y89.456 E.01191
G1 X82.363 Y88.399 E.03343
G1 X82.541 Y87.337 E.03376
G1 X82.815 Y86.827 E.01815
G1 X83.127 Y86.458 E.01515
M204 S1000
G1 X83.127 Y86.458 F10800
G1 X83.415 Y86.702
M204 S800
G1 F1200
G1 X83.433 Y86.68 E.00089
G1 X84.382 Y86.106 E.03477
G1 X86.605 Y85.555 E.07181
G1 X95.191 Y82.897 E.28181
G1 X95.904 Y82.852 E.0224
G1 X160.767 Y94.32 E2.06528
G1 X162.037 Y94.721 E.04176
G1 X163.375 Y95.529 E.04901
G1 X164.541 Y96.656 E.05085
G1 X165.41 Y97.874 E.04691
G1 X166.085 Y99.189 E.04635
G1 X166.675 Y100.853 E.05536
G1 X167.029 Y102.459 E.05156
G1 X167.207 Y104.079 E.0511
G1 X167.208 Y105.905 E.05725
