; generated by PrusaSlicer 2.9.0 on 2024-12-29 at 17:49:08 UTC


;
;
; 

; external perimeters extrusion width = 0.45mm
; perimeters extrusion width = 0.45mm
; infill extrusion width = 0.45mm
; solid infill extrusion width = 0.45mm
; top infill extrusion width = 0.40mm
; first layer extrusion width = 0.42mm

M73 P0 R18
M73 Q0 S18
M201 X1000 Y1000 Z200 E8000 ; sets maximum accelerations, mm/sec^2
M203 X200 Y200 Z12 E120 ; sets maximum feedrates, mm / sec
M204 S1250 T1250 ; sets acceleration (S) and retract acceleration (R), mm/sec^2
M205 X8.00 Y8.00 Z0.40 E4.50 ; sets the jerk limits, mm/sec
M205 S0 T0 ; sets the minimum extruding and travel feed rate, mm/sec

; printing object tweezers.STL id:0 copy 0
; stop printing object tweezers.STL id:0 copy 0

;TYPE:Custom
M862.3 P "MK3SMMU3" ; printer model check
M862.1 P0.4 ; nozzle diameter check
M115 U3.14.1 ; tell printer latest fw version
G90 ; use absolute coordinates
M83 ; extruder relative mode
M104 S215 ; set extruder temp
M140 S60 ; set bed temp
M190 S60 ; wait for bed temp
M109 S215 ; wait for extruder temp
G28 W ; home all without mesh bed level
G80 X77.227 Y85.0986 W95.2899 H39.8028 ; mesh bed levelling

; Send the filament type to the MMU unit.
; E stands for extruder number, F stands for filament type (0: default; 1:flex; 2: PVA)
M403 E0 F0
M403 E1 F0
M403 E2 F0
M403 E3 F0
M403 E4 F0


;go outside print area
G1 Y-3 F1000
G1 Z0.4 F1000
; select extruder
T0
; initial load
G1 X55 E29 F1073
G1 X5 E29 F1800
G1 X55 E8 F2000
G1 Z0.3 F1000
G92 E0
G1 X240 E25 F2200
G1 Y-2 F1000
M73 P1 R18
M73 Q1 S18
G1 X55 E25 F1400
G1 Z0.2 F1000
G1 X5 E4 F1000
G92 E0


M221 S95
G92 E0

; Don't change E values below. Excessive value can damage the printer.
M907 E430 ; set extruder motor current
G21 ; set units to millimeters
G90 ; use absolute coordinates
M83 ; use relative distances for extrusion

M900 K0.05 ; Filament gcode LA 1.5
M900 K30 ; Filament gcode LA 1.0




M107
;LAYER_CHANGE
;Z:0.2
;HEIGHT:0.2
G1 E-.8 F2100
M73 P2 R18
M73 Q2 S18
G1 Z.6 F720
G1 X80.244 Y88.712 F10800
G1 Z.2 F720
G1 E.8 F2100
M204 S800
;TYPE:Skirt/Brim
;WIDTH:0.42
G1 F1200
G1 X82.648 Y87.587 E.08322
G1 X83.527 Y87.316 E.02884
G1 X94.701 Y85.348 E.35575
G1 X96.082 Y85.298 E.04333
G1 X161.243 Y92.499 E2.05552
G1 X163.473 Y92.97 E.07146
G1 X165.475 Y93.782 E.06774
G1 X167.457 Y95.041 E.07362
G1 X169.046 Y96.504 E.06772
G1 X170.015 Y97.696 E.04817
G1 X171.027 Y99.39 E.06187
G1 X171.876 Y101.579 E.07362
G1 X172.283 Y103.701 E.06775
G1 X172.283 Y106.299 E.08146
G1 X171.876 Y108.421 E.06775
G1 X171.295 Y110.044 E.05405
G1 X170.362 Y111.783 E.06188
G1 X169.902 Y112.454 E.02551
G1 X168.478 Y114.079 E.06775
G1 X166.954 Y115.332 E.06186
G1 X165.081 Y116.41 E.06776
G1 X163.473 Y117.03 E.05404
G1 X161.553 Y117.456 E.06166
G1 X96.082 Y124.702 E2.06533
G1 X94.701 Y124.652 E.04333
M73 P2 R17
G1 X85.811 Y123.128 E.28281
G1 X83.527 Y122.684 E.07295
M73 P3 R17
M73 Q3 S18
G1 X82.648 Y122.413 E.02884
G1 X80.245 Y121.288 E.08319
G1 X79.254 Y120.341 E.04298
G1 X77.673 Y117.373 E.10544
G1 X77.416 Y116.344 E.03325
G1 X77.416 Y93.656 E.71137
G1 X77.673 Y92.627 E.03325
M73 Q3 S17
G1 X79.254 Y89.659 E.10544
G1 X80.201 Y88.754 E.04107
M204 S1000
;WIPE_START
G1 F8640
G1 X80.244 Y88.712 E-.01388
G1 X82.648 Y87.587 E-.61286
G1 X83.365 Y87.366 E-.17326
;WIPE_END
G1 Z.6 F720
G1 X82.13 Y90.643 F10800
G1 Z.2 F720
G1 E.8 F2100
M204 S800
G1 F1200
G1 X82.183 Y90.588 E.00239
G1 X84.062 Y89.733 E.06473
G1 X86.371 Y89.287 E.07374
G1 X89.721 Y88.83 E.10601
G1 X95.858 Y87.764 E.1953
G1 X160.967 Y94.958 E2.05387
G1 X162.703 Y95.326 E.05564
G1 X164.314 Y95.971 E.05441
G1 X165.793 Y96.885 E.05451
G1 X167.102 Y98.046 E.05486
G1 X168.198 Y99.427 E.05528
G1 X169.027 Y100.953 E.05445
G1 X169.583 Y102.598 E.05444
G1 X169.849 Y104.315 E.05448
G1 X169.816 Y106.063 E.05482
G1 X169.486 Y107.769 E.05448
G1 X168.869 Y109.392 E.05444
G1 X167.983 Y110.886 E.05446
G1 X166.855 Y112.206 E.05444
G1 X165.49 Y113.332 E.05548
G1 X163.979 Y114.19 E.05448
G1 X162.342 Y114.778 E.05454
G1 X160.962 Y115.042 E.04405
G1 X95.842 Y122.236 E2.05421
G1 X89.72 Y121.17 E.19484
M73 P4 R17
M73 Q4 S17
G1 X86.359 Y120.711 E.10636
G1 X83.84 Y120.198 E.0806
G1 X82.466 Y119.584 E.04719
G1 X81.554 Y118.903 E.03569
G1 X80.724 Y117.846 E.04214
G1 X80.215 Y116.601 E.04217
G1 X80.075 Y115.542 E.03349
G1 X80.137 Y114.445 E.03445
G1 X80.566 Y113.056 E.04558
G1 X80.951 Y112.357 E.02502
G1 X81.681 Y111.525 E.0347
G1 X82.573 Y110.885 E.03442
G1 X83.492 Y110.5 E.03124
G1 X84.632 Y110.258 E.03654
G1 X87.656 Y110.376 E.09489
G1 X91.178 Y110.815 E.11128
G1 X95.58 Y111.129 E.13837
G1 X152.276 Y105.17 E1.78746
G1 X152.276 Y104.83 E.01066
G1 X95.58 Y98.871 E1.78746
G1 X91.178 Y99.185 E.13837
G1 X87.672 Y99.623 E.11078
G1 X84.629 Y99.741 E.09548
G1 X83.083 Y99.356 E.04995
G1 X81.765 Y98.556 E.04834
G1 X81.159 Y97.911 E.02775
G1 X80.722 Y97.292 E.02376
G1 X80.108 Y95.348 E.06392
G1 X80.13 Y93.807 E.04832
G1 X80.382 Y92.874 E.0303
G1 X80.81 Y91.99 E.03079
G1 X82.088 Y90.685 E.05727
M204 S1000
G1 X82.088 Y90.685 F10800
G1 X82.356 Y90.95
M204 S800
G1 F1200
G1 X82.426 Y90.878 E.00315
G1 X84.154 Y90.099 E.05943
G1 X86.438 Y89.659 E.07293
G1 X89.779 Y89.202 E.10573
G1 X95.843 Y88.141 E.19302
G1 X160.917 Y95.332 E2.05277
G1 X162.579 Y95.682 E.05325
M73 P5 R17
M73 Q5 S17
G1 X164.131 Y96.301 E.05239
G1 X165.556 Y97.178 E.05246
G1 X166.817 Y98.294 E.0528
G1 X167.875 Y99.622 E.05324
G1 X168.676 Y101.09 E.05243
G1 X169.213 Y102.672 E.05238
G1 X169.472 Y104.325 E.05246
G1 X169.443 Y106.008 E.05278
G1 X169.127 Y107.651 E.05246
G1 X168.536 Y109.215 E.05242
G1 X167.685 Y110.654 E.05242
G1 X166.601 Y111.926 E.0524
G1 X165.289 Y113.013 E.05342
G1 X163.835 Y113.841 E.05246
G1 X162.256 Y114.411 E.05264
G1 X160.913 Y114.668 E.04287
G1 X95.827 Y121.858 E2.05314
G1 X89.779 Y120.798 E.19252
G1 X86.428 Y120.34 E.10605
G1 X83.975 Y119.846 E.07846
G1 X82.639 Y119.248 E.04589
G1 X81.835 Y118.65 E.03142
G1 X81.037 Y117.635 E.04048
G1 X80.574 Y116.484 E.0389
G1 X80.451 Y115.513 E.03069
G1 X80.512 Y114.491 E.0321
G1 X80.92 Y113.188 E.04281
G1 X81.27 Y112.559 E.02257
G1 X81.949 Y111.792 E.03212
G1 X82.774 Y111.204 E.03176
G1 X83.587 Y110.865 E.02762
G1 X84.687 Y110.632 E.03525
G1 X87.632 Y110.752 E.09242
G1 X91.141 Y111.19 E.11088
G1 X95.586 Y111.507 E.13972
G1 X155.883 Y105.17 E1.90098
G1 X155.883 Y104.83 E.01066
M73 P6 R17
M73 Q6 S17
G1 X95.586 Y98.493 E1.90098
G1 X91.141 Y98.81 E.13972
G1 X87.648 Y99.246 E.11037
G1 X84.692 Y99.368 E.09276
G1 X83.251 Y99.018 E.0465
G1 X82.022 Y98.279 E.04496
G1 X81.444 Y97.662 E.02651
G1 X81.047 Y97.099 E.0216
G1 X80.486 Y95.321 E.05846
G1 X80.5 Y93.882 E.04512
G1 X80.741 Y92.99 E.02897
G1 X81.135 Y92.184 E.02813
G1 X82.313 Y90.993 E.05252
M204 S1000
G1 X82.313 Y90.993 F10800
G1 X82.579 Y91.259
M204 S800
G1 F1200
G1 X82.668 Y91.17 E.00395
G1 X84.247 Y90.466 E.05421
G1 X86.504 Y90.03 E.07207
G1 X89.838 Y89.575 E.1055
G1 X95.828 Y88.519 E.19071
G1 X160.867 Y95.706 E2.05166
G1 X162.455 Y96.038 E.05087
G1 X163.948 Y96.631 E.05037
G1 X165.319 Y97.472 E.05043
G1 X166.533 Y98.543 E.05076
G1 X167.552 Y99.818 E.05118
G1 X168.324 Y101.227 E.05037
G1 X168.843 Y102.748 E.05039
G1 X169.095 Y104.336 E.05041
G1 X169.07 Y105.954 E.05074
G1 X168.769 Y107.534 E.05043
G1 X168.202 Y109.038 E.0504
G1 X167.387 Y110.423 E.05039
G1 X166.348 Y111.647 E.05034
G1 X165.087 Y112.694 E.05139
G1 X163.691 Y113.492 E.05042
G1 X162.17 Y114.043 E.05072
G1 X160.864 Y114.294 E.0417
G1 X95.813 Y121.48 E2.05204
G1 X89.837 Y120.425 E.19027
M73 P7 R17
M73 Q7 S17
G1 X86.495 Y119.969 E.10576
G1 X84.109 Y119.493 E.07629
G1 X82.811 Y118.912 E.04459
G1 X82.114 Y118.396 E.02719
G1 X81.377 Y117.468 E.03716
G1 X80.934 Y116.367 E.03721
G1 X80.828 Y115.486 E.02782
G1 X80.887 Y114.538 E.02978
G1 X81.273 Y113.322 E.04
G1 X81.588 Y112.763 E.02012
G1 X82.215 Y112.06 E.02954
G1 X82.974 Y111.525 E.02912
G1 X83.682 Y111.23 E.02405
G1 X84.741 Y111.006 E.03394
G1 X87.608 Y111.129 E.08998
G1 X91.104 Y111.566 E.11047
G1 X95.592 Y111.886 E.14108
G1 X159.491 Y105.17 E2.01454
G1 X159.491 Y104.83 E.01066
G1 X95.592 Y98.114 E2.01454
G1 X91.104 Y98.434 E.14108
G1 X87.624 Y98.87 E.10997
G1 X84.753 Y98.996 E.0901
G1 X83.419 Y98.679 E.04299
G1 X82.278 Y98.002 E.0416
G1 X81.373 Y96.906 E.04457
G1 X80.863 Y95.294 E.05301
G1 X80.871 Y93.955 E.04198
G1 X81.088 Y93.138 E.0265
G1 X81.46 Y92.378 E.02653
G1 X82.537 Y91.301 E.04776
M204 S1000
G1 X82.537 Y91.301 F10800
M73 P8 R17
M73 Q8 S17
G1 X82.801 Y91.568
M204 S800
G1 F1200
G1 X82.908 Y91.463 E.0047
G1 X84.339 Y90.832 E.04904
G1 X86.57 Y90.401 E.07124
G1 X89.896 Y89.948 E.10525
G1 X95.814 Y88.897 E.18846
G1 X160.816 Y96.08 E2.0505
G1 X162.332 Y96.395 E.04855
M73 P8 R16
G1 X163.765 Y96.962 E.04832
G1 X165.082 Y97.766 E.04838
G1 X166.25 Y98.791 E.04872
G1 X167.23 Y100.014 E.04914
G1 X167.973 Y101.365 E.04834
G1 X168.473 Y102.824 E.04836
G1 X168.717 Y104.348 E.04839
G1 X168.696 Y105.9 E.04867
G1 X168.41 Y107.416 E.04837
G1 X167.855 Y108.889 E.04935
G1 X167.071 Y110.216 E.04833
G1 X166.071 Y111.39 E.04835
G1 X164.885 Y112.375 E.04834
G1 X163.547 Y113.144 E.04839
G1 X162.084 Y113.676 E.04881
G1 X160.815 Y113.92 E.04052
G1 X95.798 Y121.102 E2.05096
G1 X89.896 Y120.052 E.18796
M73 Q8 S16
G1 X86.563 Y119.598 E.10547
G1 X84.243 Y119.14 E.07415
G1 X82.984 Y118.576 E.04326
G1 X82.394 Y118.141 E.02298
G1 X81.69 Y117.256 E.03546
G1 X81.294 Y116.252 E.03384
G1 X81.204 Y115.461 E.02496
G1 X81.262 Y114.587 E.02746
G1 X81.626 Y113.457 E.03722
G1 X81.905 Y112.968 E.01765
G1 X82.48 Y112.328 E.02698
G1 X83.172 Y111.846 E.02644
G1 X83.777 Y111.596 E.02053
G1 X84.796 Y111.38 E.03266
G1 X87.584 Y111.505 E.0875
G1 X91.067 Y111.941 E.11006
G1 X95.599 Y112.264 E.14246
G1 X159.665 Y105.531 E2.01981
G1 X160.115 Y105.357 E.01513
M73 P9 R16
M73 Q9 S16
G1 X160.261 Y105.043 E.01086
G1 X160.243 Y104.842 E.00633
G1 X160.119 Y104.645 E.0073
G1 X159.665 Y104.469 E.01527
G1 X95.599 Y97.736 E2.01981
G1 X91.067 Y98.059 E.14246
G1 X87.599 Y98.494 E.10959
G1 X84.812 Y98.622 E.08748
G1 X83.584 Y98.339 E.03951
G1 X82.534 Y97.724 E.03815
G1 X81.699 Y96.715 E.04106
G1 X81.24 Y95.265 E.04769
G1 X81.242 Y94.028 E.03879
G1 X81.448 Y93.254 E.02511
G1 X81.784 Y92.574 E.02378
G1 X82.758 Y91.61 E.04297
M204 S1000
G1 X82.758 Y91.61 F10800
G1 X83.015 Y91.87
M204 S800
G1 F1200
G1 X83.092 Y91.793 E.00341
G1 X84.432 Y91.198 E.04597
G1 X86.637 Y90.772 E.07041
G1 X89.955 Y90.32 E.10499
G1 X95.799 Y89.275 E.18614
G1 X160.766 Y96.454 E2.04939
G1 X162.209 Y96.752 E.0462
G1 X163.584 Y97.292 E.04632
G1 X164.847 Y98.061 E.04636
G1 X165.966 Y99.041 E.04664
G1 X166.908 Y100.211 E.0471
G1 X167.622 Y101.504 E.04631
G1 X168.104 Y102.9 E.04631
G1 X168.34 Y104.36 E.04637
M73 P10 R16
G1 X168.322 Y105.847 E.04663
M73 Q10 S16
G1 X168.051 Y107.3 E.04634
G1 X167.522 Y108.713 E.04731
G1 X166.773 Y109.985 E.04628
G1 X165.817 Y111.111 E.04631
G1 X164.683 Y112.057 E.0463
G1 X163.402 Y112.795 E.04635
G1 X161.998 Y113.308 E.04687
G1 X160.766 Y113.546 E.03934
G1 X95.784 Y120.725 E2.04986
G1 X89.954 Y119.68 E.18571
G1 X86.63 Y119.227 E.10519
G1 X84.378 Y118.787 E.07194
G1 X83.156 Y118.24 E.04198
G1 X82.671 Y117.885 E.01885
G1 X82.03 Y117.09 E.03202
G1 X81.654 Y116.138 E.03209
G1 X81.581 Y115.47 E.02107
G1 X81.636 Y114.636 E.02621
G1 X81.977 Y113.594 E.03438
G1 X82.22 Y113.175 E.01519
G1 X82.744 Y112.599 E.02442
G1 X83.369 Y112.168 E.0238
G1 X83.872 Y111.961 E.01705
G1 X84.85 Y111.754 E.03134
G1 X87.558 Y111.881 E.085
G1 X91.03 Y112.316 E.10971
G1 X95.605 Y112.643 E.14381
G1 X159.72 Y105.904 E2.02135
G1 X160.152 Y105.793 E.01399
G1 X160.392 Y105.62 E.00928
G1 X160.564 Y105.37 E.00951
G1 X160.642 Y105.076 E.00954
G1 X160.56 Y104.623 E.01443
G1 X160.392 Y104.38 E.00926
G1 X160.152 Y104.207 E.00928
G1 X159.72 Y104.096 E.01399
G1 X95.605 Y97.357 E2.02135
G1 X91.03 Y97.684 E.14381
M73 P11 R16
M73 Q11 S16
G1 X87.573 Y98.117 E.10924
G1 X84.868 Y98.249 E.08491
G1 X83.746 Y97.997 E.03606
G1 X82.79 Y97.445 E.03461
G1 X82.025 Y96.524 E.03754
G1 X81.617 Y95.235 E.04239
G1 X81.613 Y94.098 E.03565
G1 X81.794 Y93.403 E.02252
G1 X82.108 Y92.769 E.02218
G1 X82.973 Y91.912 E.03818
M204 S1000
G1 X82.973 Y91.912 F10800
G1 X83.235 Y92.181
M204 S800
G1 F1200
G1 X83.33 Y92.087 E.00419
G1 X84.523 Y91.564 E.04084
G1 X86.693 Y91.145 E.0693
G1 X90.014 Y90.693 E.10509
G1 X95.785 Y89.653 E.18386
G1 X160.716 Y96.827 E2.04825
G1 X162.116 Y97.118 E.04483
G1 X163.43 Y97.637 E.0443
G1 X164.636 Y98.374 E.04432
G1 X165.705 Y99.313 E.04461
G1 X166.603 Y100.433 E.04501
G1 X167.283 Y101.671 E.04429
G1 X167.742 Y103.007 E.04429
G1 X167.965 Y104.403 E.04433
G1 X167.945 Y105.825 E.04459
G1 X167.684 Y107.214 E.04431
G1 X167.188 Y108.536 E.04427
G1 X166.474 Y109.754 E.04427
G1 X165.562 Y110.832 E.04427
G1 X164.479 Y111.739 E.04429
G1 X163.256 Y112.447 E.04431
G1 X161.911 Y112.941 E.04493
G1 X160.717 Y113.172 E.03813
G1 X95.77 Y120.347 E2.04876
G1 X90.014 Y119.307 E.1834
G1 X86.696 Y118.855 E.10499
G1 X84.511 Y118.433 E.06978
G1 X83.327 Y117.904 E.04066
G1 X82.946 Y117.626 E.01479
G1 X82.368 Y116.922 E.02856
M73 P12 R16
G1 X82.026 Y116.069 E.02881
G1 X81.959 Y115.475 E.01874
M73 Q12 S16
G1 X82.002 Y114.729 E.02343
G1 X82.33 Y113.73 E.03297
G1 X82.977 Y112.896 E.0331
G1 X83.566 Y112.49 E.02243
G1 X83.966 Y112.326 E.01355
G1 X84.904 Y112.128 E.03006
G1 X87.532 Y112.258 E.0825
G1 X90.993 Y112.692 E.10937
G1 X95.611 Y113.021 E.14516
G1 X159.776 Y106.277 E2.02293
G1 X160.495 Y106.025 E.02389
G1 X160.799 Y105.716 E.01359
G1 X160.98 Y105.323 E.01357
G1 X161.017 Y104.891 E.01359
G1 X160.799 Y104.284 E.02022
G1 X160.309 Y103.864 E.02024
G1 X159.776 Y103.723 E.01729
G1 X95.611 Y96.979 E2.02293
G1 X90.993 Y97.308 E.14516
G1 X87.547 Y97.741 E.1089
G1 X84.923 Y97.875 E.08238
G1 X83.906 Y97.655 E.03262
G1 X83.045 Y97.166 E.03105
G1 X82.352 Y96.334 E.03395
G1 X81.993 Y95.203 E.03721
G1 X81.985 Y94.167 E.03248
G1 X82.142 Y93.552 E.0199
G1 X82.431 Y92.965 E.02051
G1 X83.192 Y92.223 E.03333
M204 S1000
G1 X83.192 Y92.223 F10800
G1 X83.452 Y92.493
M204 S800
G1 F1200
G1 X83.566 Y92.384 E.00495
G1 X84.614 Y91.931 E.0358
G1 X86.749 Y91.518 E.06818
G1 X90.073 Y91.065 E.10519
G1 X95.771 Y90.03 E.18158
G1 X160.666 Y97.201 E2.04712
G1 X161.994 Y97.475 E.04252
M73 P13 R16
M73 Q13 S16
G1 X163.248 Y97.968 E.04225
G1 X164.4 Y98.668 E.04227
G1 X165.422 Y99.563 E.04259
G1 X166.281 Y100.63 E.04295
G1 X166.932 Y101.81 E.04226
G1 X167.372 Y103.084 E.04226
G1 X167.588 Y104.415 E.04228
G1 X167.572 Y105.773 E.04258
G1 X167.324 Y107.098 E.04227
G1 X166.854 Y108.36 E.04222
G1 X166.175 Y109.524 E.04225
G1 X165.307 Y110.554 E.04223
G1 X164.275 Y111.421 E.04226
G1 X163.11 Y112.099 E.04226
G1 X161.824 Y112.574 E.04298
G1 X160.668 Y112.798 E.03692
G1 X95.756 Y119.969 E2.04765
G1 X90.073 Y118.935 E.18111
G1 X86.752 Y118.482 E.10509
G1 X84.605 Y118.067 E.06856
G1 X83.5 Y117.568 E.03802
G1 X83.22 Y117.366 E.01083
G1 X82.705 Y116.751 E.02515
G1 X82.397 Y115.999 E.02548
G1 X82.336 Y115.48 E.01638
G1 X82.377 Y114.777 E.02208
G1 X82.808 Y113.65 E.03783
G1 X83.242 Y113.166 E.02038
G1 X83.76 Y112.814 E.01964
G1 X84.958 Y112.502 E.03882
G1 X87.506 Y112.634 E.08
G1 X90.956 Y113.067 E.10902
G1 X95.618 Y113.4 E.14655
G1 X159.832 Y106.651 E2.02447
G1 X160.473 Y106.477 E.02083
M73 P13 R15
M73 Q13 S15
G1 X160.931 Y106.149 E.01766
G1 X161.25 Y105.686 E.01763
G1 X161.394 Y105.141 E.01767
G1 X161.25 Y104.314 E.02632
G1 X160.931 Y103.851 E.01763
G1 X160.473 Y103.523 E.01766
G1 X159.832 Y103.349 E.02083
G1 X95.618 Y96.6 E2.02447
G1 X90.956 Y96.933 E.14655
M73 P14 R15
M73 Q14 S15
G1 X87.52 Y97.365 E.10858
G1 X84.975 Y97.501 E.07991
G1 X84.063 Y97.311 E.02921
G1 X83.3 Y96.886 E.02738
G1 X82.68 Y96.146 E.03027
G1 X82.37 Y95.169 E.03214
G1 X82.356 Y94.236 E.02926
G1 X82.502 Y93.666 E.01845
G1 X82.753 Y93.164 E.0176
G1 X83.409 Y92.535 E.0285
M204 S1000
G1 X83.409 Y92.535 F10800
G1 X83.662 Y92.798
M204 S800
G1 F1200
G1 X83.748 Y92.715 E.00375
G1 X84.707 Y92.297 E.0328
G1 X86.805 Y91.891 E.067
G1 X90.133 Y91.438 E.10531
G1 X95.757 Y90.408 E.17927
G1 X160.616 Y97.575 E2.04599
G1 X161.872 Y97.832 E.0402
G1 X163.067 Y98.299 E.04023
G1 X164.165 Y98.964 E.04025
G1 X165.139 Y99.813 E.04051
