; generated by PrusaSlicer 2.9.0 on 2025-01-04 at 17:25:56 UTC

; 

; external perimeters extrusion width = 0.45mm
; perimeters extrusion width = 0.45mm
; infill extrusion width = 0.45mm
; solid infill extrusion width = 0.45mm
; top infill extrusion width = 0.40mm
; first layer extrusion width = 0.42mm

M73 P0 R35
M73 Q0 S35

; printing object Day1LegoBrick v3.stl id:0 copy 0
; stop printing object Day1LegoBrick v3.stl id:0 copy 0

;TYPE:Custom
M862.3 P "MK3S" ; printer model check
M862.1 P0.4 ; nozzle diameter check
M115 U3.8.0 ; tell printer latest fw version
G90 ; use absolute coordinates
M83 ; extruder relative mode
M104 S215 ; set extruder temp
M140 S60 ; set bed temp
M190 S60 ; wait for bed temp
M109 S215 ; wait for extruder temp
G28 W ; home all without mesh bed level
G80 ; mesh bed leveling
G1 Y-3.0 F1000.0 ; go outside print area
G92 E0.0
G1 X60.0 E9.0 F1000.0 ; intro line
G1 X100.0 E12.5 F1000.0 ; intro line
G92 E0.0
M221 S95
G21 ; set units to millimeters
G90 ; use absolute coordinates
M83 ; use relative distances for extrusion

M900 K0.05 ; Filament gcode LA 1.5
M900 K30 ; Filament gcode LA 1.0




M107
;LAYER_CHANGE
;Z:0.2
;HEIGHT:0.2
G1 E-.8 F2100
G1 Z.8 F720
G1 X172.048 Y43.994 F10800
G1 Z.2 F720
G1 E.8 F2100
M204 S800
;TYPE:Skirt/Brim
;WIDTH:0.42
G1 F1200
G1 X172.689 Y42.446 E.05253
G1 X175.676 Y39.459 E.13245
G1 X177.224 Y38.818 E.05253
G1 X212.849 Y38.818 E1.117
G1 X214.397 Y39.459 E.05253
G1 X217.384 Y42.446 E.13245
G1 X218.025 Y43.994 E.05253
G1 X218.025 Y63.619 E.61533
G1 X217.384 Y65.166 E.0525
G1 X214.397 Y68.154 E.13247
G1 X212.849 Y68.795 E.05253
G1 X177.224 Y68.795 E1.117
G1 X175.676 Y68.154 E.05253
M73 P0 R34
G1 X172.689 Y65.166 E.13247
G1 X172.048 Y63.619 E.0525
G1 X172.048 Y44.054 E.61345
M204 S1000
;WIPE_START
G1 F8640
G1 X172.048 Y43.994 E-.01385
G1 X172.689 Y42.446 E-.38687
G1 X173.912 Y41.223 E-.39928
;WIPE_END
G1 Z.8 F720
G1 X174.759 Y44.704 F10800
G1 Z.2 F720
G1 E.8 F2100
M204 S800
G1 F1200
G1 X174.838 Y44.376 E.01058
G1 X175.296 Y43.456 E.03222
G1 X176.232 Y42.426 E.04364
G1 X176.917 Y41.918 E.02674
G1 X178.89 Y41.293 E.06489
G1 X211.126 Y41.296 E1.01074
G1 X212.146 Y41.49 E.03255
G1 X213.124 Y41.906 E.03332
G1 X214.249 Y42.802 E.04509
G1 X215.142 Y44.14 E.05044
G1 X215.55 Y45.685 E.0501
G1 X215.545 Y61.969 E.51057
G1 X215.235 Y63.236 E.0409
G1 X214.777 Y64.156 E.03222
G1 X213.841 Y65.187 E.04366
G1 X213.156 Y65.695 E.02674
G1 X211.184 Y66.32 E.06486
G1 X178.919 Y66.32 E1.01165
G1 X177.606 Y66.005 E.04234
G1 X176.686 Y65.547 E.03222
G1 X175.656 Y64.61 E.04366
G1 X175.148 Y63.925 E.02674
G1 X174.523 Y61.953 E.06486
G1 X174.523 Y45.688 E.50998
G1 X174.745 Y44.762 E.02986
M204 S1000
G1 X174.745 Y44.762 F10800
G1 X175.11 Y44.851
M204 S800
G1 F1200
G1 X175.199 Y44.487 E.01175
G1 X175.62 Y43.65 E.02938
G1 X176.497 Y42.695 E.04065
G1 X177.115 Y42.24 E.02406
G1 X178.919 Y41.67 E.05932
G1 X211.108 Y41.673 E1.00926
G1 X212.054 Y41.857 E.03022
M73 P1 R34
M73 Q1 S35
G1 X212.951 Y42.242 E.03061
G1 X213.99 Y43.077 E.04179
G1 X214.786 Y44.268 E.04492
G1 X215.173 Y45.71 E.04681
G1 X215.173 Y61.901 E.50766
G1 X214.874 Y63.125 E.03951
G1 X214.453 Y63.963 E.0294
G1 X213.576 Y64.918 E.04065
G1 X212.958 Y65.373 E.02406
G1 X211.155 Y65.943 E.05929
G1 X178.942 Y65.943 E1.01002
G1 X177.717 Y65.644 E.03954
G1 X176.88 Y65.222 E.02939
G1 X175.925 Y64.346 E.04063
G1 X175.47 Y63.727 E.02409
G1 X174.9 Y61.924 E.05929
G1 X174.9 Y45.711 E.50835
G1 X175.096 Y44.91 E.02586
M204 S1000
G1 X175.096 Y44.91 F10800
G1 X175.46 Y45
M204 S800
G1 F1200
G1 X175.559 Y44.6 E.01292
G1 X175.944 Y43.845 E.02657
G1 X176.76 Y42.965 E.03763
G1 X177.312 Y42.563 E.02141
G1 X178.947 Y42.047 E.05376
G1 X211.089 Y42.051 E1.00779
G1 X211.96 Y42.222 E.02783
M73 Q1 S34
G1 X212.777 Y42.577 E.02793
G1 X213.729 Y43.351 E.03847
G1 X214.454 Y44.449 E.04125
G1 X214.796 Y45.734 E.04169
G1 X214.796 Y61.878 E.50618
G1 X214.514 Y63.013 E.03667
G1 X214.129 Y63.767 E.02654
G1 X213.312 Y64.647 E.03765
G1 X212.761 Y65.05 E.0214
G1 X211.126 Y65.566 E.05376
G1 X178.965 Y65.566 E1.00839
G1 X177.83 Y65.284 E.03667
G1 X177.075 Y64.899 E.02657
G1 X176.195 Y64.082 E.03765
G1 X175.793 Y63.53 E.02141
G1 X175.277 Y61.896 E.05373
G1 X175.277 Y45.735 E.50672
G1 X175.445 Y45.058 E.02187
M204 S1000
G1 X175.445 Y45.058 F10800
G1 X175.808 Y45.151
M204 S800
G1 F1200
G1 X175.919 Y44.714 E.01414
G1 X176.266 Y44.042 E.02371
G1 X177.022 Y43.237 E.03463
G1 X177.508 Y42.886 E.0188
G1 X178.976 Y42.424 E.04825
G1 X211.07 Y42.428 E1.00628
G1 X211.865 Y42.588 E.02543
G1 X212.6 Y42.911 E.02517
G1 X213.467 Y43.623 E.03518
G1 X214.121 Y44.629 E.03762
G1 X214.419 Y45.759 E.03664
G1 X214.419 Y61.854 E.50465
G1 X214.154 Y62.898 E.03377
G1 X213.807 Y63.57 E.02371
G1 X213.051 Y64.375 E.03463
G1 X212.565 Y64.726 E.0188
G1 X211.097 Y65.189 E.04826
G1 X178.989 Y65.189 E1.00672
G1 X177.945 Y64.924 E.03377
G1 X177.273 Y64.576 E.02373
G1 X176.467 Y63.82 E.03465
G1 X176.117 Y63.335 E.01875
G1 X175.654 Y61.867 E.04826
G1 X175.654 Y45.759 E.50506
G1 X175.794 Y45.209 E.01779
M204 S1000
G1 X175.794 Y45.209 F10800
G1 X176.156 Y45.303
M204 S800
G1 F1200
G1 X176.278 Y44.831 E.01529
G1 X176.587 Y44.242 E.02085
G1 X177.282 Y43.511 E.03163
G1 X177.702 Y43.211 E.01618
G1 X179.005 Y42.801 E.04283
G1 X211.051 Y42.805 E1.00478
G1 X211.732 Y42.941 E.02177
G1 X212.424 Y43.246 E.02371
G1 X213.203 Y43.894 E.03177
G1 X213.765 Y44.756 E.03226
G1 X214.042 Y45.784 E.03338
G1 X214.042 Y61.829 E.50308
G1 X213.795 Y62.782 E.03087
G1 X213.486 Y63.371 E.02085
G1 X212.791 Y64.102 E.03163
G1 X212.371 Y64.402 E.01618
G1 X211.068 Y64.811 E.04282
G1 X179.013 Y64.811 E1.00506
G1 X178.061 Y64.564 E.03084
M73 P2 R34
M73 Q2 S34
G1 X177.472 Y64.255 E.02085
G1 X176.741 Y63.56 E.03163
G1 X176.441 Y63.14 E.01618
G1 X176.031 Y61.838 E.0428
G1 X176.031 Y45.783 E.50339
G1 X176.141 Y45.361 E.01367
M204 S1000
G1 X176.141 Y45.361 F10800
G1 X176.502 Y45.457
M204 S800
G1 F1200
G1 X176.637 Y44.95 E.01645
G1 X176.907 Y44.443 E.01801
G1 X177.54 Y43.786 E.02861
G1 X177.895 Y43.536 E.01361
G1 X179.034 Y43.178 E.03744
G1 X211.031 Y43.182 E1.00324
G1 X211.635 Y43.306 E.01933
G1 X212.245 Y43.578 E.02094
G1 X212.938 Y44.163 E.02844
G1 X213.431 Y44.934 E.02869
G1 X213.665 Y45.808 E.02837
G1 X213.665 Y61.804 E.50154
G1 X213.436 Y62.662 E.02784
G1 X213.166 Y63.169 E.01801
G1 X212.532 Y63.826 E.02863
G1 X212.178 Y64.077 E.01361
G1 X211.04 Y64.434 E.0374
G1 X179.039 Y64.434 E1.00337
G1 X178.18 Y64.206 E.02787
G1 X177.673 Y63.936 E.01801
G1 X177.016 Y63.302 E.02863
G1 X176.766 Y62.947 E.01361
G1 X176.408 Y61.809 E.03741
G1 X176.408 Y45.808 E.5017
G1 X176.486 Y45.515 E.00951
M204 S1000
G1 X176.486 Y45.515 F10800
G1 X176.846 Y45.613
M204 S800
G1 F1200
G1 X176.994 Y45.072 E.01759
G1 X177.225 Y44.647 E.01517
G1 X178.086 Y43.862 E.03653
G1 X179.062 Y43.555 E.03208
G1 X211.011 Y43.559 E1.00174
G1 X211.536 Y43.67 E.01682
G1 X212.063 Y43.91 E.01816
G1 X212.671 Y44.431 E.02511
G1 X213.076 Y45.062 E.02351
G1 X213.288 Y45.834 E.0251
G1 X213.288 Y61.778 E.49991
G1 X213.079 Y62.541 E.0248
G1 X212.848 Y62.965 E.01514
G1 X211.987 Y63.75 E.03653
G1 X211.011 Y64.057 E.03208
G1 X179.064 Y64.057 E1.00168
G1 X178.302 Y63.849 E.02477
G1 X177.878 Y63.618 E.01514
G1 X177.092 Y62.756 E.03658
G1 X176.785 Y61.781 E.03205
G1 X176.785 Y45.834 E.50001
G1 X176.83 Y45.671 E.0053
M204 S1000
G1 X176.83 Y45.671 F10800
G1 X177.188 Y45.772
M204 S800
G1 F1200
G1 X177.35 Y45.197 E.01873
G1 X177.541 Y44.855 E.01228
G1 X178.05 Y44.343 E.02264
G1 X178.275 Y44.189 E.00855
G1 X179.091 Y43.932 E.02682
G1 X210.99 Y43.936 E1.00017
G1 X211.433 Y44.034 E.01423
G1 X211.879 Y44.24 E.0154
G1 X212.402 Y44.697 E.02178
G1 X212.721 Y45.192 E.01846
G1 X212.91 Y45.861 E.0218
G1 X212.91 Y61.751 E.49822
G1 X212.723 Y62.415 E.02163
G1 X212.532 Y62.758 E.01231
G1 X212.023 Y63.27 E.02264
G1 X211.798 Y63.423 E.00853
G1 X210.982 Y63.68 E.02682
G1 X179.091 Y63.68 E.99992
G1 X178.427 Y63.492 E.02164
G1 X178.085 Y63.302 E.01227
G1 X177.573 Y62.793 E.02264
G1 X177.42 Y62.568 E.00853
G1 X177.163 Y61.752 E.02682
G1 X177.163 Y45.861 E.49825
G1 X177.171 Y45.83 E.001
M204 S1000
G1 X177.171 Y45.83 F10800
G1 X177.54 Y45.889
M204 S800
G1 F1200
G1 X177.854 Y45.066 E.02762
G1 X178.461 Y44.518 E.02564
G1 X179.12 Y44.309 E.02168
G1 X210.967 Y44.313 E.99854
G1 X211.692 Y44.569 E.02411
G1 X212.132 Y44.961 E.01848
G1 X212.368 Y45.326 E.01363
G1 X212.533 Y45.889 E.01839
G1 X212.533 Y61.723 E.49646
G1 X212.219 Y62.547 E.02765
M73 P3 R34
M73 Q3 S34
G1 X211.612 Y63.094 E.02562
G1 X210.953 Y63.303 E.02168
G1 X179.119 Y63.303 E.99813
G1 X178.296 Y62.989 E.02762
G1 X177.748 Y62.381 E.02566
G1 X177.54 Y61.723 E.02164
G1 X177.54 Y45.949 E.49458
M204 S1000
G1 X177.54 Y45.949 F10800
G1 X177.917 Y45.949
M204 S800
G1 F1200
G1 X177.917 Y45.919 E.00094
G1 X178.164 Y45.281 E.02145
G1 X178.644 Y44.849 E.02025
G1 X179.15 Y44.686 E.01667
G1 X210.946 Y44.69 E.99694
G1 X211.504 Y44.897 E.01866
G1 X212.016 Y45.463 E.02393
G1 X212.156 Y45.919 E.01496
G1 X212.156 Y61.694 E.49461
G1 X212.015 Y62.151 E.015
G1 X211.525 Y62.702 E.02312
G1 X210.923 Y62.926 E.02014
G1 X179.149 Y62.926 E.99625
G1 X178.692 Y62.785 E.015
G1 X178.141 Y62.295 E.02312
G1 X177.917 Y61.693 E.02014
G1 X177.917 Y46.009 E.49176
M204 S1000
G1 X177.917 Y46.009 F10800
M73 P3 R33
G1 X178.294 Y46.009
M204 S800
G1 F1200
G1 X178.294 Y45.95 E.00185
G1 X178.47 Y45.503 E.01506
G1 X178.819 Y45.183 E.01485
G1 X179.181 Y45.064 E.01195
G1 X210.924 Y45.067 E.99528
G1 X211.315 Y45.224 E.01321
G1 X211.583 Y45.479 E.0116
G1 X211.779 Y45.95 E.016
G1 X211.779 Y61.662 E.49264
G1 X211.603 Y62.109 E.01506
G1 X211.254 Y62.43 E.01487
G1 X210.892 Y62.549 E.01195
G1 X179.181 Y62.549 E.99428
G1 X178.733 Y62.373 E.01509
G1 X178.413 Y62.024 E.01485
G1 X178.294 Y61.662 E.01195
G1 X178.294 Y46.069 E.48891
M204 S1000
G1 X178.294 Y46.069 F10800
G1 X178.671 Y46.069
M204 S800
G1 F1200
G1 X178.671 Y45.985 E.00263
G1 X178.768 Y45.734 E.00844
G1 X179.003 Y45.517 E.01003
G1 X179.216 Y45.441 E.00709
G1 X210.871 Y45.441 E.99252
G1 X211.303 Y45.731 E.01631
G1 X211.402 Y45.985 E.00855
G1 X211.402 Y61.627 E.49044
G1 X211.305 Y61.878 E.00844
G1 X211.07 Y62.096 E.01005
G1 X210.857 Y62.172 E.00709
G1 X179.216 Y62.172 E.99208
G1 X178.964 Y62.074 E.00848
G1 X178.747 Y61.84 E.01001
G1 X178.671 Y61.627 E.00709
G1 X178.671 Y46.129 E.48593
M204 S1000
G1 X178.671 Y46.129 F10800
G1 X179.048 Y46.128
M204 S800
G1 F1200
G1 X179.048 Y46.027 E.00317
G1 X179.188 Y45.846 E.00717
G1 X210.885 Y45.846 E.99384
G1 X211.025 Y46.027 E.00717
G1 X211.025 Y61.585 E.48781
G1 X210.885 Y61.766 E.00717
G1 X179.258 Y61.795 E.99164
G1 X179.077 Y61.654 E.00719
M73 P4 R33
M73 Q4 S34
G1 X179.048 Y46.188 E.48493
M204 S1000
;WIPE_START
G1 F8640
G1 X179.048 Y46.128 E-.01385
G1 X179.048 Y46.027 E-.02332
G1 X179.188 Y45.846 E-.05284
G1 X182.263 Y45.846 E-.70999
;WIPE_END
G1 Z.8 F720
; printing object Day1LegoBrick v3.stl id:0 copy 0
G1 X180.274 Y47.044 F10800
G1 Z.2 F720
G1 E.8 F2100
M204 S800
;TYPE:External perimeter
;WIDTH:0.56646
G1 F1200
G1 X180.405 Y46.913 E.00806
G1 X209.668 Y46.913 E1.27389
G1 X209.93 Y47.175 E.01613
M73 Q4 S33
G1 X209.93 Y60.438 E.57737
;WIDTH:0.611373
G1 X209.907 Y60.546 E.00522
;WIDTH:0.656285
G1 X209.885 Y60.655 E.00567
G1 X209.776 Y60.677 E.00567
;WIDTH:0.611373
G1 X209.668 Y60.699 E.00521
;WIDTH:0.56646
G1 X180.405 Y60.699 E1.27389
G1 X180.144 Y60.45 E.0157
G1 X180.143 Y47.175 E.57789
G1 X180.232 Y47.086 E.00548
M204 S1000
;WIPE_START
G1 F8640
G1 X180.274 Y47.044 E-.01371
G1 X180.405 Y46.913 E-.04278
G1 X183.625 Y46.913 E-.74351
;WIPE_END
G1 Z.8 F720
G1 X210.131 Y46.69 F10800
G1 Z.2 F720
G1 E.8 F2100
M204 S800
;TYPE:Perimeter
;WIDTH:0.515492
G1 F1200
G1 X210.072 Y46.69 E.00232
G1 X210.043 Y46.741 E.00231
G1 X210.072 Y46.792 E.00231
G1 X210.131 Y46.792 E.00232
G1 X210.161 Y46.741 E.00233
M204 S1000
;WIPE_START
G1 F8640
G1 X210.131 Y46.69 E-.01366
G1 X210.072 Y46.69 E-.01362
G1 X210.043 Y46.741 E-.01355
G1 X210.072 Y46.792 E-.01355
G1 X210.131 Y46.792 E-.01362
G1 X210.161 Y46.741 E-.01366
;WIPE_END
G1 E-.71834 F2100
G1 Z.8 F720
G1 X179.546 Y46.316 F10800
G1 Z.2 F720
G1 E.8 F2100
M204 S800
;TYPE:External perimeter
;WIDTH:0.419999
G1 F1200
G1 X179.971 Y46.316 E.01333
;WIDTH:0.46882
G1 X180.116 Y46.341 E.00521
;WIDTH:0.51764
G1 X180.26 Y46.365 E.00576
;WIDTH:0.56646
G1 X180.405 Y46.389 E.0064
G1 X209.668 Y46.389 E1.27389
G1 X209.813 Y46.365 E.0064
;WIDTH:0.51764
G1 X209.957 Y46.341 E.00576
;WIDTH:0.46882
G1 X210.102 Y46.316 E.00521
;WIDTH:0.419999
G1 X210.526 Y46.316 E.01329
G1 X210.526 Y46.741 E.01333
;WIDTH:0.46882
G1 X210.502 Y46.886 E.0052
;WIDTH:0.51764
G1 X210.478 Y47.03 E.00576
;WIDTH:0.56646
G1 X210.453 Y47.175 E.00641
G1 X210.453 Y60.438 E.57737
;WIDTH:0.570426
G1 X210.451 Y60.529 E.00399
;WIDTH:0.613356
G1 X210.43 Y60.853 E.0154
;WIDTH:0.656285
G1 X210.408 Y61.178 E.01661
G1 X210.038 Y61.201 E.01891
;WIDTH:0.611373
G1 X209.668 Y61.223 E.01752
;WIDTH:0.56646
G1 X180.405 Y61.223 E1.27389
G1 X180.26 Y61.247 E.0064
;WIDTH:0.51764
G1 X180.116 Y61.272 E.00577
;WIDTH:0.46882
G1 X179.971 Y61.296 E.0052
;WIDTH:0.419999
G1 X179.546 Y61.296 E.01333
G1 X179.546 Y60.871 E.01333
;WIDTH:0.46882
G1 X179.571 Y60.727 E.00518
;WIDTH:0.51764
G1 X179.595 Y60.582 E.0058
;WIDTH:0.56646
G1 X179.62 Y60.438 E.00636
G1 X179.62 Y47.175 E.57737
G1 X179.595 Y47.03 E.00641
;WIDTH:0.51764
G1 X179.571 Y46.886 E.00576
;WIDTH:0.46882
G1 X179.546 Y46.741 E.00521
;WIDTH:0.419999
G1 X179.546 Y46.376 E.01144
M204 S1000
;WIPE_START
G1 F8640
G1 X179.546 Y46.316 E-.01385
G1 X179.971 Y46.316 E-.09813
G1 X180.116 Y46.341 E-.03397
G1 X180.26 Y46.365 E-.03371
G1 X180.405 Y46.389 E-.03394
G1 X182.945 Y46.389 E-.5864
;WIPE_END
G1 Z.8 F720
G1 X203.124 Y51.361 F10800
G1 Z.2 F720
G1 E.8 F2100
M204 S800
;WIDTH:0.425734
G1 F1200
G1 X203.607 Y51.425 E.01551
G1 X204.135 Y51.609 E.0178
;WIDTH:0.423812
G1 X204.677 Y51.983 E.02086
;WIDTH:0.428701
G1 X205.054 Y52.427 E.01868
G1 X205.189 Y52.629 E.00779
;WIDTH:0.411013
G1 X205.425 Y53.247 E.02025
;WIDTH:0.412618
G1 X205.485 Y53.959 E.02196
;WIDTH:0.418247
G1 X205.341 Y54.658 E.02227
;WIDTH:0.425119
G1 X205.043 Y55.212 E.01999
;WIDTH:0.429564
G1 X204.649 Y55.641 E.01873
G1 X204.442 Y55.817 E.00874
;WIDTH:0.411093
G1 X203.854 Y56.119 E.02024
;WIDTH:0.413484
G1 X203.153 Y56.258 E.02202
;WIDTH:0.41988
G1 X202.442 Y56.191 E.02238
;WIDTH:0.426307
G1 X201.886 Y55.966 E.01912
;WIDTH:0.430252
G1 X201.412 Y55.629 E.01873
G1 X201.191 Y55.423 E.00973
;WIDTH:0.4113
G1 X200.827 Y54.871 E.02025
;WIDTH:0.414536
G1 X200.612 Y54.191 E.02204
;WIDTH:0.421401
G1 X200.6 Y53.488 E.02213
;WIDTH:0.427338
G1 X200.803 Y52.789 E.02327
;WIDTH:0.413629
G1 X201.191 Y52.189 E.02202
;WIDTH:0.411658
G1 X201.736 Y51.726 E.02193
;WIDTH:0.416
G1 X202.389 Y51.437 E.02215
;WIDTH:0.422416
G1 X203.057 Y51.352 E.02125
;WIDTH:0.425734
G1 X203.065 Y51.353 E.00026
M204 S1000
;WIPE_START
G1 F8640
G1 X203.124 Y51.361 E-.01375
G1 X203.607 Y51.425 E-.1125
G1 X204.135 Y51.609 E-.12911
G1 X204.677 Y51.983 E-.15205
G1 X205.054 Y52.427 E-.13449
G1 X205.189 Y52.629 E-.0561
G1 X205.425 Y53.247 E-.15275
G1 X205.443 Y53.459 E-.04925
;WIPE_END
G1 Z.8 F720
G1 X200.222 Y54.123 F10800
G1 Z.2 F720
G1 E.8 F2100
M204 S800
;WIDTH:0.421401
G1 F1200
G1 X200.222 Y53.488 E.01998
G1 X200.254 Y53.323 E.00529
;WIDTH:0.414534
G1 X200.464 Y52.645 E.02193
;WIDTH:0.430931
G1 X200.723 Y52.18 E.01717
G1 X201.179 Y51.675 E.02195
;WIDTH:0.430252
G1 X201.742 Y51.291 E.02195
;WIDTH:0.426305
G1 X202.398 Y51.047 E.02231
;WIDTH:0.419862
G1 X203.167 Y50.984 E.02418
;WIDTH:0.425734
G1 X203.736 Y51.065 E.01829
G1 X204.396 Y51.323 E.02256
;WIDTH:0.423812
G1 X204.896 Y51.672 E.01931
G1 X205.044 Y51.823 E.0067
;WIDTH:0.428701
G1 X205.377 Y52.219 E.0166
;WIDTH:0.431444
G1 X205.689 Y52.826 E.02205
G1 X205.846 Y53.488 E.02198
;WIDTH:0.429137
G1 X205.843 Y54.17 E.0219
;WIDTH:0.424489
G1 X205.65 Y54.889 E.02362
;WIDTH:0.425119
G1 X205.378 Y55.395 E.01826
G1 X205.248 Y55.56 E.00668
;WIDTH:0.429564
G1 X204.894 Y55.939 E.01667
;WIDTH:0.431384
G1 X204.33 Y56.321 E.022
G1 X203.691 Y56.557 E.022
;WIDTH:0.428275
G1 X203.013 Y56.637 E.02188
;WIDTH:0.423061
G1 X202.249 Y56.521 E.02443
;WIDTH:0.416013
G1 X201.594 Y56.234 E.02218
