; generated by PrusaSlicer 2.9.0 on 2025-01-04 at 18:16:20 UTC

; 

; external perimeters extrusion width = 0.45mm
; perimeters extrusion width = 0.45mm
; infill extrusion width = 0.45mm
; solid infill extrusion width = 0.45mm
; top infill extrusion width = 0.40mm
; first layer extrusion width = 0.42mm

M73 P0 R35
M73 Q0 S35

; printing object Day1LegoBrick v3.stl id:0 copy 0
; stop printing object Day1LegoBrick v3.stl id:0 copy 0

;TYPE:Custom
M862.3 P "MK3S" ; printer model check
M862.1 P0.4 ; nozzle diameter check
M115 U3.8.0 ; tell printer latest fw version
G90 ; use absolute coordinates
M83 ; extruder relative mode
M104 S215 ; set extruder temp
M140 S60 ; set bed temp
M190 S60 ; wait for bed temp
M109 S215 ; wait for extruder temp
G28 W ; home all without mesh bed level
G80 ; mesh bed leveling
G1 Y-3.0 F1000.0 ; go outside print area
G92 E0.0
G1 X60.0 E9.0 F1000.0 ; intro line
G1 X100.0 E12.5 F1000.0 ; intro line
G92 E0.0
M221 S95
G21 ; set units to millimeters
G90 ; use absolute coordinates
M83 ; use relative distances for extrusion

M900 K0.05 ; Filament gcode LA 1.5
M900 K30 ; Filament gcode LA 1.0




M107
;LAYER_CHANGE
;Z:0.2
;HEIGHT:0.2
G1 E-.8 F2100
G1 Z.8 F720
G1 X48.539 Y128.047 F10800
G1 Z.2 F720
G1 E.8 F2100
M204 S800
;TYPE:Skirt/Brim
;WIDTH:0.42
G1 F1200
G1 X84.164 Y128.047 E1.117
G1 X85.712 Y128.688 E.05253
M73 P0 R34
G1 X88.699 Y131.676 E.13247
G1 X89.34 Y133.223 E.0525
G1 X89.34 Y152.848 E.61533
G1 X88.699 Y154.396 E.05253
G1 X85.712 Y157.383 E.13245
G1 X84.164 Y158.024 E.05253
G1 X48.539 Y158.024 E1.117
G1 X46.992 Y157.383 E.0525
G1 X44.004 Y154.396 E.13247
G1 X43.363 Y152.848 E.05253
G1 X43.363 Y133.223 E.61533
G1 X44.004 Y131.676 E.0525
G1 X46.992 Y128.688 E.13249
G1 X48.484 Y128.07 E.05063
M204 S1000
;WIPE_START
G1 F8640
G1 X48.539 Y128.047 E-.01377
G1 X51.944 Y128.047 E-.78623
;WIPE_END
G1 Z.8 F720
G1 X49.347 Y130.794 F10800
G1 Z.2 F720
G1 E.8 F2100
M204 S800
G1 F1200
G1 X50.205 Y130.522 E.02822
G1 X82.441 Y130.526 E1.01074
G1 X83.461 Y130.72 E.03255
G1 X84.439 Y131.135 E.03331
G1 X85.564 Y132.031 E.04509
G1 X86.457 Y133.369 E.05044
G1 X86.865 Y134.914 E.0501
G1 X86.86 Y151.198 E.51057
G1 X86.551 Y152.465 E.04089
G1 X86.092 Y153.386 E.03226
G1 X85.156 Y154.416 E.04364
G1 X84.471 Y154.924 E.02674
G1 X82.499 Y155.549 E.06486
G1 X50.234 Y155.549 E1.01165
G1 X48.922 Y155.234 E.04231
G1 X48.002 Y154.776 E.03222
G1 X46.971 Y153.84 E.04366
G1 X46.463 Y153.155 E.02674
G1 X45.838 Y151.183 E.06486
G1 X45.838 Y134.918 E.50998
G1 X46.153 Y133.606 E.04231
G1 X46.611 Y132.686 E.03222
M73 Q1 S35
G1 X47.548 Y131.655 E.04368
G1 X48.233 Y131.147 E.02674
G1 X49.289 Y130.812 E.03474
M204 S1000
G1 X49.289 Y130.812 F10800
G1 X49.4 Y131.163
M204 S800
G1 F1200
G1 X50.234 Y130.899 E.02743
G1 X82.423 Y130.903 E1.00926
M73 P1 R34
G1 X83.369 Y131.086 E.03021
G1 X84.266 Y131.471 E.03061
G1 X85.305 Y132.307 E.04181
G1 X86.101 Y133.497 E.04489
G1 X86.488 Y134.94 E.04684
G1 X86.488 Y151.131 E.50766
G1 X86.189 Y152.355 E.03951
G1 X85.768 Y153.192 E.02938
G1 X84.891 Y154.147 E.04065
G1 X84.273 Y154.602 E.02406
G1 X82.47 Y155.172 E.05929
G1 X50.257 Y155.172 E1.01002
G1 X49.033 Y154.873 E.03951
M73 Q1 S34
G1 X48.195 Y154.452 E.0294
G1 X47.24 Y153.575 E.04065
G1 X46.785 Y152.957 E.02406
G1 X46.215 Y151.154 E.05929
G1 X46.215 Y134.941 E.50835
G1 X46.514 Y133.717 E.03951
G1 X46.936 Y132.879 E.02942
G1 X47.812 Y131.924 E.04063
G1 X48.431 Y131.469 E.02409
G1 X49.343 Y131.181 E.02999
M204 S1000
G1 X49.343 Y131.181 F10800
G1 X49.454 Y131.532
M204 S800
G1 F1200
G1 X50.263 Y131.276 E.02661
G1 X82.404 Y131.28 E1.00776
G1 X83.276 Y131.452 E.02787
G1 X84.092 Y131.806 E.02789
G1 X85.044 Y132.58 E.03847
G1 X85.769 Y133.679 E.04128
G1 X86.111 Y134.964 E.04169
G1 X86.111 Y151.107 E.50615
G1 X85.829 Y152.242 E.03667
G1 X85.444 Y152.997 E.02657
G1 X84.628 Y153.877 E.03763
G1 X84.076 Y154.279 E.02141
G1 X82.441 Y154.795 E.05376
G1 X50.28 Y154.795 E1.00839
G1 X49.145 Y154.513 E.03667
G1 X48.391 Y154.128 E.02654
G1 X47.511 Y153.312 E.03763
G1 X47.108 Y152.76 E.02143
G1 X46.592 Y151.125 E.05376
G1 X46.592 Y134.964 E.50672
G1 X46.874 Y133.829 E.03667
G1 X47.259 Y133.075 E.02654
G1 X48.076 Y132.195 E.03765
G1 X48.628 Y131.792 E.02143
G1 X49.396 Y131.55 E.02525
M204 S1000
G1 X49.396 Y131.55 F10800
G1 X49.507 Y131.9
M204 S800
G1 F1200
G1 X50.291 Y131.653 E.02577
G1 X82.385 Y131.657 E1.00628
G1 X83.18 Y131.817 E.02543
G1 X83.915 Y132.141 E.02519
G1 X84.782 Y132.853 E.03518
G1 X85.436 Y133.858 E.0376
G1 X85.734 Y134.988 E.03664
G1 X85.734 Y151.083 E.50465
G1 X85.469 Y152.128 E.0338
G1 X85.122 Y152.8 E.02371
G1 X84.366 Y153.605 E.03463
G1 X83.88 Y153.956 E.0188
G1 X82.412 Y154.418 E.04825
G1 X50.304 Y154.418 E1.00672
G1 X49.26 Y154.153 E.03377
G1 X48.588 Y153.806 E.02371
G1 X47.783 Y153.05 E.03463
G1 X47.432 Y152.564 E.0188
G1 X46.969 Y151.096 E.04826
G1 X46.969 Y134.988 E.50506
G1 X47.234 Y133.944 E.03377
G1 X47.582 Y133.272 E.02373
G1 X48.337 Y132.467 E.0346
G1 X48.823 Y132.116 E.0188
G1 X49.45 Y131.918 E.02062
M204 S1000
G1 X49.45 Y131.918 F10800
G1 X49.56 Y132.27
M204 S800
G1 F1200
G1 X50.32 Y132.031 E.02498
G1 X82.366 Y132.034 E1.00478
G1 X83.047 Y132.171 E.02178
G1 X83.739 Y132.475 E.0237
G1 X84.519 Y133.124 E.03181
G1 X85.08 Y133.986 E.03225
G1 X85.357 Y135.013 E.03335
G1 X85.357 Y151.059 E.50311
G1 X85.11 Y152.011 E.03084
G1 X84.801 Y152.6 E.02085
G1 X84.106 Y153.331 E.03163
G1 X83.686 Y153.631 E.01618
G1 X82.384 Y154.041 E.0428
G1 X50.329 Y154.041 E1.00506
G1 X49.376 Y153.794 E.03087
M73 P2 R34
M73 Q2 S34
G1 X48.787 Y153.485 E.02085
G1 X48.056 Y152.79 E.03163
G1 X47.756 Y152.37 E.01618
G1 X47.347 Y151.068 E.04279
G1 X47.347 Y135.013 E.50339
G1 X47.593 Y134.06 E.03086
G1 X47.903 Y133.471 E.02087
G1 X48.598 Y132.74 E.03163
G1 X49.018 Y132.44 E.01618
G1 X49.503 Y132.288 E.01594
M204 S1000
G1 X49.503 Y132.288 F10800
G1 X49.613 Y132.639
M204 S800
G1 F1200
G1 X50.349 Y132.408 E.02419
G1 X82.347 Y132.411 E1.00327
G1 X82.95 Y132.535 E.0193
G1 X83.56 Y132.808 E.02095
G1 X84.253 Y133.393 E.02844
G1 X84.747 Y134.164 E.02871
G1 X84.98 Y135.038 E.02836
G1 X84.98 Y151.034 E.50154
G1 X84.752 Y151.892 E.02784
G1 X84.481 Y152.399 E.01803
G1 X83.848 Y153.056 E.02861
G1 X83.493 Y153.306 E.01361
G1 X82.355 Y153.664 E.03741
G1 X50.354 Y153.664 E1.00337
G1 X49.495 Y153.436 E.02787
G1 X48.989 Y153.165 E.018
G1 X48.331 Y152.532 E.02863
G1 X48.081 Y152.177 E.01361
G1 X47.724 Y151.039 E.0374
G1 X47.724 Y135.038 E.5017
G1 X47.952 Y134.179 E.02787
G1 X48.222 Y133.673 E.01798
G1 X48.856 Y133.015 E.02865
G1 X49.21 Y132.765 E.01359
G1 X49.556 Y132.657 E.01136
M204 S1000
G1 X49.556 Y132.657 F10800
G1 X49.667 Y133.008
M204 S800
G1 F1200
G1 X50.378 Y132.785 E.02336
G1 X82.326 Y132.788 E1.00171
G1 X82.851 Y132.9 E.01683
G1 X83.378 Y133.139 E.01814
G1 X83.986 Y133.66 E.02511
G1 X84.391 Y134.291 E.02351
G1 X84.603 Y135.064 E.02513
G1 X84.603 Y151.008 E.49991
G1 X84.394 Y151.77 E.02477
G1 X84.163 Y152.194 E.01514
G1 X83.302 Y152.98 E.03655
G1 X82.326 Y153.287 E.03208
G1 X50.38 Y153.287 E1.00164
G1 X49.617 Y153.078 E.0248
G1 X49.193 Y152.847 E.01514
G1 X48.408 Y151.986 E.03653
G1 X48.101 Y151.01 E.03208
G1 X48.101 Y135.064 E.49998
G1 X48.309 Y134.301 E.0248
G1 X48.54 Y133.877 E.01514
G1 X49.401 Y133.092 E.03653
G1 X49.609 Y133.026 E.00684
M204 S1000
G1 X49.609 Y133.026 F10800
G1 X49.72 Y133.378
M204 S800
G1 F1200
G1 X50.406 Y133.162 E.02255
G1 X82.305 Y133.165 E1.00017
G1 X82.748 Y133.263 E.01423
G1 X83.194 Y133.47 E.01542
G1 X83.718 Y133.926 E.02178
G1 X84.036 Y134.422 E.01847
G1 X84.226 Y135.091 E.02181
G1 X84.226 Y150.981 E.49822
G1 X84.038 Y151.645 E.02164
G1 X83.847 Y151.987 E.01228
G1 X83.338 Y152.499 E.02264
G1 X83.113 Y152.653 E.00855
G1 X82.297 Y152.91 E.02682
G1 X50.407 Y152.91 E.99989
G1 X49.743 Y152.722 E.02164
G1 X49.4 Y152.531 E.01231
G1 X48.888 Y152.022 E.02264
G1 X48.735 Y151.797 E.00853
G1 X48.478 Y150.981 E.02682
G1 X48.478 Y135.091 E.49822
G1 X48.666 Y134.427 E.02164
G1 X48.856 Y134.084 E.01229
G1 X49.365 Y133.572 E.02264
G1 X49.59 Y133.419 E.00853
G1 X49.663 Y133.396 E.0024
M204 S1000
G1 X49.777 Y133.748 F10800
M204 S800
G1 F1200
G1 X50.435 Y133.539 E.02165
G1 X82.283 Y133.542 E.99857
G1 X83.007 Y133.798 E.02408
G1 X83.447 Y134.19 E.01848
G1 X83.683 Y134.555 E.01363
G1 X83.849 Y135.119 E.01843
G1 X83.849 Y150.953 E.49646
G1 X83.534 Y151.776 E.02763
M73 P3 R34
M73 Q3 S34
G1 X82.927 Y152.324 E.02564
G1 X82.268 Y152.533 E.02168
G1 X50.435 Y152.533 E.9981
G1 X49.611 Y152.218 E.02766
G1 X49.064 Y151.611 E.02562
G1 X48.855 Y150.952 E.02168
G1 X48.855 Y135.119 E.49643
G1 X49.169 Y134.295 E.02765
G1 X49.732 Y133.788 E.02376
M204 S1000
G1 X49.732 Y133.788 F10800
G1 X49.959 Y134.078
M204 S800
G1 F1200
G1 X50.465 Y133.916 E.01666
G1 X82.261 Y133.92 E.99694
G1 X82.82 Y134.126 E.01868
M73 P3 R33
G1 X83.331 Y134.693 E.02393
G1 X83.471 Y135.148 E.01493
G1 X83.471 Y150.923 E.49461
G1 X83.33 Y151.38 E.015
G1 X82.841 Y151.931 E.0231
G1 X82.238 Y152.155 E.02017
G1 X50.464 Y152.155 E.99625
G1 X50.007 Y152.014 E.015
G1 X49.456 Y151.525 E.0231
G1 X49.232 Y150.922 E.02017
G1 X49.232 Y135.148 E.49458
G1 X49.48 Y134.511 E.02143
G1 X49.914 Y134.118 E.01836
M204 S1000
G1 X49.914 Y134.118 F10800
G1 X50.134 Y134.412
M204 S800
G1 F1200
G1 X50.496 Y134.293 E.01195
G1 X82.239 Y134.297 E.99528
G1 X82.63 Y134.454 E.01321
G1 X82.898 Y134.708 E.01158
G1 X83.094 Y135.18 E.01602
G1 X83.094 Y150.892 E.49264
G1 X82.918 Y151.339 E.01506
G1 X82.569 Y151.659 E.01485
G1 X82.208 Y151.778 E.01192
G1 X50.496 Y151.778 E.99431
G1 X50.049 Y151.602 E.01506
G1 X49.728 Y151.253 E.01487
G1 X49.609 Y150.892 E.01192
G1 X49.609 Y135.18 E.49264
G1 X49.785 Y134.733 E.01506
G1 X50.09 Y134.453 E.01298
M204 S1000
G1 X50.09 Y134.453 F10800
G1 X50.318 Y134.746
M204 S800
G1 F1200
G1 X50.531 Y134.67 E.00709
G1 X82.187 Y134.67 E.99255
G1 X82.618 Y134.96 E.01629
G1 X82.717 Y135.215 E.00858
G1 X82.717 Y150.857 E.49044
G1 X82.62 Y151.108 E.00844
G1 X82.385 Y151.325 E.01003
G1 X82.173 Y151.401 E.00706
G1 X50.531 Y151.401 E.99211
G1 X50.28 Y151.304 E.00844
G1 X50.062 Y151.069 E.01005
G1 X49.986 Y150.857 E.00706
G1 X49.986 Y135.215 E.49044
G1 X50.084 Y134.964 E.00845
G1 X50.274 Y134.787 E.00814
M204 S1000
G1 X50.274 Y134.787 F10800
G1 X50.503 Y135.076
M204 S800
G1 F1200
G1 X82.2 Y135.076 E.99384
G1 X82.34 Y135.257 E.00717
G1 X82.34 Y150.815 E.48781
G1 X82.2 Y150.996 E.00717
G1 X50.573 Y151.024 E.99164
G1 X50.392 Y150.884 E.00717
M73 P4 R33
M73 Q4 S33
G1 X50.363 Y135.257 E.48997
G1 X50.467 Y135.123 E.00532
M204 S1000
;WIPE_START
G1 F8640
G1 X50.503 Y135.076 E-.01367
G1 X53.908 Y135.076 E-.78633
;WIPE_END
G1 Z.8 F720
; printing object Day1LegoBrick v3.stl id:0 copy 0
G1 X51.589 Y136.273 F10800
G1 Z.2 F720
G1 E.8 F2100
M204 S800
;TYPE:External perimeter
;WIDTH:0.56646
G1 F1200
G1 X51.72 Y136.142 E.00806
G1 X80.983 Y136.142 E1.27389
G1 X81.245 Y136.404 E.01613
G1 X81.245 Y149.667 E.57737
;WIDTH:0.611373
G1 X81.222 Y149.776 E.00527
;WIDTH:0.656285
G1 X81.2 Y149.884 E.00562
G1 X81.092 Y149.906 E.00562
;WIDTH:0.611373
G1 X80.983 Y149.929 E.00527
;WIDTH:0.56646
G1 X51.72 Y149.929 E1.27389
G1 X51.459 Y149.679 E.01573
G1 X51.458 Y136.404 E.57789
G1 X51.547 Y136.316 E.00545
M204 S1000
;WIPE_START
G1 F8640
G1 X51.589 Y136.273 E-.01388
G1 X51.72 Y136.142 E-.04278
G1 X54.939 Y136.142 E-.74334
;WIPE_END
G1 Z.8 F720
G1 X81.446 Y135.919 F10800
G1 Z.2 F720
G1 E.8 F2100
M204 S800
;TYPE:Perimeter
;WIDTH:0.515492
G1 F1200
G1 X81.387 Y135.919 E.00232
G1 X81.358 Y135.971 E.00234
G1 X81.387 Y136.022 E.00231
G1 X81.446 Y136.022 E.00232
G1 X81.476 Y135.971 E.00233
M204 S1000
;WIPE_START
G1 F8640
G1 X81.446 Y135.919 E-.01386
G1 X81.387 Y135.919 E-.01362
G1 X81.358 Y135.971 E-.01375
G1 X81.387 Y136.022 E-.01355
G1 X81.446 Y136.022 E-.01362
G1 X81.476 Y135.971 E-.01366
;WIPE_END
G1 E-.71794 F2100
G1 Z.8 F720
G1 X50.862 Y135.546 F10800
G1 Z.2 F720
G1 E.8 F2100
M204 S800
;TYPE:External perimeter
;WIDTH:0.419999
G1 F1200
G1 X51.287 Y135.546 E.01333
;WIDTH:0.46882
G1 X51.431 Y135.57 E.00517
;WIDTH:0.51764
G1 X51.576 Y135.595 E.00581
;WIDTH:0.56646
G1 X51.72 Y135.619 E.00636
G1 X80.983 Y135.619 E1.27389
G1 X81.128 Y135.595 E.0064
;WIDTH:0.51764
G1 X81.272 Y135.57 E.00577
;WIDTH:0.46882
G1 X81.417 Y135.546 E.0052
;WIDTH:0.419999
G1 X81.842 Y135.546 E.01333
G1 X81.842 Y135.971 E.01333
;WIDTH:0.46882
G1 X81.817 Y136.115 E.00518
;WIDTH:0.51764
G1 X81.793 Y136.26 E.0058
;WIDTH:0.56646
G1 X81.768 Y136.404 E.00636
G1 X81.768 Y149.667 E.57737
;WIDTH:0.570426
G1 X81.766 Y149.758 E.00399
;WIDTH:0.613356
G1 X81.745 Y150.083 E.01545
;WIDTH:0.656285
G1 X81.724 Y150.408 E.01661
G1 X81.353 Y150.43 E.01895
;WIDTH:0.611373
G1 X80.983 Y150.452 E.01752
;WIDTH:0.56646
G1 X51.72 Y150.452 E1.27389
G1 X51.576 Y150.477 E.00636
;WIDTH:0.51764
G1 X51.431 Y150.501 E.0058
;WIDTH:0.46882
G1 X51.287 Y150.526 E.00518
;WIDTH:0.419999
G1 X50.862 Y150.526 E.01333
G1 X50.862 Y150.101 E.01333
;WIDTH:0.46882
G1 X50.886 Y149.956 E.0052
;WIDTH:0.51764
G1 X50.911 Y149.812 E.00577
;WIDTH:0.56646
G1 X50.935 Y149.667 E.0064
G1 X50.935 Y136.404 E.57737
G1 X50.911 Y136.26 E.00636
;WIDTH:0.51764
G1 X50.886 Y136.115 E.00581
;WIDTH:0.46882
G1 X50.862 Y135.971 E.00517
;WIDTH:0.419999
G1 X50.862 Y135.606 E.01144
M204 S1000
;WIPE_START
G1 F8640
G1 X50.862 Y135.546 E-.01385
G1 X51.287 Y135.546 E-.09813
G1 X51.431 Y135.57 E-.03371
G1 X51.576 Y135.595 E-.03397
G1 X51.72 Y135.619 E-.03371
G1 X54.261 Y135.619 E-.58663
;WIPE_END
G1 Z.8 F720
G1 X74.44 Y140.59 F10800
G1 Z.2 F720
G1 E.8 F2100
M204 S800
;WIDTH:0.425734
G1 F1200
G1 X74.922 Y140.655 E.01548
G1 X75.45 Y140.839 E.0178
;WIDTH:0.423812
G1 X75.992 Y141.213 E.02086
;WIDTH:0.428701
G1 X76.369 Y141.657 E.01868
G1 X76.504 Y141.858 E.00777
;WIDTH:0.411013
G1 X76.74 Y142.476 E.02025
;WIDTH:0.412618
G1 X76.8 Y143.188 E.02196
;WIDTH:0.418247
G1 X76.656 Y143.888 E.0223
;WIDTH:0.425119
G1 X76.358 Y144.441 E.01996
;WIDTH:0.429564
G1 X75.965 Y144.87 E.0187
G1 X75.757 Y145.046 E.00876
;WIDTH:0.411093
G1 X75.169 Y145.349 E.02025
;WIDTH:0.413484
G1 X74.468 Y145.487 E.02201
;WIDTH:0.41988
G1 X73.757 Y145.42 E.02238
;WIDTH:0.426307
G1 X73.201 Y145.196 E.01911
;WIDTH:0.430252
G1 X72.727 Y144.859 E.01873
G1 X72.507 Y144.653 E.00971
;WIDTH:0.4113
G1 X72.142 Y144.101 E.02027
;WIDTH:0.414536
G1 X71.927 Y143.42 E.02207
;WIDTH:0.421401
G1 X71.916 Y142.718 E.0221
;WIDTH:0.427338
G1 X72.118 Y142.018 E.02329
;WIDTH:0.413629
G1 X72.507 Y141.419 E.02202
;WIDTH:0.411658
G1 X73.051 Y140.956 E.0219
;WIDTH:0.416
G1 X73.704 Y140.667 E.02215
;WIDTH:0.422416
G1 X74.372 Y140.581 E.02125
;WIDTH:0.425734
G1 X74.38 Y140.582 E.00026
M204 S1000
;WIPE_START
G1 F8640
G1 X74.44 Y140.59 E-.01398
G1 X74.922 Y140.655 E-.1123
G1 X75.45 Y140.839 E-.12911
G1 X75.992 Y141.213 E-.15205
G1 X76.369 Y141.657 E-.13449
G1 X76.504 Y141.858 E-.05591
G1 X76.74 Y142.476 E-.15275
G1 X76.758 Y142.689 E-.04941
;WIPE_END
G1 Z.8 F720
G1 X71.537 Y143.352 F10800
G1 Z.2 F720
G1 E.8 F2100
M204 S800
;WIDTH:0.421401
G1 F1200
G1 X71.537 Y142.718 E.01995
G1 X71.569 Y142.553 E.00529
;WIDTH:0.414534
G1 X71.779 Y141.874 E.02196
;WIDTH:0.430931
G1 X72.038 Y141.409 E.01717
G1 X72.494 Y140.904 E.02195
;WIDTH:0.430252
G1 X73.057 Y140.52 E.02195
;WIDTH:0.426305
G1 X73.713 Y140.277 E.0223
;WIDTH:0.419862
G1 X74.482 Y140.213 E.02419
;WIDTH:0.425734
G1 X75.051 Y140.294 E.01829
G1 X75.712 Y140.552 E.02259
;WIDTH:0.423812
G1 X76.211 Y140.901 E.01929
G1 X76.359 Y141.052 E.0067
;WIDTH:0.428701
G1 X76.692 Y141.449 E.01662
;WIDTH:0.431444
G1 X77.005 Y142.055 E.02203
G1 X77.161 Y142.717 E.02197
;WIDTH:0.429137
G1 X77.158 Y143.4 E.02193
;WIDTH:0.424489
G1 X76.965 Y144.118 E.02359
;WIDTH:0.425119
G1 X76.694 Y144.624 E.01824
G1 X76.563 Y144.79 E.00672
;WIDTH:0.429564
G1 X76.209 Y145.168 E.01665
;WIDTH:0.431384
G1 X75.645 Y145.551 E.02202
G1 X75.007 Y145.787 E.02197
;WIDTH:0.428275
G1 X74.328 Y145.867 E.02191
;WIDTH:0.423061
G1 X73.564 Y145.75 E.02443
;WIDTH:0.416013
G1 X72.91 Y145.464 E.02214
;WIDTH:0.430252
G1 X72.459 Y145.136 E.01796
;WIDTH:0.430929
G1 X72.011 Y144.623 E.02197
G1 X71.699 Y144.017 E.02199
;WIDTH:0.427337
G1 X71.546 Y143.411 E.01998
M204 S1000
;WIPE_START
G1 F8640
G1 X71.537 Y143.352 E-.01378
G1 X71.537 Y142.718 E-.14639
