; generated by PrusaSlicer 2.9.0 on 2025-01-04 at 20:00:41 UTC


;
;
; 

; external perimeters extrusion width = 0.45mm
; perimeters extrusion width = 0.45mm
; infill extrusion width = 0.45mm
; solid infill extrusion width = 0.45mm
; top infill extrusion width = 0.40mm
; first layer extrusion width = 0.42mm

M73 P0 R48
M73 Q0 S48
M201 X1000 Y1000 Z200 E5000 ; sets maximum accelerations, mm/sec^2
M203 X200 Y200 Z12 E120 ; sets maximum feedrates, mm / sec
M204 S1250 T1250 ; sets acceleration (S) and retract acceleration (R), mm/sec^2
M205 X8.00 Y8.00 Z0.40 E4.50 ; sets the jerk limits, mm/sec
M205 S0 T0 ; sets the minimum extruding and travel feed rate, mm/sec

; printing object tweezers.STL id:0 copy 0
; stop printing object tweezers.STL id:0 copy 0

;TYPE:Custom
M862.3 P "MK3S" ; printer model check
M862.1 P0.4 ; nozzle diameter check
M115 U3.14.1 ; tell printer latest fw version
G90 ; use absolute coordinates
M83 ; extruder relative mode
M104 S215 ; set extruder temp
M140 S60 ; set bed temp
M190 S60 ; wait for bed temp
M109 S215 ; wait for extruder temp
G28 W ; home all without mesh bed level
G80 X137.245 Y40.9558 W95.0826 H65.0769 ; mesh bed levelling

G1 Z0.2 F720
G1 Y-3 F1000 ; go outside print area
G92 E0
G1 X60 E9 F1000 ; intro line
G1 X100 E12.5 F1000 ; intro line

G92 E0
M221 S95

; Don't change E values below. Excessive value can damage the printer.
M907 E430 ; set extruder motor current
G21 ; set units to millimeters
G90 ; use absolute coordinates
M83 ; use relative distances for extrusion

M900 K0.05 ; Filament gcode LA 1.5
M900 K30 ; Filament gcode LA 1.0




M107
;LAYER_CHANGE
;Z:0.2
;HEIGHT:0.2
G1 E-.8 F2100
G1 Z.6 F720
G1 X137.794 Y49.98 F10800
G1 Z.2 F720
G1 E.8 F2100
M204 S800
;TYPE:Skirt/Brim
;WIDTH:0.42
G1 F1200
G1 X139.584 Y47.263 E.10202
G1 X140.618 Y46.428 E.04167
G1 X153.547 Y41.402 E.43493
G1 X154.172 Y41.259 E.0201
G1 X155.679 Y41.144 E.04739
G1 X156.318 Y41.189 E.02009
G1 X221.888 Y55.68 E2.10551
G1 X224.021 Y56.461 E.07122
G1 X224.914 Y56.945 E.03185
G1 X226.512 Y58.15 E.06275
G1 X227.258 Y58.868 E.03246
G1 X228.723 Y60.692 E.07335
G1 X229.718 Y62.393 E.06179
G1 X230.889 Y65.209 E.09562
G1 X231.506 Y67.443 E.07267
G1 X231.9 Y69.644 E.07011
G1 X232.127 Y72.133 E.07836
G1 X232.137 Y74.635 E.07845
G1 X231.931 Y77.116 E.07806
G1 X231.528 Y79.439 E.07392
G1 X230.713 Y82.287 E.09288
G1 X229.942 Y84.153 E.0633
G1 X228.823 Y86.14 E.0715
G1 X228.361 Y86.8 E.02526
G1 X227.095 Y88.296 E.06145
G1 X226.512 Y88.839 E.02498
G1 X225.168 Y89.875 E.05321
G1 X224.021 Y90.527 E.04137
G1 X222.058 Y91.264 E.06574
G1 X156.318 Y105.8 E2.11102
G1 X155.679 Y105.845 E.02009
G1 X154.172 Y105.729 E.04739
G1 X153.547 Y105.587 E.0201
G1 X140.618 Y100.561 E.43493
G1 X139.584 Y99.725 E.04169
G1 X137.794 Y97.009 E.10199
G1 X137.433 Y95.805 E.03941
G1 X137.433 Y51.184 E1.39906
G1 X137.777 Y50.037 E.03755
M204 S1000
;WIPE_START
G1 F8640
G1 X137.794 Y49.98 E-.01373
G1 X139.584 Y47.263 E-.75128
G1 X139.702 Y47.168 E-.03499
;WIPE_END
G1 Z.6 F720
G1 X140.317 Y50.848 F10800
G1 Z.2 F720
G1 E.8 F2100
M204 S800
G1 F1200
G1 X140.379 Y50.652 E.00645
G1 X140.912 Y49.737 E.0332
G1 X142.013 Y48.684 E.04777
G1 X142.311 Y48.496 E.01105
G1 X154.073 Y43.852 E.39649
G1 X156.106 Y43.688 E.06395
G1 X221.323 Y58.09 E2.0941
G1 X223.126 Y58.779 E.06052
G1 X225.321 Y60.422 E.08597
G1 X226.619 Y62.004 E.06416
G1 X227.591 Y63.665 E.06034
G1 X228.499 Y65.861 E.07451
G1 X229.08 Y67.94 E.06768
G1 X229.452 Y70.008 E.06588
G1 X229.663 Y72.448 E.07679
G1 X229.655 Y74.716 E.07111
G1 X229.454 Y76.965 E.0708
G1 X229.08 Y79.048 E.06636
G1 X228.513 Y81.085 E.0663
G1 X227.574 Y83.356 E.07705
G1 X226.466 Y85.2 E.06745
G1 X224.983 Y86.887 E.07043
G1 X223.271 Y88.128 E.0663
G1 X221.341 Y88.895 E.06512
G1 X156.155 Y103.301 E2.09318
G1 X154.122 Y103.145 E.06393
M73 P1 R48
M73 Q1 S48
G1 X142.544 Y98.633 E.38961
G1 X141.314 Y97.711 E.0482
G1 X140.43 Y96.444 E.04844
G1 X139.984 Y94.894 E.05057
G1 X139.994 Y93.233 E.05208
G1 X140.372 Y91.794 E.04665
G1 X141.151 Y90.555 E.04589
G1 X142.437 Y89.504 E.05207
G1 X143.11 Y89.195 E.02322
G1 X143.793 Y88.994 E.02232
G1 X145.104 Y88.904 E.0412
G1 X155.308 Y90.333 E.32306
G1 X218.259 Y77.1 E2.01692
G1 X218.704 Y75.796 E.0432
M73 P1 R47
G1 X218.942 Y73.983 E.05733
G1 X218.859 Y72.057 E.06044
G1 X218.704 Y71.192 E.02755
G1 X218.259 Y69.889 E.04317
G1 X155.306 Y56.656 E2.01698
G1 X144.76 Y58.093 E.33372
G1 X143.648 Y57.958 E.03512
G1 X142.584 Y57.561 E.03561
G1 X141.576 Y56.853 E.03862
G1 X140.811 Y56.008 E.03574
G1 X140.097 Y54.304 E.05793
G1 X140.009 Y53.933 E.01196
G1 X140.039 Y51.718 E.06946
G1 X140.299 Y50.905 E.02676
M204 S1000
G1 X140.299 Y50.905 F10800
G1 X140.655 Y51.021
M204 S800
G1 F1200
G1 X140.731 Y50.789 E.00765
G1 X141.223 Y49.951 E.03047
G1 X142.259 Y48.971 E.04471
G1 X154.185 Y44.213 E.40259
G1 X156.052 Y44.062 E.05873
G1 X221.229 Y58.455 E2.09281
G1 X222.921 Y59.097 E.05674
G1 X225.077 Y60.71 E.08442
G1 X226.301 Y62.207 E.06063
G1 X227.248 Y63.821 E.05867
G1 X228.146 Y65.994 E.07372
G1 X228.711 Y68.016 E.06583
G1 X229.077 Y70.05 E.0648
G1 X229.287 Y72.472 E.07623
G1 X229.278 Y74.706 E.07005
G1 X229.079 Y76.923 E.06979
G1 X228.711 Y78.973 E.0653
G1 X228.153 Y80.973 E.0651
G1 X227.244 Y83.174 E.07466
G1 X226.171 Y84.965 E.06546
G1 X224.744 Y86.595 E.06793
G1 X223.109 Y87.787 E.06344
G1 X221.244 Y88.53 E.06295
G1 X156.101 Y102.927 E2.0918
G1 X154.233 Y102.784 E.05874
M73 Q1 S47
G1 X142.75 Y98.316 E.38634
G1 X141.565 Y97.428 E.04643
G1 X140.759 Y96.257 E.04457
G1 X140.354 Y94.819 E.04684
G1 X140.371 Y93.26 E.04888
G1 X140.707 Y91.97 E.0418
G1 X141.453 Y90.782 E.04398
G1 X142.654 Y89.813 E.04838
G1 X143.842 Y89.369 E.03977
G1 X145.072 Y89.28 E.03867
G1 X155.321 Y90.715 E.32448
G1 X218.49 Y77.436 E2.02391
G1 X218.855 Y76.643 E.02737
G1 X219.072 Y75.881 E.02484
G1 X219.319 Y73.999 E.05951
G1 X219.234 Y72.007 E.06251
G1 X218.855 Y70.345 E.05345
G1 X218.49 Y69.552 E.02737
G1 X155.32 Y56.273 E2.02394
G1 X144.78 Y57.716 E.33356
G1 X143.758 Y57.597 E.03226
M73 P2 R47
M73 Q2 S47
G1 X142.74 Y57.216 E.03408
G1 X141.811 Y56.558 E.03569
G1 X141.114 Y55.781 E.03273
G1 X140.382 Y53.871 E.06413
G1 X140.416 Y51.753 E.06642
G1 X140.636 Y51.078 E.02226
M204 S1000
G1 X140.636 Y51.078 F10800
G1 X140.991 Y51.198
M204 S800
G1 F1200
G1 X141.082 Y50.929 E.0089
G1 X141.534 Y50.167 E.02778
G1 X142.62 Y49.185 E.04591
G1 X154.298 Y44.574 E.39366
G1 X155.998 Y44.436 E.05348
G1 X221.135 Y58.821 E2.09154
G1 X222.717 Y59.415 E.05298
G1 X224.832 Y60.998 E.08283
G1 X225.983 Y62.41 E.05712
G1 X226.904 Y63.977 E.05699
G1 X227.793 Y66.128 E.07298
G1 X228.341 Y68.091 E.0639
G1 X228.702 Y70.091 E.06372
G1 X228.91 Y72.479 E.07516
G1 X228.902 Y74.681 E.06904
G1 X228.704 Y76.881 E.06926
G1 X228.341 Y78.897 E.06423
G1 X227.793 Y80.86 E.0639
G1 X226.913 Y82.993 E.07235
G1 X225.875 Y84.73 E.06345
G1 X224.504 Y86.304 E.06545
G1 X222.946 Y87.446 E.06057
G1 X221.148 Y88.165 E.06072
G1 X156.047 Y102.552 E2.09045
G1 X154.343 Y102.422 E.05358
G1 X142.953 Y97.997 E.38313
G1 X141.857 Y97.187 E.04273
G1 X141.088 Y96.07 E.04252
G1 X140.725 Y94.746 E.04305
G1 X140.747 Y93.29 E.04566
G1 X141.064 Y92.095 E.03876
G1 X141.754 Y91.011 E.04029
G1 X142.831 Y90.147 E.04329
G1 X143.93 Y89.736 E.03679
G1 X145.039 Y89.656 E.03486
G1 X155.334 Y91.098 E.32594
G1 X218.731 Y77.771 E2.03121
G1 X219.212 Y76.767 E.03491
G1 X219.44 Y75.966 E.02611
G1 X219.696 Y74.015 E.0617
G1 X219.696 Y72.973 E.03267
G1 X219.44 Y71.022 E.0617
G1 X219.212 Y70.221 E.02611
G1 X218.731 Y69.217 E.03491
G1 X155.333 Y55.891 E2.03124
G1 X144.798 Y57.339 E.33342
G1 X143.866 Y57.235 E.0294
G1 X142.937 Y56.894 E.03103
G1 X142.047 Y56.263 E.03421
G1 X141.417 Y55.555 E.02971
G1 X140.755 Y53.812 E.05846
G1 X140.792 Y51.79 E.06341
G1 X140.972 Y51.255 E.0177
M204 S1000
G1 X140.972 Y51.255 F10800
G1 X141.33 Y51.375
M204 S800
G1 F1200
G1 X141.432 Y51.069 E.01011
G1 X141.843 Y50.385 E.02502
G1 X142.746 Y49.547 E.03863
G1 X154.41 Y44.935 E.39327
G1 X155.944 Y44.81 E.04826
G1 X221.04 Y59.186 E2.09022
G1 X222.559 Y59.759 E.0509
G1 X224.555 Y61.255 E.07821
G1 X225.666 Y62.614 E.05504
G1 X226.572 Y64.157 E.0561
G1 X227.433 Y66.24 E.07067
G1 X227.972 Y68.167 E.06274
G1 X228.329 Y70.149 E.06314
G1 X228.532 Y72.487 E.07358
G1 X228.526 Y74.655 E.06798
G1 X228.331 Y76.823 E.06825
G1 X227.976 Y78.805 E.06313
G1 X227.433 Y80.748 E.06326
G1 X226.582 Y82.812 E.07
G1 X225.579 Y84.496 E.06146
G1 X224.263 Y86.013 E.06297
G1 X222.783 Y87.105 E.05767
G1 X221.051 Y87.8 E.05851
G1 X155.992 Y102.178 E2.0891
G1 X154.454 Y102.061 E.04836
M73 P3 R47
G1 X143.154 Y97.678 E.38002
G1 X142.149 Y96.947 E.03897
M73 Q3 S47
G1 X141.417 Y95.882 E.04052
G1 X141.102 Y94.725 E.0376
G1 X141.124 Y93.319 E.04409
G1 X141.42 Y92.223 E.0356
G1 X142.053 Y91.242 E.03661
G1 X143.008 Y90.48 E.03831
G1 X144.018 Y90.103 E.0338
G1 X145.006 Y90.032 E.03106
G1 X155.347 Y91.48 E.3274
G1 X218.925 Y78.116 E2.03701
G1 X219.297 Y77.55 E.02124
G1 X219.808 Y76.052 E.04963
G1 X220.073 Y74.032 E.06388
G1 X219.982 Y71.907 E.06669
G1 X219.569 Y70.097 E.05821
G1 X219.297 Y69.439 E.02232
G1 X218.925 Y68.873 E.02124
G1 X155.347 Y55.508 E2.03701
G1 X144.814 Y56.961 E.33338
M73 P3 R46
G1 X143.971 Y56.872 E.02658
G1 X143.133 Y56.571 E.02792
G1 X142.284 Y55.969 E.03263
G1 X141.722 Y55.332 E.02663
G1 X141.128 Y53.756 E.05281
G1 X141.159 Y51.883 E.05873
G1 X141.31 Y51.432 E.01491
M204 S1000
G1 X141.31 Y51.432 F10800
G1 X141.663 Y51.554
M204 S800
G1 F1200
G1 X141.781 Y51.213 E.01131
G1 X142.151 Y50.604 E.02234
G1 X142.962 Y49.861 E.03449
G1 X154.523 Y45.296 E.38972
G1 X155.89 Y45.185 E.043
G1 X220.945 Y59.551 E2.0889
G1 X222.4 Y60.102 E.04878
G1 X224.277 Y61.511 E.07359
G1 X225.364 Y62.841 E.05386
G1 X226.24 Y64.336 E.05433
G1 X227.073 Y66.353 E.06842
G1 X227.606 Y68.26 E.06208
G1 X227.957 Y70.208 E.06206
G1 X228.155 Y72.494 E.07194
G1 X228.149 Y74.63 E.06697
G1 X227.959 Y76.764 E.06717
G1 X227.606 Y78.729 E.0626
G1 X227.073 Y80.636 E.06208
G1 X226.25 Y82.632 E.06769
G1 X225.283 Y84.262 E.05942
G1 X224.022 Y85.722 E.06049
G1 X222.579 Y86.787 E.05623
G1 X220.955 Y87.435 E.05482
G1 X155.938 Y101.804 E2.08775
G1 X154.564 Y101.699 E.04321
G1 X143.314 Y97.335 E.37835
G1 X142.399 Y96.663 E.0356
M73 Q3 S46
G1 X141.747 Y95.698 E.03652
G1 X141.48 Y94.705 E.03224
G1 X141.501 Y93.349 E.04252
G1 X141.775 Y92.352 E.03242
G1 X142.351 Y91.475 E.0329
G1 X143.185 Y90.814 E.03337
G1 X144.104 Y90.471 E.03076
G1 X144.974 Y90.408 E.02735
G1 X155.36 Y91.863 E.32883
G1 X219.123 Y78.459 E2.04294
G1 X219.636 Y77.717 E.02828
G1 X219.925 Y77.015 E.0238
G1 X220.356 Y75.131 E.0606
G1 X220.45 Y74.048 E.03408
G1 X220.45 Y72.94 E.03474
G1 X220.175 Y70.852 E.06603
G1 X219.636 Y69.271 E.05237
G1 X219.123 Y68.529 E.02828
G1 X155.36 Y55.126 E2.04293
G1 X144.831 Y56.584 E.33328
G1 X144.034 Y56.499 E.02513
G1 X143.288 Y56.226 E.02491
G1 X142.522 Y55.676 E.02957
G1 X142.029 Y55.109 E.02356
G1 X141.502 Y53.704 E.04705
G1 X141.535 Y51.921 E.05591
G1 X141.643 Y51.611 E.01029
M204 S1000
G1 X141.643 Y51.611 F10800
G1 X141.992 Y51.737
M204 S800
G1 F1200
G1 X142.129 Y51.361 E.01255
G1 X142.457 Y50.825 E.0197
G1 X143.189 Y50.164 E.03092
G1 X154.635 Y45.657 E.3857
G1 X155.837 Y45.559 E.03781
M73 P4 R46
G1 X220.85 Y59.916 E2.08755
G1 X222.241 Y60.445 E.04666
M73 Q4 S46
G1 X224 Y61.767 E.06899
G1 X225.063 Y63.068 E.05268
G1 X225.908 Y64.515 E.05254
G1 X226.713 Y66.465 E.06615
G1 X227.237 Y68.336 E.06092
G1 X227.584 Y70.266 E.06148
G1 X227.778 Y72.501 E.07034
G1 X227.773 Y74.605 E.06597
G1 X227.586 Y76.706 E.06614
G1 X227.241 Y78.636 E.06147
G1 X226.713 Y80.524 E.06147
G1 X225.919 Y82.451 E.06535
G1 X224.986 Y84.029 E.05748
G1 X223.779 Y85.433 E.05805
G1 X222.415 Y86.447 E.05329
G1 X220.859 Y87.07 E.05255
G1 X155.884 Y101.43 E2.08641
G1 X154.675 Y101.338 E.03802
G1 X143.475 Y96.993 E.37667
G1 X142.652 Y96.381 E.03216
G1 X142.078 Y95.516 E.03255
G1 X141.857 Y94.685 E.02696
G1 X141.877 Y93.38 E.04092
G1 X142.129 Y92.485 E.02915
G1 X142.647 Y91.711 E.0292
G1 X143.363 Y91.147 E.02858
G1 X144.191 Y90.838 E.02771
G1 X144.941 Y90.785 E.02357
G1 X155.373 Y92.245 E.33028
G1 X219.224 Y78.823 E2.04576
G1 X219.664 Y78.418 E.01875
G1 X219.974 Y77.885 E.01933
G1 X220.543 Y76.222 E.05511
G1 X220.827 Y74.065 E.06821
G1 X220.73 Y71.808 E.07083
G1 X220.543 Y70.767 E.03316
G1 X219.974 Y69.103 E.05514
G1 X219.664 Y68.571 E.01931
G1 X219.224 Y68.165 E.01877
G1 X155.373 Y54.743 E2.04576
G1 X144.846 Y56.206 E.33324
G1 X144.138 Y56.136 E.02231
G1 X143.486 Y55.904 E.0217
G1 X142.761 Y55.383 E.02799
G1 X142.337 Y54.89 E.02039
G1 X141.876 Y53.661 E.04116
G1 X141.912 Y51.961 E.05331
G1 X141.972 Y51.794 E.00556
M204 S1000
G1 X141.972 Y51.794 F10800
G1 X142.326 Y51.92
M204 S800
G1 F1200
G1 X142.461 Y51.541 E.01261
G1 X142.764 Y51.046 E.0182
G1 X143.414 Y50.468 E.02727
G1 X154.747 Y46.018 E.38175
G1 X155.783 Y45.933 E.03259
G1 X220.755 Y60.281 E2.08623
G1 X222.082 Y60.788 E.04454
G1 X223.722 Y62.023 E.06437
G1 X224.745 Y63.271 E.0506
G1 X225.576 Y64.694 E.05167
G1 X226.353 Y66.578 E.0639
G1 X226.871 Y68.429 E.06027
G1 X227.211 Y70.324 E.06037
G1 X227.401 Y72.509 E.06877
G1 X227.397 Y74.58 E.06493
G1 X227.214 Y76.648 E.06509
G1 X226.871 Y78.561 E.06094
G1 X226.353 Y80.411 E.06024
G1 X225.587 Y82.272 E.0631
G1 X224.688 Y83.797 E.05551
G1 X223.536 Y85.144 E.05557
G1 X222.251 Y86.106 E.05033
G1 X220.762 Y86.706 E.05033
G1 X155.83 Y101.056 E2.08502
G1 X154.785 Y100.976 E.03286
G1 X143.636 Y96.651 E.37495
G1 X142.905 Y96.1 E.0287
G1 X142.434 Y95.387 E.02679
G1 X142.235 Y94.663 E.02354
G1 X142.254 Y93.41 E.03929
G1 X142.46 Y92.669 E.02411
G1 X142.944 Y91.946 E.02728
G1 X143.54 Y91.481 E.0237
G1 X144.277 Y91.206 E.02466
G1 X144.908 Y91.161 E.01983
G1 X155.386 Y92.628 E.33173
G1 X219.318 Y79.189 E2.04835
G1 X219.678 Y78.985 E.01297
M73 P5 R46
M73 Q5 S46
G1 X219.973 Y78.636 E.01433
G1 X220.313 Y78.053 E.02116
G1 X220.639 Y77.263 E.0268
G1 X220.911 Y76.307 E.03116
G1 X221.104 Y75.231 E.03428
G1 X221.205 Y74.081 E.0362
G1 X221.205 Y72.907 E.03681
G1 X221.104 Y71.758 E.03617
G1 X220.911 Y70.681 E.03431
G1 X220.639 Y69.725 E.03116
G1 X220.313 Y68.936 E.02677
G1 X219.973 Y68.353 E.02116
G1 X219.678 Y68.003 E.01435
G1 X219.318 Y67.8 E.01296
G1 X155.386 Y54.361 E2.04835
G1 X144.858 Y55.829 E.33329
G1 X144.241 Y55.773 E.01943
G1 X143.639 Y55.558 E.02004
G1 X143.003 Y55.093 E.0247
G1 X142.647 Y54.672 E.01729
G1 X142.254 Y53.613 E.03542
G1 X142.277 Y52.057 E.04879
G1 X142.306 Y51.976 E.0027
M204 S1000
G1 X142.661 Y52.102 F10800
M204 S800
G1 F1200
G1 X142.809 Y51.687 E.01381
G1 X143.068 Y51.27 E.01539
G1 X143.636 Y50.774 E.02364
G1 X154.859 Y46.379 E.37791
G1 X155.729 Y46.308 E.02737
M73 P5 R45
G1 X220.66 Y60.647 E2.08492
G1 X221.922 Y61.13 E.04237
G1 X223.445 Y62.28 E.05984
G1 X224.444 Y63.499 E.04942
G1 X225.244 Y64.873 E.04985
G1 X225.993 Y66.69 E.06162
G1 X226.506 Y68.522 E.05965
G1 X226.839 Y70.382 E.05925
G1 X227.024 Y72.517 E.06719
G1 X227.02 Y74.555 E.0639
G1 X226.841 Y76.59 E.06405
G1 X226.501 Y78.485 E.06037
G1 X225.992 Y80.299 E.05907
G1 X225.255 Y82.092 E.06078
G1 X224.39 Y83.566 E.05359
G1 X223.292 Y84.856 E.05311
G1 X222.087 Y85.766 E.04735
G1 X220.665 Y86.341 E.04809
G1 X155.775 Y100.682 E2.08368
G1 X154.896 Y100.614 E.02764
G1 X143.796 Y96.309 E.37329
G1 X143.199 Y95.861 E.0234
G1 X142.787 Y95.253 E.02303
G1 X142.612 Y94.641 E.01996
G1 X142.631 Y93.439 E.03769
G1 X142.792 Y92.849 E.01918
G1 X143.202 Y92.222 E.02349
G1 X143.72 Y91.813 E.02069
G1 X144.362 Y91.574 E.02148
G1 X144.876 Y91.537 E.01616
G1 X155.399 Y93.011 E.33316
G1 X219.426 Y79.552 E2.0514
G1 X219.94 Y79.26 E.01854
G1 X220.282 Y78.854 E.01664
G1 X220.652 Y78.221 E.02299
G1 X220.996 Y77.387 E.02829
G1 X221.279 Y76.392 E.03243
G1 X221.479 Y75.28 E.03543
M73 Q5 S45
G1 X221.582 Y74.097 E.03723
G1 X221.582 Y72.891 E.03781
G1 X221.479 Y71.708 E.03723
G1 X221.279 Y70.596 E.03543
G1 X220.996 Y69.602 E.0324
G1 X220.652 Y68.768 E.02829
G1 X220.282 Y68.135 E.02299
G1 X219.94 Y67.728 E.01667
G1 X219.426 Y67.437 E.01852
G1 X155.399 Y53.978 E2.0514
G1 X144.867 Y55.452 E.33344
G1 X144.339 Y55.408 E.01661
G1 X143.838 Y55.236 E.01661
G1 X143.245 Y54.803 E.02302
G1 X142.957 Y54.457 E.01412
G1 X142.631 Y53.581 E.02931
