; generated by PrusaSlicer 2.9.0 on 2025-01-04 at 20:01:25 UTC


;
;
; 

; external perimeters extrusion width = 0.45mm
; perimeters extrusion width = 0.45mm
; infill extrusion width = 0.45mm
; solid infill extrusion width = 0.45mm
; top infill extrusion width = 0.40mm
; first layer extrusion width = 0.42mm

M73 P0 R48
M73 Q0 S48
M201 X1000 Y1000 Z200 E5000 ; sets maximum accelerations, mm/sec^2
M203 X200 Y200 Z12 E120 ; sets maximum feedrates, mm / sec
M204 S1250 T1250 ; sets acceleration (S) and retract acceleration (R), mm/sec^2
M205 X8.00 Y8.00 Z0.40 E4.50 ; sets the jerk limits, mm/sec
M205 S0 T0 ; sets the minimum extruding and travel feed rate, mm/sec

; printing object tweezers.STL id:0 copy 0
; stop printing object tweezers.STL id:0 copy 0

;TYPE:Custom
M862.3 P "MK3S" ; printer model check
M862.1 P0.4 ; nozzle diameter check
M115 U3.14.1 ; tell printer latest fw version
G90 ; use absolute coordinates
M83 ; extruder relative mode
M104 S215 ; set extruder temp
M140 S60 ; set bed temp
M190 S60 ; wait for bed temp
M109 S215 ; wait for extruder temp
G28 W ; home all without mesh bed level
G80 X142.106 Y109.027 W95.0826 H65.0769 ; mesh bed levelling

G1 Z0.2 F720
G1 Y-3 F1000 ; go outside print area
G92 E0
G1 X60 E9 F1000 ; intro line
G1 X100 E12.5 F1000 ; intro line

G92 E0
M221 S95

; Don't change E values below. Excessive value can damage the printer.
M907 E430 ; set extruder motor current
G21 ; set units to millimeters
G90 ; use absolute coordinates
M83 ; use relative distances for extrusion

M900 K0.05 ; Filament gcode LA 1.5
M900 K30 ; Filament gcode LA 1.0




M107
;LAYER_CHANGE
;Z:0.2
;HEIGHT:0.2
G1 E-.8 F2100
G1 Z.6 F720
G1 X144.445 Y115.335 F10800
G1 Z.2 F720
G1 E.8 F2100
M204 S800
;TYPE:Skirt/Brim
;WIDTH:0.42
G1 F1200
G1 X145.48 Y114.499 E.04172
G1 X158.408 Y109.473 E.4349
G1 X159.033 Y109.331 E.0201
G1 X160.54 Y109.215 E.04739
G1 X161.18 Y109.26 E.02012
G1 X226.75 Y123.751 E2.10551
G1 X228.883 Y124.533 E.07123
G1 X229.776 Y125.016 E.03183
G1 X231.374 Y126.221 E.06275
G1 X232.12 Y126.939 E.03246
G1 X233.584 Y128.763 E.07333
G1 X234.58 Y130.464 E.0618
G1 X235.75 Y133.28 E.09561
G1 X236.368 Y135.514 E.07268
G1 X236.762 Y137.715 E.07011
G1 X236.989 Y140.205 E.0784
G1 X236.998 Y142.706 E.07842
G1 X236.792 Y145.187 E.07806
G1 X236.389 Y147.511 E.07395
G1 X235.575 Y150.359 E.09287
G1 X234.803 Y152.225 E.06332
G1 X233.684 Y154.211 E.07147
G1 X233.223 Y154.871 E.02524
G1 X231.957 Y156.367 E.06145
G1 X231.374 Y156.91 E.02498
G1 X230.03 Y157.946 E.05321
G1 X228.883 Y158.599 E.04138
G1 X226.92 Y159.335 E.06573
G1 X161.18 Y173.871 E2.11102
G1 X160.54 Y173.916 E.02012
G1 X159.033 Y173.8 E.04739
G1 X158.408 Y173.658 E.0201
G1 X145.48 Y168.632 E.4349
G1 X144.445 Y167.796 E.04172
G1 X142.656 Y165.08 E.10197
G1 X142.295 Y163.876 E.03941
G1 X142.295 Y119.255 E1.39906
G1 X142.656 Y118.051 E.03941
G1 X144.412 Y115.385 E.10009
M204 S1000
;WIPE_START
G1 F8640
G1 X144.445 Y115.335 E-.01383
G1 X145.48 Y114.499 E-.30721
G1 X147.413 Y113.747 E-.47896
;WIPE_END
G1 Z.6 F720
G1 X146.273 Y117.331 F10800
G1 Z.2 F720
G1 E.8 F2100
M204 S800
G1 F1200
G1 X146.875 Y116.755 E.02612
G1 X147.172 Y116.568 E.011
G1 X158.934 Y111.923 E.39651
G1 X160.967 Y111.759 E.06395
G1 X226.185 Y126.161 E2.09413
G1 X227.987 Y126.851 E.0605
G1 X230.183 Y128.493 E.08597
G1 X231.481 Y130.075 E.06416
G1 X232.453 Y131.736 E.06034
G1 X233.36 Y133.932 E.0745
G1 X233.942 Y136.012 E.06772
G1 X234.313 Y138.08 E.06588
G1 X234.525 Y140.519 E.07676
G1 X234.517 Y142.787 E.07111
G1 X234.315 Y145.036 E.0708
G1 X233.942 Y147.12 E.06638
G1 X233.375 Y149.156 E.06627
G1 X232.436 Y151.427 E.07705
G1 X231.327 Y153.272 E.06749
G1 X229.845 Y154.959 E.07041
G1 X228.132 Y156.2 E.06632
G1 X226.202 Y156.966 E.06511
G1 X161.017 Y171.372 E2.09315
G1 X158.983 Y171.217 E.06396
M73 P1 R48
M73 Q1 S48
G1 X147.406 Y166.704 E.38959
G1 X146.175 Y165.782 E.04822
G1 X145.292 Y164.515 E.04842
G1 X144.845 Y162.965 E.05058
G1 X144.856 Y161.304 E.05208
G1 X145.234 Y159.865 E.04665
G1 X146.012 Y158.626 E.04587
G1 X147.298 Y157.575 E.05207
G1 X147.972 Y157.266 E.02325
G1 X148.655 Y157.065 E.02232
G1 X149.965 Y156.975 E.04117
G1 X160.169 Y158.404 E.32306
G1 X223.12 Y145.171 E2.01692
G1 X223.566 Y143.867 E.04321
M73 P1 R47
G1 X223.804 Y142.054 E.05733
G1 X223.721 Y140.128 E.06044
G1 X223.566 Y139.264 E.02752
G1 X223.12 Y137.96 E.04321
G1 X160.168 Y124.727 E2.01695
G1 X149.622 Y126.164 E.33372
G1 X148.51 Y126.029 E.03512
G1 X147.446 Y125.632 E.03561
G1 X146.437 Y124.925 E.03863
G1 X145.673 Y124.08 E.03572
G1 X144.958 Y122.376 E.05794
G1 X144.87 Y122.004 E.01199
G1 X144.901 Y119.789 E.06946
G1 X145.241 Y118.723 E.03508
G1 X145.774 Y117.808 E.0332
G1 X146.23 Y117.372 E.01978
M204 S1000
G1 X146.23 Y117.372 F10800
G1 X146.486 Y117.643
M204 S800
G1 F1200
G1 X147.12 Y117.042 E.02739
G1 X159.047 Y112.284 E.40262
G1 X160.913 Y112.133 E.0587
G1 X226.09 Y126.527 E2.09282
G1 X227.783 Y127.169 E.05677
G1 X229.938 Y128.782 E.0844
G1 X231.163 Y130.278 E.06063
G1 X232.109 Y131.893 E.05868
G1 X233.007 Y134.066 E.07372
G1 X233.572 Y136.087 E.0658
G1 X233.938 Y138.121 E.0648
G1 X234.148 Y140.543 E.07623
G1 X234.14 Y142.778 E.07008
G1 X233.94 Y144.994 E.06976
G1 X233.572 Y147.044 E.0653
G1 X233.015 Y149.044 E.0651
G1 X232.105 Y151.246 E.07471
G1 X231.032 Y153.036 E.06544
G1 X229.605 Y154.667 E.06795
G1 X227.97 Y155.858 E.06342
G1 X226.106 Y156.601 E.06292
G1 X160.962 Y170.998 E2.09183
G1 X159.094 Y170.855 E.05874
M73 Q1 S47
G1 X147.611 Y166.387 E.38634
G1 X146.426 Y165.499 E.04643
G1 X145.62 Y164.328 E.04457
G1 X145.216 Y162.89 E.04683
G1 X145.232 Y161.331 E.04888
G1 X145.569 Y160.041 E.0418
G1 X146.315 Y158.854 E.04396
G1 X147.516 Y157.884 E.0484
G1 X148.704 Y157.44 E.03977
G1 X149.933 Y157.351 E.03864
G1 X160.182 Y158.786 E.32448
G1 X223.351 Y145.508 E2.0239
G1 X223.717 Y144.715 E.02738
G1 X223.933 Y143.953 E.02483
G1 X224.181 Y142.07 E.05955
G1 X224.095 Y140.078 E.06252
G1 X223.717 Y138.416 E.05344
G1 X223.351 Y137.623 E.02738
G1 X160.181 Y124.345 E2.02393
G1 X149.642 Y125.787 E.33352
M73 P2 R47
M73 Q2 S47
G1 X148.62 Y125.668 E.03226
G1 X147.601 Y125.288 E.0341
G1 X146.673 Y124.63 E.03567
G1 X145.975 Y123.852 E.03277
G1 X145.243 Y121.943 E.0641
G1 X145.277 Y119.825 E.06642
G1 X145.592 Y118.861 E.0318
G1 X146.085 Y118.023 E.03048
G1 X146.442 Y117.684 E.01544
M204 S1000
G1 X146.442 Y117.684 F10800
G1 X146.697 Y117.966
M204 S800
G1 F1200
G1 X147.482 Y117.256 E.03319
G1 X159.159 Y112.645 E.39364
G1 X160.86 Y112.507 E.05351
G1 X225.996 Y126.892 E2.0915
G1 X227.578 Y127.487 E.05299
G1 X229.694 Y129.07 E.08286
G1 X230.845 Y130.482 E.05712
G1 X231.766 Y132.049 E.05699
G1 X232.655 Y134.199 E.07295
G1 X233.203 Y136.163 E.06393
G1 X233.563 Y138.162 E.06369
G1 X233.771 Y140.551 E.07519
G1 X233.764 Y142.752 E.06901
G1 X233.566 Y144.952 E.06926
G1 X233.203 Y146.969 E.06426
G1 X232.655 Y148.932 E.0639
G1 X231.774 Y151.064 E.07233
G1 X230.737 Y152.802 E.06346
G1 X229.365 Y154.375 E.06545
G1 X227.808 Y155.517 E.06054
G1 X226.009 Y156.236 E.06074
G1 X160.908 Y170.624 E2.09045
G1 X159.205 Y170.494 E.05355
G1 X147.814 Y166.069 E.38316
G1 X146.719 Y165.259 E.04271
G1 X145.949 Y164.141 E.04256
G1 X145.587 Y162.817 E.04304
G1 X145.609 Y161.361 E.04566
G1 X145.925 Y160.167 E.03873
G1 X146.616 Y159.083 E.04031
G1 X147.692 Y158.218 E.04329
G1 X148.791 Y157.807 E.03679
G1 X149.9 Y157.727 E.03486
G1 X160.196 Y159.169 E.32597
G1 X223.593 Y145.842 E2.03121
G1 X224.073 Y144.839 E.03486
G1 X224.301 Y144.038 E.02611
G1 X224.558 Y142.087 E.0617
G1 X224.558 Y141.044 E.0327
G1 X224.301 Y139.093 E.0617
G1 X224.073 Y138.293 E.02608
G1 X223.593 Y137.289 E.03489
G1 X160.195 Y123.962 E2.03124
G1 X149.66 Y125.41 E.33342
G1 X148.727 Y125.306 E.02943
G1 X147.798 Y124.965 E.03103
G1 X146.909 Y124.335 E.03416
G1 X146.279 Y123.627 E.02971
G1 X145.616 Y121.884 E.05847
G1 X145.654 Y119.862 E.06341
G1 X145.943 Y119.001 E.02848
G1 X146.395 Y118.239 E.02778
G1 X146.652 Y118.006 E.01088
M204 S1000
G1 X146.652 Y118.006 F10800
G1 X146.901 Y118.274
M204 S800
G1 F1200
G1 X147.607 Y117.619 E.0302
G1 X159.272 Y113.006 E.39331
G1 X160.806 Y112.882 E.04825
G1 X225.902 Y127.257 E2.09021
G1 X227.42 Y127.83 E.05087
G1 X229.416 Y129.326 E.07821
G1 X230.527 Y130.685 E.05504
G1 X231.434 Y132.229 E.05615
G1 X232.295 Y134.312 E.07067
G1 X232.833 Y136.238 E.0627
G1 X233.191 Y138.221 E.06318
G1 X233.394 Y140.558 E.07355
G1 X233.387 Y142.727 E.06801
G1 X233.193 Y144.894 E.06822
G1 X232.837 Y146.876 E.06314
G1 X232.294 Y148.82 E.06329
G1 X231.443 Y150.883 E.06997
G1 X230.441 Y152.567 E.06144
G1 X229.124 Y154.085 E.06301
G1 X227.645 Y155.177 E.05764
G1 X225.913 Y155.872 E.05851
G1 X160.854 Y170.25 E2.0891
G1 X159.315 Y170.132 E.0484
M73 P3 R47
M73 Q3 S47
G1 X148.016 Y165.749 E.37999
G1 X147.011 Y165.018 E.03897
G1 X146.278 Y163.954 E.04051
G1 X145.964 Y162.797 E.03759
G1 X145.986 Y161.391 E.04409
G1 X146.281 Y160.294 E.03562
G1 X146.915 Y159.314 E.0366
G1 X147.87 Y158.552 E.03831
G1 X148.879 Y158.175 E.03377
G1 X149.868 Y158.104 E.03109
G1 X160.209 Y159.552 E.3274
G1 X223.786 Y146.187 E2.03698
G1 X224.158 Y145.621 E.02124
G1 X224.669 Y144.123 E.04963
G1 X224.935 Y142.103 E.06388
G1 X224.843 Y139.979 E.06666
G1 X224.43 Y138.169 E.05821
G1 X224.158 Y137.51 E.02235
G1 X223.786 Y136.944 E.02124
G1 X160.208 Y123.58 E2.03701
G1 X149.676 Y125.033 E.33335
M73 P3 R46
G1 X148.833 Y124.943 E.02658
G1 X147.995 Y124.642 E.02792
G1 X147.145 Y124.04 E.03266
G1 X146.584 Y123.403 E.02661
G1 X145.989 Y121.827 E.05282
G1 X146.02 Y119.954 E.05873
G1 X146.294 Y119.141 E.0269
G1 X146.704 Y118.456 E.02503
G1 X146.857 Y118.315 E.00652
M204 S1000
G1 X146.857 Y118.315 F10800
G1 X147.107 Y118.588
M204 S800
G1 F1200
G1 X147.823 Y117.932 E.03045
G1 X159.385 Y113.367 E.38975
G1 X160.752 Y113.256 E.043
G1 X225.807 Y127.622 E2.0889
G1 X227.261 Y128.173 E.04875
G1 X229.139 Y129.582 E.07361
G1 X230.226 Y130.912 E.05386
G1 X231.102 Y132.408 E.05436
G1 X231.934 Y134.424 E.06838
G1 X232.468 Y136.331 E.06209
G1 X232.818 Y138.279 E.06206
G1 X233.017 Y140.565 E.07195
G1 X233.011 Y142.701 E.06697
G1 X232.82 Y144.836 E.06721
G1 X232.468 Y146.8 E.06256
G1 X231.934 Y148.707 E.06209
G1 X231.112 Y150.703 E.06768
G1 X230.144 Y152.334 E.05947
G1 X228.883 Y153.794 E.06049
G1 X227.44 Y154.859 E.05623
G1 X225.817 Y155.507 E.05479
G1 X160.8 Y169.876 E2.08775
G1 X159.426 Y169.771 E.04321
G1 X148.176 Y165.407 E.37835
G1 X147.261 Y164.734 E.03561
M73 Q3 S46
G1 X146.608 Y163.769 E.03653
G1 X146.341 Y162.777 E.03221
G1 X146.362 Y161.421 E.04252
G1 X146.637 Y160.424 E.03243
G1 X147.213 Y159.547 E.0329
G1 X148.047 Y158.886 E.03337
G1 X148.966 Y158.542 E.03077
G1 X149.835 Y158.48 E.02732
G1 X160.222 Y159.934 E.32885
G1 X223.985 Y146.531 E2.04293
G1 X224.497 Y145.789 E.02827
G1 X224.787 Y145.087 E.02381
G1 X225.218 Y143.202 E.06063
G1 X225.312 Y142.12 E.03405
G1 X225.312 Y141.012 E.03474
G1 X225.037 Y138.923 E.06606
G1 X224.497 Y137.342 E.05238
G1 X223.985 Y136.601 E.02824
G1 X160.222 Y123.197 E2.04294
G1 X149.693 Y124.655 E.33328
G1 X148.896 Y124.571 E.02513
G1 X148.15 Y124.298 E.02491
G1 X147.384 Y123.747 E.02959
G1 X146.89 Y123.181 E.02356
G1 X146.363 Y121.776 E.04705
G1 X146.397 Y119.992 E.05595
G1 X146.643 Y119.285 E.02347
G1 X147.012 Y118.675 E.02235
G1 X147.063 Y118.629 E.00215
M204 S1000
G1 X147.063 Y118.629 F10800
G1 X147.319 Y118.896
M204 S800
G1 F1200
G1 X148.05 Y118.235 E.0309
G1 X159.497 Y113.728 E.38573
G1 X160.698 Y113.63 E.03778
M73 P4 R46
M73 Q4 S46
G1 X225.712 Y127.988 E2.08759
G1 X227.102 Y128.516 E.04662
G1 X228.861 Y129.838 E.06899
G1 X229.924 Y131.14 E.0527
G1 X230.77 Y132.587 E.05255
G1 X231.574 Y134.537 E.06613
G1 X232.098 Y136.407 E.06089
G1 X232.446 Y138.337 E.06149
G1 X232.64 Y140.573 E.07037
G1 X232.635 Y142.676 E.06594
G1 X232.448 Y144.777 E.06614
G1 X232.102 Y146.708 E.06151
G1 X231.574 Y148.595 E.06144
G1 X230.78 Y150.523 E.06538
G1 X229.847 Y152.101 E.05748
G1 X228.641 Y153.504 E.05801
G1 X227.277 Y154.518 E.05329
G1 X225.72 Y155.142 E.05259
G1 X160.745 Y169.501 E2.0864
G1 X159.536 Y169.409 E.03802
G1 X148.336 Y165.064 E.37667
G1 X147.513 Y164.452 E.03216
G1 X146.94 Y163.588 E.03251
G1 X146.719 Y162.757 E.02696
G1 X146.739 Y161.452 E.04092
G1 X146.991 Y160.556 E.02918
G1 X147.509 Y159.782 E.0292
G1 X148.225 Y159.219 E.02856
G1 X149.053 Y158.909 E.02772
G1 X149.803 Y158.856 E.02357
G1 X160.235 Y160.317 E.33028
G1 X224.085 Y146.895 E2.04573
G1 X224.525 Y146.489 E.01877
G1 X224.836 Y145.956 E.01935
G1 X225.405 Y144.293 E.05511
G1 X225.689 Y142.136 E.06821
G1 X225.592 Y139.879 E.07083
G1 X225.405 Y138.838 E.03316
G1 X224.836 Y137.175 E.05511
G1 X224.525 Y136.642 E.01935
G1 X224.085 Y136.236 E.01877
G1 X160.235 Y122.814 E2.04573
G1 X149.707 Y124.278 E.33327
G1 X148.999 Y124.208 E.02231
G1 X148.348 Y123.975 E.02168
G1 X147.623 Y123.455 E.02797
G1 X147.198 Y122.961 E.02043
G1 X146.738 Y121.732 E.04115
G1 X146.773 Y120.032 E.05331
G1 X146.99 Y119.432 E.02001
G1 X147.287 Y118.947 E.01783
M204 S1000
G1 X147.287 Y118.947 F10800
G1 X147.609 Y119.145
M204 S800
G1 F1200
G1 X147.625 Y119.118 E.00098
G1 X148.275 Y118.539 E.02729
G1 X159.609 Y114.089 E.38178
G1 X160.644 Y114.005 E.03256
G1 X225.617 Y128.353 E2.08626
G1 X226.943 Y128.859 E.0445
G1 X228.584 Y130.095 E.06441
G1 X229.606 Y131.343 E.05058
G1 X230.438 Y132.766 E.05168
G1 X231.214 Y134.649 E.06386
G1 X231.733 Y136.5 E.06028
G1 X232.073 Y138.395 E.06037
G1 X232.263 Y140.58 E.06877
G1 X232.258 Y142.651 E.06493
G1 X232.075 Y144.719 E.06509
G1 X231.733 Y146.632 E.06093
G1 X231.214 Y148.483 E.06028
G1 X230.449 Y150.343 E.06306
G1 X229.55 Y151.869 E.05553
G1 X228.398 Y153.215 E.05555
G1 X227.113 Y154.177 E.05033
G1 X225.623 Y154.777 E.05036
G1 X160.691 Y169.127 E2.08502
G1 X159.647 Y169.047 E.03283
G1 X148.498 Y164.723 E.37494
G1 X147.766 Y164.171 E.02875
G1 X147.295 Y163.458 E.02679
G1 X147.096 Y162.735 E.02351
G1 X147.116 Y161.481 E.03932
G1 X147.321 Y160.74 E.02411
G1 X147.805 Y160.017 E.02728
G1 X148.402 Y159.552 E.02373
G1 X149.138 Y159.277 E.02464
G1 X149.77 Y159.232 E.01987
G1 X160.248 Y160.699 E.33173
G1 X224.18 Y147.26 E2.04835
G1 X224.54 Y147.057 E.01296
M73 P5 R46
M73 Q5 S46
G1 X224.834 Y146.707 E.01433
G1 X225.175 Y146.124 E.02118
G1 X225.5 Y145.334 E.02678
G1 X225.773 Y144.378 E.03117
G1 X225.966 Y143.302 E.03428
G1 X226.066 Y142.152 E.03619
G1 X226.066 Y140.979 E.03678
G1 X225.966 Y139.829 E.03619
G1 X225.773 Y138.753 E.03428
G1 X225.5 Y137.797 E.03117
G1 X225.175 Y137.007 E.02678
G1 X224.834 Y136.424 E.02118
G1 X224.54 Y136.074 E.01433
G1 X224.18 Y135.871 E.01296
G1 X160.248 Y122.432 E2.04835
G1 X149.719 Y123.9 E.33332
G1 X149.103 Y123.844 E.01939
G1 X148.5 Y123.63 E.02006
G1 X147.864 Y123.164 E.02472
G1 X147.508 Y122.744 E.01726
G1 X147.116 Y121.684 E.03544
G1 X147.139 Y120.128 E.04879
M73 P5 R45
G1 X147.322 Y119.612 E.01717
G1 X147.578 Y119.196 E.01532
M204 S1000
G1 X147.578 Y119.196 F10800
G1 X147.897 Y119.395
M204 S800
G1 F1200
G1 X147.93 Y119.342 E.00196
G1 X148.498 Y118.845 E.02366
G1 X159.721 Y114.45 E.37791
G1 X160.591 Y114.379 E.02737
G1 X225.522 Y128.718 E2.08492
G1 X226.783 Y129.201 E.04234
G1 X228.306 Y130.351 E.05984
G1 X229.305 Y131.57 E.04942
G1 X230.105 Y132.944 E.04985
G1 X230.854 Y134.761 E.06162
G1 X231.367 Y136.593 E.05965
G1 X231.7 Y138.453 E.05925
G1 X231.886 Y140.588 E.06719
G1 X231.882 Y142.626 E.0639
G1 X231.702 Y144.661 E.06406
G1 X231.363 Y146.557 E.06039
G1 X230.854 Y148.37 E.05904
G1 X230.117 Y150.164 E.06081
G1 X229.252 Y151.637 E.05356
G1 X228.154 Y152.927 E.05311
G1 X226.948 Y153.837 E.04737
G1 X225.527 Y154.412 E.04806
G1 X160.637 Y168.753 E2.08368
G1 X159.757 Y168.686 E.02767
G1 X148.658 Y164.38 E.37327
G1 X148.06 Y163.933 E.02341
G1 X147.649 Y163.324 E.02304
G1 X147.474 Y162.712 E.01996
G1 X147.492 Y161.51 E.03769
G1 X147.653 Y160.921 E.01915
G1 X148.064 Y160.293 E.02353
G1 X148.582 Y159.884 E.02069
G1 X149.224 Y159.645 E.02148
G1 X149.737 Y159.608 E.01613
G1 X160.261 Y161.082 E.33319
G1 X224.287 Y147.623 E2.05137
G1 X224.801 Y147.332 E.01852
M73 Q5 S45
G1 X225.144 Y146.925 E.01669
G1 X225.513 Y146.292 E.02297
G1 X225.857 Y145.458 E.02829
G1 X226.14 Y144.464 E.0324
G1 X226.34 Y143.352 E.03543
