; generated by PrusaSlicer 2.9.0 on 2025-01-04 at 20:01:11 UTC


;
;
; 

; external perimeters extrusion width = 0.45mm
; perimeters extrusion width = 0.45mm
; infill extrusion width = 0.45mm
; solid infill extrusion width = 0.45mm
; top infill extrusion width = 0.40mm
; first layer extrusion width = 0.42mm

M73 P0 R48
M73 Q0 S48
M201 X1000 Y1000 Z200 E5000 ; sets maximum accelerations, mm/sec^2
M203 X200 Y200 Z12 E120 ; sets maximum feedrates, mm / sec
M204 S1250 T1250 ; sets acceleration (S) and retract acceleration (R), mm/sec^2
M205 X8.00 Y8.00 Z0.40 E4.50 ; sets the jerk limits, mm/sec
M205 S0 T0 ; sets the minimum extruding and travel feed rate, mm/sec

; printing object tweezers.STL id:0 copy 0
; stop printing object tweezers.STL id:0 copy 0

;TYPE:Custom
M862.3 P "MK3S" ; printer model check
M862.1 P0.4 ; nozzle diameter check
M115 U3.14.1 ; tell printer latest fw version
G90 ; use absolute coordinates
M83 ; extruder relative mode
M104 S215 ; set extruder temp
M140 S60 ; set bed temp
M190 S60 ; wait for bed temp
M109 S215 ; wait for extruder temp
G28 W ; home all without mesh bed level
G80 X33.0435 Y107.19 W95.0826 H65.0769 ; mesh bed levelling

G1 Z0.2 F720
G1 Y-3 F1000 ; go outside print area
G92 E0
G1 X60 E9 F1000 ; intro line
G1 X100 E12.5 F1000 ; intro line

G92 E0
M221 S95

; Don't change E values below. Excessive value can damage the printer.
M907 E430 ; set extruder motor current
G21 ; set units to millimeters
G90 ; use absolute coordinates
M83 ; use relative distances for extrusion

M900 K0.05 ; Filament gcode LA 1.5
M900 K30 ; Filament gcode LA 1.0




M107
;LAYER_CHANGE
;Z:0.2
;HEIGHT:0.2
G1 E-.8 F2100
G1 Z.6 F720
G1 X42.829 Y110.169 F10800
G1 Z.2 F720
G1 E.8 F2100
M204 S800
;TYPE:Skirt/Brim
;WIDTH:0.42
G1 F1200
G1 X49.345 Y107.636 E.2192
G1 X49.971 Y107.494 E.02013
G1 X51.477 Y107.378 E.04736
G1 X52.117 Y107.423 E.02012
G1 X117.687 Y121.914 E2.10551
G1 X119.82 Y122.695 E.07122
G1 X120.713 Y123.179 E.03185
G1 X122.311 Y124.384 E.06275
G1 X123.057 Y125.102 E.03246
G1 X124.522 Y126.926 E.07335
G1 X125.517 Y128.627 E.06179
G1 X126.688 Y131.443 E.09562
G1 X127.305 Y133.677 E.07267
G1 X127.699 Y135.878 E.07011
G1 X127.926 Y138.367 E.07836
G1 X127.936 Y140.869 E.07845
G1 X127.73 Y143.35 E.07806
G1 X127.327 Y145.674 E.07395
G1 X126.512 Y148.522 E.09288
G1 X125.741 Y150.388 E.0633
G1 X124.622 Y152.374 E.07147
G1 X124.16 Y153.034 E.02526
G1 X122.894 Y154.53 E.06145
G1 X122.311 Y155.073 E.02498
G1 X120.967 Y156.109 E.05321
G1 X119.82 Y156.761 E.04137
G1 X117.857 Y157.498 E.06574
G1 X52.117 Y172.034 E2.11102
G1 X51.477 Y172.079 E.02012
G1 X49.971 Y171.963 E.04736
G1 X49.345 Y171.821 E.02013
G1 X36.417 Y166.795 E.4349
G1 X35.383 Y165.959 E.04169
G1 X33.593 Y163.243 E.10199
G1 X33.232 Y162.039 E.03941
G1 X33.232 Y117.418 E1.39906
G1 X33.593 Y116.214 E.03941
G1 X35.383 Y113.498 E.10199
G1 X36.417 Y112.662 E.04169
G1 X42.773 Y110.191 E.21382
M204 S1000
;WIPE_START
G1 F8640
G1 X42.829 Y110.169 E-.01389
G1 X46.002 Y108.935 E-.78611
;WIPE_END
G1 Z.6 F720
G1 X43.695 Y112.525 F10800
G1 Z.2 F720
G1 E.8 F2100
M204 S800
G1 F1200
G1 X49.872 Y110.086 E.20823
G1 X51.905 Y109.922 E.06395
G1 X117.122 Y124.324 E2.0941
G1 X118.925 Y125.014 E.06053
G1 X121.12 Y126.656 E.08595
G1 X122.418 Y128.238 E.06416
G1 X123.39 Y129.899 E.06034
G1 X124.298 Y132.095 E.07451
G1 X124.879 Y134.174 E.06768
G1 X125.251 Y136.243 E.06591
G1 X125.462 Y138.682 E.07676
G1 X125.454 Y140.95 E.07111
G1 X125.253 Y143.199 E.0708
G1 X124.879 Y145.283 E.06639
G1 X124.312 Y147.319 E.06627
G1 X123.373 Y149.59 E.07705
G1 X122.265 Y151.435 E.06748
G1 X120.782 Y153.122 E.07043
G1 X119.07 Y154.363 E.0663
G1 X117.14 Y155.129 E.06511
G1 X51.954 Y169.535 E2.09318
G1 X49.921 Y169.38 E.06393
M73 P1 R48
M73 Q1 S48
G1 X38.343 Y164.867 E.38962
G1 X37.112 Y163.945 E.04822
G1 X36.229 Y162.678 E.04842
G1 X35.783 Y161.128 E.05057
G1 X35.793 Y159.467 E.05208
G1 X36.171 Y158.028 E.04665
G1 X36.95 Y156.789 E.04589
G1 X38.236 Y155.738 E.05207
G1 X38.909 Y155.429 E.02322
G1 X39.592 Y155.228 E.02232
M73 P1 R47
G1 X40.903 Y155.138 E.0412
G1 X51.107 Y156.567 E.32306
G1 X114.058 Y143.334 E2.01692
G1 X114.503 Y142.03 E.0432
G1 X114.741 Y140.217 E.05733
G1 X114.658 Y138.291 E.06044
G1 X114.503 Y137.427 E.02752
G1 X114.058 Y136.123 E.0432
G1 X51.105 Y122.89 E2.01698
G1 X40.559 Y124.327 E.33372
G1 X39.447 Y124.192 E.03512
G1 X38.383 Y123.795 E.03561
G1 X37.375 Y123.087 E.03862
G1 X36.61 Y122.243 E.03572
G1 X35.896 Y120.538 E.05796
G1 X35.808 Y120.167 E.01196
G1 X35.838 Y117.952 E.06946
G1 X36.178 Y116.886 E.03508
G1 X36.711 Y115.971 E.0332
G1 X37.812 Y114.918 E.04777
G1 X38.11 Y114.73 E.01105
G1 X43.639 Y112.547 E.18638
M204 S1000
G1 X43.639 Y112.547 F10800
G1 X43.788 Y112.919
M204 S800
G1 F1200
G1 X49.984 Y110.447 E.20916
G1 X51.851 Y110.296 E.05873
G1 X117.028 Y124.689 E2.09281
G1 X118.72 Y125.332 E.05675
G1 X120.876 Y126.944 E.08441
G1 X122.1 Y128.441 E.06063
G1 X123.047 Y130.055 E.05867
G1 X123.945 Y132.229 E.07375
G1 X124.51 Y134.25 E.0658
G1 X124.876 Y136.284 E.0648
G1 X125.086 Y138.706 E.07623
G1 X125.077 Y140.941 E.07008
G1 X124.878 Y143.157 E.06976
M73 Q1 S47
G1 X124.51 Y145.207 E.0653
G1 X123.952 Y147.207 E.0651
G1 X123.043 Y149.409 E.07469
G1 X121.97 Y151.199 E.06544
G1 X120.543 Y152.829 E.06793
G1 X118.908 Y154.021 E.06344
G1 X117.043 Y154.764 E.06295
G1 X51.9 Y169.161 E2.0918
G1 X50.032 Y169.018 E.05874
G1 X38.549 Y164.55 E.38634
G1 X37.364 Y163.662 E.04643
G1 X36.558 Y162.491 E.04457
G1 X36.153 Y161.053 E.04684
G1 X36.17 Y159.494 E.04888
G1 X36.506 Y158.204 E.0418
G1 X37.252 Y157.016 E.04398
G1 X38.453 Y156.047 E.04838
G1 X39.641 Y155.603 E.03977
G1 X40.87 Y155.514 E.03864
G1 X51.12 Y156.949 E.32452
G1 X114.289 Y143.671 E2.0239
G1 X114.654 Y142.878 E.02737
G1 X114.871 Y142.115 E.02487
G1 X115.118 Y140.233 E.05951
G1 X115.033 Y138.241 E.06251
G1 X114.654 Y136.579 E.05345
G1 X114.289 Y135.786 E.02737
G1 X51.119 Y122.507 E2.02394
G1 X40.579 Y123.95 E.33356
G1 X39.557 Y123.831 E.03226
M73 P2 R47
M73 Q2 S47
G1 X38.539 Y123.45 E.03408
G1 X37.61 Y122.793 E.03568
G1 X36.913 Y122.015 E.03275
G1 X36.181 Y120.105 E.06413
G1 X36.215 Y117.987 E.06642
G1 X36.53 Y117.024 E.03177
G1 X37.022 Y116.185 E.0305
G1 X38.058 Y115.205 E.04471
G1 X43.732 Y112.941 E.19154
M204 S1000
G1 X43.732 Y112.941 F10800
G1 X43.862 Y113.27
M204 S800
G1 F1200
G1 X50.097 Y110.808 E.21018
G1 X51.797 Y110.67 E.05348
G1 X116.934 Y125.055 E2.09154
G1 X118.516 Y125.65 E.05299
G1 X120.631 Y127.232 E.08281
G1 X121.782 Y128.645 E.05714
G1 X122.703 Y130.212 E.05699
G1 X123.592 Y132.362 E.07295
G1 X124.14 Y134.326 E.06393
G1 X124.501 Y136.325 E.06369
G1 X124.708 Y138.713 E.07515
G1 X124.701 Y140.915 E.06904
G1 X124.503 Y143.115 E.06926
G1 X124.14 Y145.132 E.06426
G1 X123.592 Y147.095 E.0639
G1 X122.712 Y149.227 E.07232
G1 X121.674 Y150.964 E.06345
G1 X120.302 Y152.538 E.06547
G1 X118.745 Y153.68 E.06054
G1 X116.947 Y154.399 E.06072
G1 X51.846 Y168.787 E2.09045
G1 X50.142 Y168.657 E.05358
G1 X38.752 Y164.231 E.38314
G1 X37.656 Y163.422 E.04271
G1 X36.887 Y162.304 E.04255
G1 X36.524 Y160.98 E.04305
G1 X36.546 Y159.524 E.04566
G1 X36.863 Y158.329 E.03876
G1 X37.553 Y157.246 E.04026
G1 X38.63 Y156.381 E.04331
G1 X39.729 Y155.97 E.03679
G1 X40.838 Y155.89 E.03486
G1 X51.133 Y157.332 E.32594
G1 X114.53 Y144.005 E2.03121
G1 X115.011 Y143.002 E.03488
G1 X115.239 Y142.201 E.02611
G1 X115.495 Y140.25 E.0617
G1 X115.495 Y139.207 E.0327
G1 X115.239 Y137.256 E.0617
G1 X115.011 Y136.455 E.02611
G1 X114.53 Y135.452 E.03488
G1 X51.132 Y122.125 E2.03124
G1 X40.597 Y123.573 E.33342
G1 X39.665 Y123.469 E.0294
G1 X38.736 Y123.128 E.03103
G1 X37.846 Y122.498 E.03419
G1 X37.216 Y121.79 E.02971
G1 X36.554 Y120.047 E.05846
G1 X36.591 Y118.024 E.06344
G1 X36.88 Y117.164 E.02845
G1 X37.333 Y116.401 E.02782
G1 X38.419 Y115.419 E.04591
G1 X43.806 Y113.292 E.18159
M204 S1000
G1 X43.946 Y113.646 F10800
M204 S800
G1 F1200
G1 X50.209 Y111.169 E.21117
G1 X51.743 Y111.045 E.04825
G1 X116.839 Y125.42 E2.09021
G1 X118.358 Y125.993 E.0509
G1 X120.354 Y127.489 E.07821
G1 X121.465 Y128.848 E.05504
G1 X122.371 Y130.391 E.0561
G1 X123.232 Y132.475 E.0707
G1 X123.771 Y134.401 E.06271
G1 X124.128 Y136.384 E.06318
G1 X124.331 Y138.721 E.07355
G1 X124.325 Y140.89 E.06801
G1 X124.13 Y143.057 E.06822
G1 X123.775 Y145.039 E.06313
G1 X123.232 Y146.982 E.06326
G1 X122.381 Y149.046 E.07
G1 X121.378 Y150.73 E.06146
G1 X120.061 Y152.247 E.06299
G1 X118.582 Y153.339 E.05764
G1 X116.85 Y154.034 E.05851
G1 X51.791 Y168.413 E2.08911
G1 X50.253 Y168.295 E.04836
M73 P3 R47
G1 X38.953 Y163.912 E.38002
M73 Q3 S47
G1 X37.948 Y163.181 E.03897
G1 X37.216 Y162.117 E.04049
G1 X36.901 Y160.96 E.0376
G1 X36.923 Y159.553 E.04412
G1 X37.219 Y158.457 E.0356
G1 X37.852 Y157.477 E.03658
G1 X38.807 Y156.715 E.03831
G1 X39.817 Y156.337 E.03381
G1 X40.805 Y156.266 E.03106
G1 X51.146 Y157.714 E.3274
G1 X114.723 Y144.35 E2.03698
G1 X115.096 Y143.784 E.02125
M73 P3 R46
G1 X115.607 Y142.286 E.04963
G1 X115.872 Y140.266 E.06388
G1 X115.781 Y138.142 E.06666
G1 X115.368 Y136.331 E.05824
G1 X115.096 Y135.673 E.02232
G1 X114.723 Y135.107 E.02125
G1 X51.146 Y121.742 E2.03698
G1 X40.613 Y123.195 E.33338
G1 X39.77 Y123.106 E.02658
G1 X38.932 Y122.805 E.02792
G1 X38.083 Y122.203 E.03263
G1 X37.521 Y121.566 E.02663
G1 X36.927 Y119.99 E.05281
G1 X36.958 Y118.117 E.05873
G1 X37.231 Y117.304 E.02689
G1 X37.642 Y116.619 E.02505
G1 X38.545 Y115.782 E.0386
G1 X43.89 Y113.668 E.18022
M204 S1000
G1 X43.89 Y113.668 F10800
G1 X44.027 Y114.015
M204 S800
G1 F1200
G1 X50.322 Y111.53 E.2122
G1 X51.689 Y111.419 E.043
G1 X116.744 Y125.785 E2.0889
G1 X118.199 Y126.336 E.04878
G1 X120.076 Y127.745 E.07359
G1 X121.163 Y129.075 E.05386
G1 X122.039 Y130.571 E.05436
G1 X122.872 Y132.587 E.06839
G1 X123.405 Y134.494 E.06208
G1 X123.756 Y136.442 E.06206
G1 X123.954 Y138.728 E.07194
G1 X123.948 Y140.864 E.06697
G1 X123.758 Y142.998 E.06717
G1 X123.405 Y144.963 E.0626
G1 X122.872 Y146.87 E.06208
G1 X122.049 Y148.866 E.06769
G1 X121.082 Y150.497 E.05945
G1 X119.821 Y151.957 E.06049
G1 X118.378 Y153.021 E.05621
G1 X116.754 Y153.669 E.05482
G1 X51.737 Y168.038 E2.08775
G1 X50.363 Y167.933 E.04321
M73 Q3 S46
G1 X39.113 Y163.569 E.37835
G1 X38.198 Y162.897 E.0356
G1 X37.546 Y161.932 E.03652
G1 X37.279 Y160.939 E.03224
G1 X37.3 Y159.584 E.04249
G1 X37.574 Y158.587 E.03242
G1 X38.15 Y157.71 E.0329
G1 X38.984 Y157.048 E.03339
G1 X39.903 Y156.705 E.03076
G1 X40.773 Y156.643 E.02735
G1 X51.159 Y158.097 E.32882
G1 X114.922 Y144.693 E2.04294
G1 X115.435 Y143.952 E.02826
G1 X115.724 Y143.249 E.02383
G1 X116.155 Y141.365 E.0606
G1 X116.249 Y140.282 E.03408
G1 X116.249 Y139.174 E.03474
G1 X115.974 Y137.086 E.06603
G1 X115.435 Y135.505 E.05237
G1 X114.922 Y134.763 E.02828
G1 X51.159 Y121.36 E2.04293
G1 X40.63 Y122.818 E.33328
G1 X39.833 Y122.734 E.02513
G1 X39.087 Y122.46 E.02492
G1 X38.321 Y121.91 E.02957
G1 X37.828 Y121.344 E.02353
G1 X37.301 Y119.938 E.04708
G1 X37.334 Y118.155 E.05591
G1 X37.58 Y117.447 E.0235
G1 X37.95 Y116.838 E.02234
G1 X38.761 Y116.095 E.03449
G1 X43.971 Y114.038 E.17563
M204 S1000
G1 X43.971 Y114.038 F10800
G1 X44.107 Y114.382
M204 S800
G1 F1200
G1 X50.434 Y111.891 E.2132
G1 X51.636 Y111.793 E.03781
M73 P4 R46
G1 X116.649 Y126.15 E2.08755
G1 X118.04 Y126.679 E.04666
M73 Q4 S46
G1 X119.799 Y128.001 E.06899
G1 X120.862 Y129.302 E.05268
G1 X121.707 Y130.749 E.05254
G1 X122.512 Y132.699 E.06615
G1 X123.036 Y134.57 E.06092
G1 X123.383 Y136.5 E.06148
G1 X123.577 Y138.736 E.07037
G1 X123.572 Y140.839 E.06594
G1 X123.385 Y142.94 E.06614
G1 X123.04 Y144.87 E.06147
G1 X122.512 Y146.758 E.06147
G1 X121.718 Y148.686 E.06538
G1 X120.785 Y150.264 E.05748
G1 X119.578 Y151.667 E.05803
G1 X118.214 Y152.681 E.05329
G1 X116.658 Y153.305 E.05256
G1 X51.683 Y167.664 E2.0864
G1 X50.474 Y167.572 E.03802
G1 X39.274 Y163.227 E.37667
G1 X38.451 Y162.615 E.03216
G1 X37.877 Y161.75 E.03255
G1 X37.656 Y160.919 E.02696
G1 X37.676 Y159.614 E.04092
G1 X37.928 Y158.719 E.02915
G1 X38.446 Y157.945 E.0292
G1 X39.162 Y157.382 E.02856
G1 X39.99 Y157.072 E.02772
G1 X40.74 Y157.019 E.02357
G1 X51.172 Y158.48 E.33028
G1 X115.023 Y145.058 E2.04576
G1 X115.463 Y144.652 E.01877
G1 X115.773 Y144.119 E.01933
G1 X116.342 Y142.456 E.05511
G1 X116.626 Y140.299 E.06821
G1 X116.529 Y138.042 E.07083
G1 X116.342 Y137.001 E.03316
G1 X115.773 Y135.338 E.05511
G1 X115.463 Y134.805 E.01933
G1 X115.023 Y134.399 E.01877
G1 X51.172 Y120.977 E2.04576
G1 X40.645 Y122.441 E.33324
G1 X39.937 Y122.37 E.02231
G1 X39.285 Y122.138 E.0217
G1 X38.56 Y121.617 E.02799
G1 X38.136 Y121.124 E.02039
G1 X37.675 Y119.895 E.04116
G1 X37.71 Y118.195 E.05331
G1 X37.928 Y117.595 E.02002
G1 X38.256 Y117.059 E.0197
G1 X38.987 Y116.398 E.0309
G1 X44.051 Y114.404 E.17064
M204 S1000
G1 X44.051 Y114.404 F10800
G1 X44.187 Y114.749
M204 S800
G1 F1200
G1 X50.546 Y112.252 E.2142
G1 X51.582 Y112.167 E.03259
G1 X116.554 Y126.516 E2.08624
G1 X117.88 Y127.022 E.0445
G1 X119.521 Y128.258 E.06441
G1 X120.544 Y129.506 E.0506
G1 X121.375 Y130.928 E.05164
G1 X122.152 Y132.812 E.0639
G1 X122.67 Y134.663 E.06027
G1 X123.01 Y136.558 E.06037
G1 X123.2 Y138.743 E.06877
G1 X123.196 Y140.814 E.06493
G1 X123.013 Y142.882 E.06509
G1 X122.67 Y144.795 E.06094
G1 X122.152 Y146.645 E.06024
G1 X121.386 Y148.506 E.0631
G1 X120.487 Y150.031 E.05551
G1 X119.335 Y151.378 E.05557
G1 X118.05 Y152.34 E.05033
G1 X116.561 Y152.94 E.05033
G1 X51.628 Y167.29 E2.08505
G1 X50.584 Y167.21 E.03283
G1 X39.435 Y162.885 E.37495
G1 X38.704 Y162.334 E.0287
G1 X38.233 Y161.621 E.02679
G1 X38.034 Y160.898 E.02351
G1 X38.053 Y159.644 E.03932
G1 X38.259 Y158.903 E.02411
G1 X38.743 Y158.18 E.02728
G1 X39.339 Y157.715 E.0237
G1 X40.076 Y157.44 E.02466
G1 X40.707 Y157.395 E.01983
G1 X51.185 Y158.862 E.33173
G1 X115.117 Y145.423 E2.04835
G1 X115.477 Y145.22 E.01296
M73 P5 R46
M73 Q5 S46
G1 X115.772 Y144.87 E.01435
G1 X116.112 Y144.287 E.02116
G1 X116.438 Y143.497 E.0268
G1 X116.71 Y142.541 E.03116
G1 X116.903 Y141.465 E.03428
G1 X117.003 Y140.315 E.03619
G1 X117.003 Y139.142 E.03678
G1 X116.903 Y137.992 E.03619
G1 X116.71 Y136.916 E.03428
G1 X116.438 Y135.96 E.03116
G1 X116.112 Y135.17 E.0268
G1 X115.772 Y134.587 E.02116
G1 X115.477 Y134.237 E.01435
G1 X115.117 Y134.034 E.01296
G1 X51.185 Y120.595 E2.04835
G1 X40.657 Y122.063 E.33329
M73 P5 R45
G1 X40.04 Y122.007 E.01943
G1 X39.438 Y121.792 E.02004
G1 X38.802 Y121.327 E.0247
G1 X38.446 Y120.907 E.01726
G1 X38.053 Y119.847 E.03545
G1 X38.076 Y118.291 E.04879
G1 X38.26 Y117.775 E.01718
G1 X38.563 Y117.28 E.0182
G1 X39.213 Y116.702 E.02727
G1 X44.131 Y114.771 E.16566
M204 S1000
G1 X44.266 Y115.116 F10800
M204 S800
G1 F1200
G1 X50.658 Y112.613 E.21523
G1 X51.528 Y112.542 E.02737
G1 X116.459 Y126.881 E2.08492
G1 X117.721 Y127.364 E.04237
G1 X119.244 Y128.514 E.05984
G1 X120.243 Y129.733 E.04942
G1 X121.043 Y131.107 E.04985
G1 X121.792 Y132.924 E.06162
G1 X122.305 Y134.756 E.05965
G1 X122.638 Y136.616 E.05925
G1 X122.823 Y138.751 E.06719
G1 X122.819 Y140.789 E.0639
G1 X122.64 Y142.824 E.06405
G1 X122.3 Y144.72 E.0604
G1 X121.791 Y146.533 E.05904
G1 X121.054 Y148.327 E.06081
G1 X120.189 Y149.8 E.05356
G1 X119.091 Y151.09 E.05311
G1 X117.886 Y152 E.04735
G1 X116.464 Y152.575 E.04809
G1 X51.574 Y166.916 E2.08368
G1 X50.695 Y166.849 E.02764
G1 X39.595 Y162.543 E.3733
G1 X38.998 Y162.096 E.02338
G1 X38.586 Y161.487 E.02305
G1 X38.411 Y160.875 E.01996
G1 X38.43 Y159.673 E.03769
G1 X38.591 Y159.084 E.01915
G1 X39.001 Y158.456 E.02352
G1 X39.519 Y158.047 E.02069
G1 X40.161 Y157.808 E.02148
G1 X40.675 Y157.771 E.01616
G1 X51.198 Y159.245 E.33316
G1 X115.225 Y145.786 E2.0514
G1 X115.739 Y145.495 E.01852
M73 Q5 S45
G1 X116.081 Y145.088 E.01667
G1 X116.451 Y144.455 E.02299
G1 X116.795 Y143.621 E.02829
G1 X117.078 Y142.626 E.03243
G1 X117.278 Y141.515 E.03539
G1 X117.381 Y140.332 E.03723
G1 X117.381 Y139.125 E.03784
G1 X117.278 Y137.942 E.03723
G1 X117.078 Y136.831 E.03539
G1 X116.795 Y135.836 E.03243
G1 X116.451 Y135.002 E.02829
G1 X116.081 Y134.369 E.02299
G1 X115.739 Y133.962 E.01667
G1 X115.225 Y133.671 E.01852
G1 X51.198 Y120.212 E2.0514
G1 X40.666 Y121.686 E.33344
G1 X40.138 Y121.642 E.01661
