; generated by PrusaSlicer 2.9.0 on 2025-01-04 at 20:00:00 UTC


;
;
; 

; external perimeters extrusion width = 0.45mm
; perimeters extrusion width = 0.45mm
; infill extrusion width = 0.45mm
; solid infill extrusion width = 0.45mm
; top infill extrusion width = 0.40mm
; first layer extrusion width = 0.42mm

M73 P0 R48
M73 Q0 S48
M201 X1000 Y1000 Z200 E5000 ; sets maximum accelerations, mm/sec^2
M203 X200 Y200 Z12 E120 ; sets maximum feedrates, mm / sec
M204 S1250 T1250 ; sets acceleration (S) and retract acceleration (R), mm/sec^2
M205 X8.00 Y8.00 Z0.40 E4.50 ; sets the jerk limits, mm/sec
M205 S0 T0 ; sets the minimum extruding and travel feed rate, mm/sec

; printing object tweezers.STL id:0 copy 0
; stop printing object tweezers.STL id:0 copy 0

;TYPE:Custom
M862.3 P "MK3S" ; printer model check
M862.1 P0.4 ; nozzle diameter check
M115 U3.14.1 ; tell printer latest fw version
G90 ; use absolute coordinates
M83 ; extruder relative mode
M104 S215 ; set extruder temp
M140 S60 ; set bed temp
M190 S60 ; wait for bed temp
M109 S215 ; wait for extruder temp
G28 W ; home all without mesh bed level
G80 X25.6607 Y35.1287 W95.0826 H65.0769 ; mesh bed levelling

G1 Z0.2 F720
G1 Y-3 F1000 ; go outside print area
G92 E0
G1 X60 E9 F1000 ; intro line
G1 X100 E12.5 F1000 ; intro line

G92 E0
M221 S95

; Don't change E values below. Excessive value can damage the printer.
M907 E430 ; set extruder motor current
G21 ; set units to millimeters
G90 ; use absolute coordinates
M83 ; use relative distances for extrusion

M900 K0.05 ; Filament gcode LA 1.5
M900 K30 ; Filament gcode LA 1.0




M107
;LAYER_CHANGE
;Z:0.2
;HEIGHT:0.2
G1 E-.8 F2100
G1 Z.6 F720
G1 X29.034 Y40.601 F10800
G1 Z.2 F720
G1 E.8 F2100
M204 S800
;TYPE:Skirt/Brim
;WIDTH:0.42
G1 F1200
G1 X41.963 Y35.575 E.43493
G1 X42.588 Y35.432 E.0201
G1 X44.095 Y35.317 E.04739
G1 X44.735 Y35.362 E.02012
G1 X110.304 Y49.853 E2.10548
G1 X112.437 Y50.634 E.07122
G1 X113.331 Y51.118 E.03188
G1 X114.928 Y52.323 E.06273
G1 X115.675 Y53.041 E.03249
G1 X117.139 Y54.865 E.07333
G1 X118.135 Y56.566 E.0618
G1 X119.305 Y59.382 E.09561
G1 X119.922 Y61.616 E.07267
G1 X120.316 Y63.817 E.07011
G1 X120.543 Y66.306 E.07836
G1 X120.553 Y68.808 E.07845
G1 X120.347 Y71.289 E.07806
G1 X119.944 Y73.612 E.07392
G1 X119.129 Y76.46 E.09288
G1 X118.358 Y78.326 E.0633
G1 X117.239 Y80.313 E.0715
G1 X116.777 Y80.973 E.02526
G1 X115.512 Y82.469 E.06143
G1 X114.928 Y83.012 E.025
G1 X113.584 Y84.048 E.05321
G1 X112.437 Y84.7 E.04137
G1 X110.474 Y85.437 E.06574
G1 X44.735 Y99.973 E2.11099
G1 X44.095 Y100.018 E.02012
G1 X42.588 Y99.902 E.04739
G1 X41.963 Y99.76 E.0201
G1 X29.034 Y94.734 E.43493
G1 X28 Y93.898 E.04169
G1 X26.21 Y91.182 E.10199
G1 X25.849 Y89.978 E.03941
G1 X25.849 Y45.357 E1.39906
G1 X26.21 Y44.153 E.03941
G1 X28 Y41.436 E.10202
G1 X28.988 Y40.638 E.03982
M204 S1000
;WIPE_START
G1 F8640
G1 X29.034 Y40.601 E-.01363
G1 X32.208 Y39.367 E-.78637
;WIPE_END
G1 Z.6 F720
G1 X30.43 Y42.857 F10800
G1 Z.2 F720
G1 E.8 F2100
M204 S800
G1 F1200
G1 X30.727 Y42.669 E.01102
G1 X42.489 Y38.025 E.39649
G1 X44.522 Y37.86 E.06395
G1 X109.739 Y52.263 E2.09411
G1 X111.542 Y52.952 E.06052
G1 X113.737 Y54.595 E.08597
G1 X115.035 Y56.177 E.06416
G1 X116.007 Y57.838 E.06034
G1 X116.915 Y60.034 E.07451
G1 X117.497 Y62.113 E.06769
G1 X117.868 Y64.181 E.06588
G1 X118.079 Y66.621 E.07679
G1 X118.072 Y68.889 E.07111
G1 X117.87 Y71.138 E.0708
G1 X117.497 Y73.221 E.06635
G1 X116.93 Y75.258 E.0663
G1 X115.991 Y77.529 E.07705
G1 X114.882 Y79.373 E.06747
G1 X113.399 Y81.06 E.07043
G1 X111.687 Y82.301 E.0663
G1 X109.757 Y83.068 E.06512
G1 X44.571 Y97.474 E2.09318
G1 X42.538 Y97.318 E.06393
M73 P1 R48
M73 Q1 S48
G1 X30.96 Y92.806 E.38961
G1 X29.73 Y91.883 E.04822
G1 X28.846 Y90.617 E.04841
G1 X28.4 Y89.067 E.05057
G1 X28.41 Y87.406 E.05208
G1 X28.788 Y85.967 E.04665
G1 X29.567 Y84.728 E.04589
G1 X30.853 Y83.677 E.05207
G1 X31.526 Y83.368 E.02322
G1 X32.21 Y83.167 E.02235
G1 X33.52 Y83.076 E.04117
G1 X43.724 Y84.505 E.32306
G1 X106.675 Y71.273 E2.01692
M73 P1 R47
G1 X107.12 Y69.969 E.0432
G1 X107.358 Y68.156 E.05733
G1 X107.276 Y66.23 E.06044
G1 X107.12 Y65.365 E.02756
G1 X106.675 Y64.062 E.04317
G1 X43.722 Y50.829 E2.01698
G1 X33.177 Y52.266 E.33369
G1 X32.064 Y52.131 E.03515
G1 X31 Y51.734 E.03561
G1 X29.992 Y51.026 E.03862
G1 X29.227 Y50.181 E.03574
G1 X28.513 Y48.477 E.05793
G1 X28.425 Y48.106 E.01196
G1 X28.455 Y45.891 E.06946
G1 X28.795 Y44.825 E.03508
G1 X29.328 Y43.91 E.0332
G1 X30.386 Y42.898 E.0459
M204 S1000
G1 X30.386 Y42.898 F10800
G1 X30.645 Y43.172
M204 S800
G1 F1200
G1 X30.675 Y43.143 E.00131
G1 X42.602 Y38.386 E.40261
G1 X44.468 Y38.235 E.0587
G1 X109.645 Y52.628 E2.09281
G1 X111.337 Y53.27 E.05674
G1 X113.493 Y54.883 E.08442
G1 X114.717 Y56.38 E.06063
G1 X115.664 Y57.994 E.05867
G1 X116.562 Y60.167 E.07372
G1 X117.127 Y62.189 E.06583
G1 X117.493 Y64.223 E.0648
G1 X117.703 Y66.645 E.07623
G1 X117.695 Y68.879 E.07005
G1 X117.495 Y71.096 E.06979
G1 X117.127 Y73.146 E.0653
G1 X116.569 Y75.146 E.0651
G1 X115.66 Y77.347 E.07466
G1 X114.587 Y79.138 E.06546
G1 X113.16 Y80.768 E.06793
M73 Q1 S47
G1 X111.525 Y81.96 E.06344
G1 X109.661 Y82.703 E.06292
G1 X44.517 Y97.1 E2.09183
G1 X42.649 Y96.957 E.05874
G1 X31.166 Y92.489 E.38634
G1 X29.981 Y91.601 E.04643
G1 X29.175 Y90.43 E.04457
G1 X28.77 Y88.992 E.04684
G1 X28.787 Y87.433 E.04888
G1 X29.123 Y86.143 E.0418
G1 X29.869 Y84.955 E.04398
G1 X31.07 Y83.986 E.04838
G1 X32.258 Y83.542 E.03977
G1 X33.488 Y83.453 E.03867
G1 X43.737 Y84.888 E.32448
G1 X106.906 Y71.609 E2.02391
G1 X107.271 Y70.816 E.02737
G1 X107.488 Y70.054 E.02484
G1 X107.735 Y68.172 E.05951
G1 X107.65 Y66.18 E.06251
G1 X107.271 Y64.518 E.05345
G1 X106.906 Y63.725 E.02737
G1 X43.736 Y50.446 E2.02394
G1 X33.196 Y51.889 E.33356
G1 X32.175 Y51.77 E.03223
M73 P2 R47
M73 Q2 S47
G1 X31.156 Y51.389 E.03411
G1 X30.228 Y50.731 E.03567
G1 X29.53 Y49.954 E.03275
G1 X28.798 Y48.044 E.06413
G1 X28.832 Y45.926 E.06642
G1 X29.147 Y44.962 E.0318
G1 X29.64 Y44.124 E.03048
G1 X30.602 Y43.213 E.04154
M204 S1000
G1 X30.602 Y43.213 F10800
G1 X30.869 Y43.509
M204 S800
G1 F1200
G1 X31.036 Y43.358 E.00706
G1 X42.714 Y38.747 E.39366
G1 X44.414 Y38.609 E.05348
G1 X109.551 Y52.993 E2.09153
G1 X111.133 Y53.588 E.05299
G1 X113.248 Y55.171 E.08283
G1 X114.4 Y56.583 E.05714
G1 X115.32 Y58.15 E.05697
G1 X116.209 Y60.301 E.07298
G1 X116.758 Y62.264 E.06391
G1 X117.118 Y64.264 E.06372
G1 X117.326 Y66.652 E.07516
G1 X117.318 Y68.854 E.06904
G1 X117.12 Y71.054 E.06926
G1 X116.757 Y73.07 E.06423
G1 X116.209 Y75.033 E.0639
G1 X115.329 Y77.166 E.07235
G1 X114.291 Y78.903 E.06345
G1 X112.92 Y80.477 E.06545
G1 X111.362 Y81.619 E.06057
G1 X109.564 Y82.338 E.06072
G1 X44.463 Y96.725 E2.09045
G1 X42.759 Y96.595 E.05358
G1 X31.369 Y92.17 E.38313
G1 X30.273 Y91.36 E.04273
G1 X29.504 Y90.243 E.04252
G1 X29.141 Y88.919 E.04305
G1 X29.163 Y87.463 E.04566
G1 X29.48 Y86.268 E.03876
G1 X30.17 Y85.184 E.04029
G1 X31.247 Y84.32 E.04329
G1 X32.346 Y83.909 E.03679
G1 X33.455 Y83.829 E.03486
G1 X43.75 Y85.271 E.32594
G1 X107.147 Y71.944 E2.03121
G1 X107.628 Y70.94 E.03491
G1 X107.856 Y70.139 E.02611
G1 X108.112 Y68.188 E.0617
G1 X108.112 Y67.146 E.03267
G1 X107.856 Y65.195 E.0617
G1 X107.628 Y64.394 E.02611
G1 X107.147 Y63.39 E.03491
G1 X43.75 Y50.064 E2.03121
G1 X33.214 Y51.512 E.33345
G1 X32.282 Y51.408 E.0294
G1 X31.353 Y51.067 E.03103
G1 X30.463 Y50.436 E.03421
G1 X29.834 Y49.728 E.02969
G1 X29.171 Y47.985 E.05847
G1 X29.208 Y45.963 E.06341
G1 X29.498 Y45.102 E.02849
G1 X29.95 Y44.34 E.02778
G1 X30.825 Y43.549 E.03698
M204 S1000
G1 X30.825 Y43.549 F10800
G1 X31.066 Y43.809
M204 S800
G1 F1200
G1 X31.162 Y43.72 E.0041
G1 X42.827 Y39.108 E.3933
G1 X44.36 Y38.983 E.04823
G1 X109.456 Y53.359 E2.09022
G1 X110.975 Y53.932 E.0509
G1 X112.971 Y55.428 E.07821
G1 X114.082 Y56.787 E.05504
G1 X114.988 Y58.33 E.0561
G1 X115.849 Y60.413 E.07067
G1 X116.388 Y62.34 E.06274
G1 X116.745 Y64.322 E.06314
G1 X116.949 Y66.659 E.07355
G1 X116.942 Y68.828 E.06801
G1 X116.748 Y70.995 E.06822
G1 X116.392 Y72.978 E.06317
G1 X115.849 Y74.921 E.06326
G1 X114.998 Y76.985 E.07
G1 X113.995 Y78.669 E.06146
G1 X112.679 Y80.186 E.06297
G1 X111.199 Y81.278 E.05767
G1 X109.467 Y81.973 E.05851
G1 X44.409 Y96.351 E2.08907
G1 X42.87 Y96.234 E.04839
M73 P3 R47
G1 X31.57 Y91.851 E.38002
G1 X30.565 Y91.12 E.03897
M73 Q3 S47
G1 X29.833 Y90.055 E.04052
G1 X29.519 Y88.898 E.03759
G1 X29.54 Y87.492 E.04409
G1 X29.836 Y86.396 E.0356
G1 X30.47 Y85.415 E.03662
G1 X31.425 Y84.653 E.03831
G1 X32.434 Y84.276 E.03377
G1 X33.422 Y84.205 E.03106
G1 X43.763 Y85.653 E.3274
G1 X107.341 Y72.289 E2.03701
G1 X107.713 Y71.723 E.02124
M73 P3 R46
G1 X108.224 Y70.225 E.04963
G1 X108.489 Y68.205 E.06388
G1 X108.398 Y66.08 E.06669
G1 X107.985 Y64.27 E.05821
G1 X107.713 Y63.612 E.02232
G1 X107.341 Y63.046 E.02124
G1 X43.763 Y49.681 E2.03701
G1 X33.231 Y51.134 E.33335
G1 X32.387 Y51.045 E.02661
G1 X31.55 Y50.744 E.02789
G1 X30.7 Y50.142 E.03266
G1 X30.139 Y49.504 E.02664
G1 X29.544 Y47.929 E.05279
G1 X29.575 Y46.056 E.05873
G1 X29.848 Y45.242 E.02692
G1 X30.259 Y44.558 E.02502
G1 X31.022 Y43.85 E.03264
M204 S1000
G1 X31.276 Y44.127 F10800
M204 S800
G1 F1200
G1 X31.378 Y44.034 E.00433
G1 X42.939 Y39.469 E.38972
G1 X44.307 Y39.358 E.04303
G1 X109.361 Y53.724 E2.08887
G1 X110.816 Y54.275 E.04878
G1 X112.693 Y55.684 E.07359
G1 X113.78 Y57.014 E.05386
G1 X114.656 Y58.509 E.05433
G1 X115.489 Y60.526 E.06842
G1 X116.022 Y62.433 E.06208
G1 X116.373 Y64.381 E.06206
G1 X116.571 Y66.667 E.07194
G1 X116.566 Y68.803 E.06697
G1 X116.375 Y70.937 E.06718
G1 X116.022 Y72.902 E.0626
G1 X115.489 Y74.809 E.06208
G1 X114.666 Y76.805 E.06769
G1 X113.699 Y78.435 E.05942
G1 X112.438 Y79.895 E.06049
G1 X110.995 Y80.96 E.05623
G1 X109.371 Y81.608 E.05482
G1 X44.354 Y95.977 E2.08775
G1 X42.98 Y95.872 E.04321
M73 Q3 S46
G1 X31.73 Y91.508 E.37835
G1 X30.816 Y90.836 E.03557
G1 X30.163 Y89.871 E.03653
G1 X29.896 Y88.878 E.03224
G1 X29.917 Y87.522 E.04252
G1 X30.191 Y86.525 E.03242
G1 X30.767 Y85.648 E.0329
G1 X31.601 Y84.987 E.03337
G1 X32.521 Y84.644 E.03079
G1 X33.39 Y84.581 E.02732
G1 X43.776 Y86.036 E.32883
G1 X107.54 Y72.632 E2.04297
G1 X108.052 Y71.89 E.02827
G1 X108.342 Y71.188 E.02381
G1 X108.772 Y69.304 E.06059
G1 X108.867 Y68.221 E.03409
G1 X108.867 Y67.113 E.03474
G1 X108.592 Y65.025 E.06603
G1 X108.052 Y63.444 E.05238
G1 X107.54 Y62.702 E.02827
G1 X43.776 Y49.299 E2.04296
G1 X33.247 Y50.757 E.33328
G1 X32.451 Y50.672 E.0251
G1 X31.704 Y50.399 E.02494
G1 X30.938 Y49.849 E.02957
G1 X30.445 Y49.282 E.02356
G1 X29.918 Y47.877 E.04705
G1 X29.951 Y46.094 E.05591
G1 X30.197 Y45.386 E.0235
G1 X30.567 Y44.777 E.02234
G1 X31.232 Y44.168 E.02827
M204 S1000
G1 X31.232 Y44.168 F10800
G1 X31.484 Y44.446
M204 S800
G1 F1200
G1 X31.605 Y44.337 E.00511
G1 X43.051 Y39.83 E.3857
G1 X44.253 Y39.732 E.03781
M73 P4 R46
G1 X109.267 Y54.089 E2.08758
G1 X110.657 Y54.618 E.04663
M73 Q4 S46
G1 X112.416 Y55.94 E.06899
G1 X113.479 Y57.241 E.05268
G1 X114.324 Y58.688 E.05254
G1 X115.129 Y60.638 E.06615
G1 X115.653 Y62.509 E.06092
G1 X116 Y64.439 E.06148
G1 X116.194 Y66.674 E.07034
G1 X116.189 Y68.778 E.06597
G1 X116.002 Y70.879 E.06614
G1 X115.657 Y72.809 E.06147
G1 X115.129 Y74.697 E.06147
G1 X114.335 Y76.624 E.06535
G1 X113.402 Y78.202 E.05748
G1 X112.196 Y79.606 E.05803
G1 X110.832 Y80.619 E.05327
G1 X109.275 Y81.243 E.05259
G1 X44.3 Y95.603 E2.08641
G1 X43.091 Y95.511 E.03802
G1 X31.891 Y91.166 E.37667
G1 X31.068 Y90.554 E.03216
G1 X30.495 Y89.689 E.03253
G1 X30.273 Y88.858 E.02697
G1 X30.293 Y87.553 E.04092
G1 X30.546 Y86.657 E.02919
G1 X31.063 Y85.883 E.02918
G1 X31.779 Y85.32 E.02856
G1 X32.607 Y85.011 E.02771
G1 X33.357 Y84.957 E.02358
G1 X43.789 Y86.418 E.33028
G1 X107.64 Y72.996 E2.04576
G1 X108.08 Y72.591 E.01875
G1 X108.39 Y72.058 E.01933
G1 X108.959 Y70.395 E.05511
G1 X109.244 Y68.238 E.06822
G1 X109.146 Y65.981 E.07083
G1 X108.959 Y64.94 E.03316
G1 X108.39 Y63.276 E.05514
G1 X108.08 Y62.744 E.01931
G1 X107.64 Y62.338 E.01877
G1 X43.789 Y48.916 E2.04576
G1 X33.262 Y50.379 E.33324
G1 X32.554 Y50.309 E.02231
G1 X31.902 Y50.077 E.0217
G1 X31.177 Y49.556 E.02799
G1 X30.753 Y49.063 E.02039
G1 X30.293 Y47.834 E.04115
G1 X30.328 Y46.134 E.05331
G1 X30.545 Y45.534 E.02001
G1 X30.873 Y44.998 E.0197
G1 X31.439 Y44.486 E.02393
M204 S1000
G1 X31.439 Y44.486 F10800
G1 X31.688 Y44.767
M204 S800
G1 F1200
G1 X31.83 Y44.641 E.00595
G1 X43.163 Y40.191 E.38175
G1 X44.199 Y40.106 E.03259
G1 X109.172 Y54.454 E2.08626
G1 X110.498 Y54.961 E.04451
G1 X112.138 Y56.196 E.06437
G1 X113.161 Y57.444 E.0506
G1 X113.992 Y58.867 E.05167
G1 X114.769 Y60.751 E.0639
G1 X115.287 Y62.602 E.06027
G1 X115.627 Y64.497 E.06037
G1 X115.817 Y66.682 E.06877
G1 X115.813 Y68.752 E.0649
G1 X115.63 Y70.821 E.06513
G1 X115.287 Y72.734 E.06094
G1 X114.769 Y74.584 E.06024
G1 X114.003 Y76.445 E.0631
G1 X113.105 Y77.97 E.05549
G1 X111.952 Y79.317 E.05559
G1 X110.668 Y80.279 E.0503
G1 X109.178 Y80.879 E.05036
G1 X44.246 Y95.229 E2.08502
G1 X43.201 Y95.149 E.03286
G1 X32.052 Y90.824 E.37495
G1 X31.321 Y90.273 E.0287
G1 X30.85 Y89.56 E.02679
G1 X30.651 Y88.836 E.02354
G1 X30.67 Y87.583 E.03929
G1 X30.876 Y86.842 E.02411
G1 X31.36 Y86.119 E.02728
G1 X31.956 Y85.654 E.0237
G1 X32.693 Y85.379 E.02466
G1 X33.325 Y85.334 E.01987
G1 X43.802 Y86.801 E.3317
G1 X107.735 Y73.362 E2.04838
G1 X108.095 Y73.158 E.01297
M73 P5 R46
M73 Q5 S46
G1 X108.389 Y72.809 E.01431
G1 X108.729 Y72.226 E.02116
G1 X109.055 Y71.436 E.0268
G1 X109.327 Y70.48 E.03116
G1 X109.521 Y69.403 E.03431
G1 X109.621 Y68.254 E.03616
G1 X109.621 Y67.08 E.03681
G1 X109.521 Y65.931 E.03616
G1 X109.327 Y64.854 E.03431
G1 X109.055 Y63.898 E.03116
G1 X108.729 Y63.109 E.02677
G1 X108.389 Y62.526 E.02116
G1 X108.095 Y62.176 E.01433
G1 X107.735 Y61.973 E.01296
G1 X43.802 Y48.533 E2.04839
G1 X33.274 Y50.002 E.3333
M73 P5 R45
G1 X32.657 Y49.946 E.01943
G1 X32.055 Y49.731 E.02004
G1 X31.419 Y49.266 E.0247
G1 X31.063 Y48.845 E.01729
G1 X30.67 Y47.786 E.03542
G1 X30.694 Y46.23 E.04879
G1 X30.877 Y45.714 E.01717
G1 X31.18 Y45.219 E.0182
G1 X31.644 Y44.806 E.01948
M204 S1000
G1 X31.644 Y44.806 F10800
G1 X31.89 Y45.088
M204 S800
G1 F1200
G1 X32.053 Y44.947 E.00676
G1 X43.275 Y40.552 E.37788
G1 X44.145 Y40.481 E.02737
G1 X109.076 Y54.82 E2.08492
G1 X110.338 Y55.303 E.04237
G1 X111.861 Y56.453 E.05984
G1 X112.86 Y57.672 E.04942
G1 X113.66 Y59.046 E.04985
G1 X114.409 Y60.863 E.06162
G1 X114.922 Y62.695 E.05965
G1 X115.255 Y64.555 E.05925
G1 X115.44 Y66.69 E.06719
G1 X115.437 Y68.728 E.0639
G1 X115.257 Y70.763 E.06406
G1 X114.918 Y72.658 E.06036
G1 X114.409 Y74.472 E.05907
G1 X113.671 Y76.265 E.06079
G1 X112.807 Y77.739 E.05357
G1 X111.708 Y79.029 E.05314
G1 X110.503 Y79.939 E.04735
G1 X109.081 Y80.514 E.04809
G1 X44.191 Y94.855 E2.08368
G1 X43.312 Y94.787 E.02764
G1 X32.212 Y90.482 E.37329
G1 X31.615 Y90.034 E.0234
G1 X31.203 Y89.426 E.02303
G1 X31.028 Y88.813 E.01999
G1 X31.047 Y87.612 E.03766
G1 X31.208 Y87.022 E.01918
G1 X31.619 Y86.395 E.02351
G1 X32.136 Y85.986 E.02067
G1 X32.779 Y85.747 E.02151
G1 X33.292 Y85.71 E.01613
G1 X43.815 Y87.184 E.33316
G1 X107.842 Y73.725 E2.0514
G1 X108.356 Y73.433 E.01854
M73 Q5 S45
G1 X108.698 Y73.027 E.01664
G1 X109.068 Y72.394 E.02299
G1 X109.412 Y71.56 E.02829
G1 X109.695 Y70.565 E.03243
G1 X109.895 Y69.453 E.03543
G1 X109.998 Y68.27 E.03723
G1 X109.998 Y67.064 E.03781
G1 X109.895 Y65.881 E.03723
G1 X109.695 Y64.769 E.03543
G1 X109.412 Y63.775 E.0324
G1 X109.068 Y62.941 E.02829
G1 X108.698 Y62.308 E.02299
G1 X108.356 Y61.901 E.01667
G1 X107.842 Y61.61 E.01852
G1 X43.815 Y48.151 E2.0514
G1 X33.283 Y49.625 E.33344
G1 X32.755 Y49.581 E.01661
G1 X32.254 Y49.409 E.01661
G1 X31.661 Y48.976 E.02302
G1 X31.373 Y48.63 E.01412
G1 X31.047 Y47.754 E.02931
G1 X31.06 Y46.326 E.04478
G1 X31.225 Y45.86 E.0155
G1 X31.484 Y45.443 E.01539
G1 X31.845 Y45.128 E.01502
M204 S1000
G1 X32.088 Y45.412 F10800
M204 S800
G1 F1200
G1 X32.273 Y45.254 E.00763
G1 X43.387 Y40.913 E.37411
G1 X44.092 Y40.855 E.02218
G1 X108.981 Y55.185 E2.08357
G1 X110.177 Y55.645 E.04018
M73 P6 R45
M73 Q6 S45
G1 X111.583 Y56.709 E.05528
G1 X112.558 Y57.899 E.04824
