; generated by PrusaSlicer 2.9.0 on 2025-01-02 at 17:10:13 UTC


;
;
; 

; external perimeters extrusion width = 0.45mm
; perimeters extrusion width = 0.45mm
; infill extrusion width = 0.45mm
; solid infill extrusion width = 0.45mm
; top infill extrusion width = 0.40mm
; first layer extrusion width = 0.42mm

M73 P0 R48
M73 Q0 S49
M201 X1000 Y1000 Z200 E8000 ; sets maximum accelerations, mm/sec^2
M203 X200 Y200 Z12 E120 ; sets maximum feedrates, mm / sec
M204 S1250 T1250 ; sets acceleration (S) and retract acceleration (R), mm/sec^2
M205 X8.00 Y8.00 Z0.40 E4.50 ; sets the jerk limits, mm/sec
M205 S0 T0 ; sets the minimum extruding and travel feed rate, mm/sec

; printing object tweezers.STL id:0 copy 0
; stop printing object tweezers.STL id:0 copy 0

;TYPE:Custom
M862.3 P "MK3SMMU3" ; printer model check
M862.1 P0.4 ; nozzle diameter check
M115 U3.14.1 ; tell printer latest fw version
G90 ; use absolute coordinates
M83 ; extruder relative mode
M104 S215 ; set extruder temp
M140 S60 ; set bed temp
M190 S60 ; wait for bed temp
M109 S215 ; wait for extruder temp
G28 W ; home all without mesh bed level
G80 X133.367 Y116.398 W95.0826 H65.0769 ; mesh bed levelling

; Send the filament type to the MMU unit.
; E stands for extruder number, F stands for filament type (0: default; 1:flex; 2: PVA)
M403 E0 F0
M403 E1 F0
M403 E2 F0
M403 E3 F0
M403 E4 F0


;go outside print area
G1 Y-3 F1000
G1 Z0.4 F1000
; select extruder
T0
; initial load
G1 X55 E29 F1073
G1 X5 E29 F1800
G1 X55 E8 F2000
M73 Q0 S48
G1 Z0.3 F1000
G92 E0
G1 X240 E25 F2200
G1 Y-2 F1000
G1 X55 E25 F1400
G1 Z0.2 F1000
G1 X5 E4 F1000
G92 E0


M221 S95
G92 E0

; Don't change E values below. Excessive value can damage the printer.
M907 E430 ; set extruder motor current
G21 ; set units to millimeters
G90 ; use absolute coordinates
M83 ; use relative distances for extrusion

M900 K0.05 ; Filament gcode LA 1.5
M900 K30 ; Filament gcode LA 1.0




M107
;LAYER_CHANGE
;Z:0.2
;HEIGHT:0.2
G1 E-.8 F2100
G1 Z.6 F720
G1 X135.707 Y122.706 F10800
G1 Z.2 F720
G1 E.8 F2100
M204 S800
;TYPE:Skirt/Brim
;WIDTH:0.42
G1 F1200
G1 X136.741 Y121.87 E.04169
G1 X149.669 Y116.844 E.4349
G1 X150.295 Y116.702 E.02013
G1 X151.801 Y116.586 E.04736
G1 X152.441 Y116.632 E.02012
G1 X218.011 Y131.123 E2.10551
G1 X220.144 Y131.904 E.07122
G1 X221.037 Y132.388 E.03185
G1 X222.635 Y133.593 E.06275
G1 X223.381 Y134.31 E.03244
G1 X224.846 Y136.134 E.07335
G1 X225.841 Y137.835 E.06179
G1 X227.012 Y140.652 E.09565
G1 X227.629 Y142.886 E.07267
G1 X228.023 Y145.087 E.07011
M73 Q1 S48
G1 X228.25 Y147.576 E.07836
M73 P1 R48
G1 X228.259 Y150.077 E.07842
G1 X228.053 Y152.558 E.07806
G1 X227.65 Y154.882 E.07395
G1 X226.836 Y157.73 E.09287
G1 X226.065 Y159.596 E.0633
G1 X224.946 Y161.583 E.0715
G1 X224.484 Y162.243 E.02526
G1 X223.218 Y163.738 E.06142
G1 X222.635 Y164.281 E.02498
G1 X221.291 Y165.317 E.05321
G1 X220.144 Y165.97 E.04138
G1 X218.181 Y166.706 E.06573
G1 X152.441 Y181.242 E2.11102
G1 X151.801 Y181.287 E.02012
G1 X150.295 Y181.172 E.04736
G1 X149.669 Y181.029 E.02013
G1 X136.741 Y176.003 E.4349
G1 X135.707 Y175.168 E.04167
G1 X133.917 Y172.451 E.10202
G1 X133.556 Y171.247 E.03941
G1 X133.556 Y126.627 E1.39903
G1 X133.917 Y125.423 E.03941
G1 X135.674 Y122.756 E.10014
M204 S1000
;WIPE_START
G1 F8640
G1 X135.707 Y122.706 E-.01383
G1 X136.741 Y121.87 E-.30703
G1 X138.675 Y121.118 E-.47914
;WIPE_END
G1 Z.6 F720
G1 X137.534 Y124.702 F10800
G1 Z.2 F720
G1 E.8 F2100
M204 S800
G1 F1200
G1 X138.136 Y124.126 E.02612
G1 X138.434 Y123.939 E.01103
G1 X150.196 Y119.295 E.39649
G1 X152.228 Y119.13 E.06392
G1 X217.446 Y133.533 E2.09414
G1 X219.248 Y134.222 E.06049
G1 X221.444 Y135.865 E.08599
G1 X222.742 Y137.446 E.06414
G1 X223.714 Y139.108 E.06037
G1 X224.621 Y141.303 E.07447
G1 X225.203 Y143.383 E.06772
G1 X225.575 Y145.451 E.06588
G1 X225.786 Y147.891 E.07679
G1 X225.778 Y150.159 E.07111
G1 X225.576 Y152.408 E.0708
G1 X225.203 Y154.491 E.06635
G1 X224.636 Y156.527 E.06627
G1 X223.697 Y158.799 E.07708
G1 X222.589 Y160.643 E.06745
G1 X221.106 Y162.33 E.07043
G1 X219.393 Y163.571 E.06632
G1 X217.463 Y164.337 E.06511
G1 X152.278 Y178.744 E2.09315
G1 X150.245 Y178.588 E.06393
G1 X138.667 Y174.076 E.38961
G1 X137.436 Y173.153 E.04824
G1 X136.553 Y171.887 E.0484
G1 X136.106 Y170.337 E.05058
G1 X136.117 Y168.675 E.05211
G1 X136.495 Y167.236 E.04665
G1 X137.274 Y165.997 E.04589
G1 X138.56 Y164.947 E.05205
G1 X139.233 Y164.638 E.02322
G1 X139.916 Y164.437 E.02232
G1 X141.227 Y164.346 E.0412
G1 X151.431 Y165.775 E.32306
G1 X214.382 Y152.542 E2.01692
G1 X214.827 Y151.239 E.04317
M73 P1 R47
G1 X215.065 Y149.425 E.05736
G1 X214.982 Y147.5 E.06041
G1 X214.827 Y146.635 E.02755
G1 X214.382 Y145.331 E.0432
G1 X151.429 Y132.098 E2.01698
G1 X140.883 Y133.536 E.33372
G1 X139.771 Y133.401 E.03512
G1 X138.707 Y133.003 E.03562
G1 X137.698 Y132.296 E.03863
G1 X136.934 Y131.451 E.03572
G1 X136.219 Y129.747 E.05794
G1 X136.132 Y129.375 E.01198
G1 X136.162 Y127.161 E.06942
G1 X136.502 Y126.095 E.03508
G1 X137.035 Y125.179 E.03323
G1 X137.491 Y124.743 E.01978
M204 S1000
G1 X137.491 Y124.743 F10800
G1 X137.747 Y125.014
M204 S800
G1 F1200
G1 X138.382 Y124.413 E.02741
G1 X150.308 Y119.655 E.40259
G1 X152.175 Y119.504 E.05873
G1 X217.352 Y133.898 E2.09282
G1 X219.044 Y134.54 E.05674
M73 P2 R47
M73 Q2 S48
G1 X221.2 Y136.153 E.08442
G1 X222.424 Y137.65 E.06063
G1 X223.37 Y139.264 E.05866
G1 X224.269 Y141.437 E.07373
G1 X224.834 Y143.458 E.0658
G1 X225.2 Y145.492 E.0648
G1 X225.409 Y147.915 E.07625
G1 X225.401 Y150.149 E.07005
G1 X225.202 Y152.366 E.06979
G1 X224.834 Y154.416 E.0653
G1 X224.276 Y156.415 E.06507
G1 X223.366 Y158.617 E.07471
G1 X222.294 Y160.408 E.06545
G1 X220.866 Y162.038 E.06795
G1 X219.231 Y163.23 E.06344
G1 X217.367 Y163.973 E.06292
G1 X152.224 Y178.369 E2.09179
G1 X150.355 Y178.227 E.05877
M73 Q2 S47
G1 X138.872 Y173.758 E.38635
G1 X137.687 Y172.87 E.04643
G1 X136.882 Y171.7 E.04453
G1 X136.477 Y170.261 E.04687
G1 X136.494 Y168.703 E.04885
G1 X136.83 Y167.412 E.04183
G1 X137.576 Y166.225 E.04396
G1 X138.777 Y165.256 E.04838
G1 X139.965 Y164.811 E.03978
G1 X141.194 Y164.722 E.03864
G1 X151.444 Y166.158 E.32452
G1 X214.613 Y152.879 E2.02391
G1 X214.978 Y152.086 E.02737
G1 X215.195 Y151.324 E.02484
G1 X215.442 Y149.442 E.05951
G1 X215.356 Y147.45 E.06252
G1 X214.978 Y145.788 E.05344
G1 X214.613 Y144.995 E.02737
G1 X151.443 Y131.716 E2.02394
G1 X140.903 Y133.159 E.33356
G1 X139.881 Y133.039 E.03226
G1 X138.862 Y132.659 E.0341
G1 X137.934 Y132.001 E.03567
G1 X137.236 Y131.224 E.03275
G1 X136.504 Y129.314 E.06413
G1 X136.538 Y127.196 E.06642
G1 X136.854 Y126.232 E.03181
G1 X137.346 Y125.394 E.03047
G1 X137.704 Y125.055 E.01546
M204 S1000
G1 X137.704 Y125.055 F10800
G1 X137.958 Y125.337
M204 S800
G1 F1200
G1 X138.743 Y124.628 E.03317
G1 X150.421 Y120.016 E.39368
G1 X152.121 Y119.879 E.05348
G1 X217.257 Y134.263 E2.0915
G1 X218.839 Y134.858 E.05299
G1 X220.955 Y136.441 E.08286
G1 X222.106 Y137.853 E.05712
G1 X223.027 Y139.42 E.05699
G1 X223.916 Y141.571 E.07298
G1 X224.464 Y143.534 E.0639
G1 X224.825 Y145.534 E.06372
G1 X225.032 Y147.922 E.07515
G1 X225.025 Y150.123 E.06901
G1 X224.827 Y152.324 E.06929
G1 X224.464 Y154.34 E.06423
G1 X223.916 Y156.303 E.0639
G1 X223.036 Y158.436 E.07235
G1 X221.998 Y160.173 E.06345
G1 X220.626 Y161.747 E.06547
G1 X219.069 Y162.889 E.06054
G1 X217.271 Y163.608 E.06072
G1 X152.169 Y177.995 E2.09048
G1 X150.466 Y177.865 E.05355
G1 X139.076 Y173.44 E.38313
G1 X137.98 Y172.63 E.04273
G1 X137.21 Y171.512 E.04256
G1 X136.848 Y170.189 E.04301
G1 X136.87 Y168.732 E.04569
G1 X137.187 Y167.538 E.03873
G1 X137.877 Y166.454 E.04029
G1 X138.954 Y165.59 E.04329
G1 X140.053 Y165.179 E.03679
G1 X141.162 Y165.099 E.03486
G1 X151.457 Y166.54 E.32594
G1 X214.854 Y153.214 E2.03121
G1 X215.335 Y152.21 E.03491
M73 P3 R47
M73 Q3 S47
G1 X215.562 Y151.409 E.0261
G1 X215.819 Y149.458 E.0617
G1 X215.819 Y148.416 E.03267
G1 X215.562 Y146.465 E.0617
G1 X215.335 Y145.664 E.0261
G1 X214.854 Y144.66 E.03491
G1 X151.456 Y131.333 E2.03124
G1 X140.921 Y132.781 E.33342
G1 X139.989 Y132.677 E.0294
G1 X139.06 Y132.337 E.03102
G1 X138.17 Y131.706 E.03421
G1 X137.54 Y130.998 E.02971
G1 X136.877 Y129.255 E.05847
G1 X136.915 Y127.233 E.06341
G1 X137.204 Y126.372 E.02848
G1 X137.656 Y125.61 E.02778
G1 X137.914 Y125.377 E.0109
M204 S1000
G1 X137.914 Y125.377 F10800
G1 X138.162 Y125.645
M204 S800
G1 F1200
G1 X138.868 Y124.99 E.0302
G1 X150.533 Y120.377 E.39331
G1 X152.067 Y120.253 E.04825
G1 X217.163 Y134.628 E2.09021
G1 X218.681 Y135.201 E.05087
G1 X220.678 Y136.697 E.07824
G1 X221.788 Y138.057 E.05504
G1 X222.695 Y139.6 E.05612
G1 X223.556 Y141.683 E.07067
G1 X224.095 Y143.61 E.06274
G1 X224.452 Y145.592 E.06314
G1 X224.655 Y147.929 E.07355
G1 X224.648 Y150.098 E.06801
G1 X224.454 Y152.265 E.06822
G1 X224.098 Y154.247 E.06314
G1 X223.556 Y156.191 E.06328
G1 X222.704 Y158.255 E.07001
G1 X221.702 Y159.939 E.06144
G1 X220.385 Y161.456 E.06299
G1 X218.906 Y162.548 E.05764
G1 X217.174 Y163.243 E.05851
G1 X152.115 Y177.621 E2.0891
G1 X150.576 Y177.503 E.0484
G1 X139.277 Y173.12 E.37999
G1 X138.272 Y172.389 E.03897
G1 X137.539 Y171.325 E.04051
G1 X137.225 Y170.168 E.03759
G1 X137.247 Y168.762 E.04409
G1 X137.543 Y167.665 E.03563
G1 X138.176 Y166.685 E.03658
G1 X139.131 Y165.923 E.03831
G1 X140.14 Y165.546 E.03377
G1 X141.129 Y165.475 E.03109
G1 X151.47 Y166.923 E.3274
G1 X215.047 Y153.558 E2.03698
G1 X215.42 Y152.992 E.02125
G1 X215.93 Y151.494 E.04962
G1 X216.196 Y149.475 E.06385
G1 X216.105 Y147.35 E.06669
G1 X215.691 Y145.54 E.05822
G1 X215.42 Y144.881 E.02234
M73 P3 R46
G1 X215.047 Y144.315 E.02125
G1 X151.469 Y130.951 E2.03701
G1 X140.937 Y132.404 E.33335
G1 X140.094 Y132.315 E.02658
G1 X139.256 Y132.014 E.02792
G1 X138.406 Y131.411 E.03268
G1 X137.845 Y130.774 E.02661
G1 X137.251 Y129.199 E.05278
G1 X137.282 Y127.325 E.05877
G1 X137.555 Y126.512 E.02689
G1 X137.965 Y125.827 E.02503
G1 X138.118 Y125.686 E.00652
M204 S1000
G1 X138.369 Y125.959 F10800
M204 S800
G1 F1200
G1 X139.084 Y125.304 E.0304
G1 X150.646 Y120.738 E.38976
G1 X152.013 Y120.627 E.043
G1 X217.068 Y134.994 E2.0889
G1 X218.523 Y135.545 E.04878
M73 P4 R46
M73 Q4 S47
G1 X220.4 Y136.953 E.07357
G1 X221.487 Y138.284 E.05388
G1 X222.363 Y139.779 E.05433
G1 X223.196 Y141.795 E.06839
G1 X223.729 Y143.703 E.06211
G1 X224.079 Y145.65 E.06203
G1 X224.278 Y147.937 E.07198
G1 X224.272 Y150.073 E.06697
G1 X224.082 Y152.207 E.06717
G1 X223.729 Y154.172 E.0626
G1 X223.196 Y156.079 E.06208
G1 X222.373 Y158.074 E.06767
G1 X221.406 Y159.705 E.05945
G1 X220.144 Y161.165 E.06051
G1 X218.701 Y162.23 E.05623
G1 X217.078 Y162.878 E.05479
G1 X152.061 Y177.247 E2.08775
G1 X150.687 Y177.142 E.04321
G1 X139.437 Y172.778 E.37835
G1 X138.522 Y172.105 E.03561
M73 Q4 S46
G1 X137.87 Y171.141 E.03649
G1 X137.603 Y170.148 E.03224
G1 X137.623 Y168.792 E.04252
G1 X137.898 Y167.795 E.03243
G1 X138.474 Y166.918 E.0329
G1 X139.308 Y166.257 E.03337
G1 X140.227 Y165.913 E.03077
G1 X141.096 Y165.851 E.02732
G1 X151.483 Y167.306 E.32886
G1 X215.246 Y153.902 E2.04294
G1 X215.758 Y153.16 E.02827
G1 X216.048 Y152.458 E.02381
G1 X216.479 Y150.574 E.0606
G1 X216.573 Y149.491 E.03408
G1 X216.573 Y148.383 E.03474
G1 X216.298 Y146.294 E.06606
G1 X215.758 Y144.714 E.05235
G1 X215.246 Y143.972 E.02827
G1 X151.483 Y130.568 E2.04294
G1 X140.954 Y132.027 E.33328
G1 X140.157 Y131.942 E.02513
G1 X139.411 Y131.669 E.02491
G1 X138.645 Y131.119 E.02957
G1 X138.152 Y130.552 E.02356
G1 X137.624 Y129.147 E.04706
G1 X137.658 Y127.363 E.05595
G1 X137.904 Y126.656 E.02347
G1 X138.273 Y126.047 E.02233
G1 X138.324 Y126 E.00217
M204 S1000
G1 X138.324 Y126 F10800
G1 X138.58 Y126.268
M204 S800
G1 F1200
G1 X139.311 Y125.606 E.03092
G1 X150.758 Y121.099 E.38573
G1 X151.959 Y121.002 E.03778
G1 X216.973 Y135.359 E2.08758
G1 X218.364 Y135.888 E.04666
G1 X220.122 Y137.21 E.06897
G1 X221.186 Y138.511 E.0527
G1 X222.031 Y139.958 E.05254
G1 X222.836 Y141.908 E.06615
G1 X223.36 Y143.778 E.06089
G1 X223.707 Y145.709 E.06151
G1 X223.901 Y147.944 E.07034
G1 X223.896 Y150.047 E.06594
G1 X223.709 Y152.149 E.06617
G1 X223.363 Y154.079 E.06148
G1 X222.835 Y155.966 E.06144
G1 X222.042 Y157.894 E.06536
G1 X221.109 Y159.472 E.05748
G1 X219.902 Y160.875 E.05803
G1 X218.538 Y161.889 E.05329
G1 X216.981 Y162.513 E.05259
G1 X152.007 Y176.873 E2.08638
G1 X150.797 Y176.78 E.03805
G1 X139.598 Y172.436 E.37663
G1 X138.774 Y171.823 E.0322
G1 X138.201 Y170.959 E.03251
G1 X137.98 Y170.128 E.02696
G1 X138 Y168.823 E.04092
G1 X138.252 Y167.927 E.02918
G1 X138.77 Y167.153 E.0292
G1 X139.486 Y166.59 E.02856
G1 X140.314 Y166.281 E.02771
G1 X141.064 Y166.227 E.02358
G1 X151.496 Y167.688 E.33028
G1 X215.347 Y154.266 E2.04576
G1 X215.786 Y153.86 E.01875
M73 P5 R46
G1 X216.097 Y153.328 E.01932
M73 Q5 S46
G1 X216.666 Y151.665 E.05511
G1 X216.95 Y149.507 E.06825
G1 X216.853 Y147.251 E.0708
G1 X216.666 Y146.209 E.03319
G1 X216.097 Y144.546 E.05511
G1 X215.786 Y144.014 E.01932
G1 X215.347 Y143.608 E.01875
G1 X151.496 Y130.186 E2.04576
G1 X140.968 Y131.649 E.33327
G1 X140.261 Y131.579 E.02228
G1 X139.609 Y131.347 E.0217
G1 X138.884 Y130.826 E.02799
G1 X138.46 Y130.332 E.02041
G1 X137.999 Y129.103 E.04116
G1 X138.034 Y127.403 E.05331
G1 X138.251 Y126.804 E.01998
G1 X138.549 Y126.319 E.01785
M204 S1000
G1 X138.549 Y126.319 F10800
G1 X138.87 Y126.516
M204 S800
G1 F1200
G1 X138.887 Y126.489 E.001
G1 X139.536 Y125.911 E.02725
G1 X150.87 Y121.461 E.38178
G1 X151.906 Y121.376 E.03259
G1 X216.878 Y135.724 E2.08623
G1 X218.204 Y136.23 E.0445
G1 X219.845 Y137.466 E.06441
G1 X220.868 Y138.714 E.0506
G1 X221.699 Y140.137 E.05167
G1 X222.475 Y142.02 E.06386
G1 X222.994 Y143.871 E.06028
G1 X223.334 Y145.767 E.0604
G1 X223.524 Y147.952 E.06877
G1 X223.52 Y150.022 E.0649
G1 X223.336 Y152.09 E.0651
G1 X222.994 Y154.004 E.06096
G1 X222.475 Y155.854 E.06024
G1 X221.71 Y157.714 E.06306
G1 X220.811 Y159.24 E.05553
G1 X219.659 Y160.586 E.05555
G1 X218.374 Y161.549 E.05035
G1 X216.885 Y162.148 E.05032
G1 X151.952 Y176.498 E2.08505
G1 X150.908 Y176.419 E.03283
G1 X139.759 Y172.094 E.37495
G1 X139.028 Y171.542 E.02872
G1 X138.556 Y170.83 E.02678
G1 X138.357 Y170.106 E.02354
G1 X138.377 Y168.852 E.03932
G1 X138.582 Y168.112 E.02408
G1 X139.066 Y167.388 E.02731
G1 X139.663 Y166.924 E.02371
G1 X140.399 Y166.649 E.02464
G1 X141.031 Y166.603 E.01987
G1 X151.509 Y168.071 E.33174
G1 X215.441 Y154.632 E2.04835
G1 X215.801 Y154.428 E.01297
G1 X216.096 Y154.078 E.01435
G1 X216.436 Y153.496 E.02113
G1 X216.762 Y152.706 E.0268
G1 X217.034 Y151.75 E.03116
G1 X217.227 Y150.673 E.03431
G1 X217.327 Y149.524 E.03616
G1 X217.327 Y148.35 E.03681
G1 X217.227 Y147.201 E.03616
G1 X217.034 Y146.124 E.03431
G1 X216.762 Y145.168 E.03116
G1 X216.436 Y144.378 E.0268
G1 X216.096 Y143.795 E.02116
G1 X215.801 Y143.446 E.01433
G1 X215.441 Y143.242 E.01297
G1 X151.509 Y129.803 E2.04835
G1 X140.98 Y131.272 E.33333
G1 X140.364 Y131.215 E.0194
G1 X139.762 Y131.001 E.02003
M73 P5 R45
G1 X139.125 Y130.536 E.02473
G1 X138.769 Y130.115 E.01729
G1 X138.377 Y129.056 E.03541
G1 X138.4 Y127.5 E.04879
G1 X138.583 Y126.984 E.01717
G1 X138.839 Y126.567 E.01534
M204 S1000
G1 X138.839 Y126.567 F10800
G1 X139.158 Y126.766
M204 S800
G1 F1200
G1 X139.191 Y126.713 E.00196
G1 X139.759 Y126.216 E.02366
G1 X150.982 Y121.822 E.3779
G1 X151.852 Y121.75 E.02737
G1 X216.783 Y136.089 E2.08492
G1 X218.044 Y136.573 E.04235
G1 X219.568 Y137.722 E.05984
G1 X220.566 Y138.941 E.0494
G1 X221.366 Y140.315 E.04985
G1 X222.115 Y142.133 E.06165
G1 X222.628 Y143.964 E.05962
G1 X222.961 Y145.825 E.05928
G1 X223.147 Y147.959 E.06716
G1 X223.143 Y149.997 E.0639
G1 X222.964 Y152.032 E.06405
G1 X222.624 Y153.928 E.0604
G1 X222.115 Y155.741 E.05904
G1 X221.378 Y157.535 E.06081
G1 X220.513 Y159.008 E.05356
G1 X219.415 Y160.298 E.05311
G1 X218.209 Y161.209 E.04739
G1 X216.788 Y161.784 E.04806
G1 X151.898 Y176.124 E2.08367
G1 X151.018 Y176.057 E.02767
M73 P6 R45
M73 Q6 S46
G1 X139.919 Y171.752 E.37326
G1 X139.321 Y171.304 E.02343
G1 X138.91 Y170.696 E.02301
G1 X138.735 Y170.083 E.01999
G1 X138.753 Y168.882 E.03766
G1 X138.915 Y168.292 E.01918
G1 X139.325 Y167.664 E.02352
