; generated by PrusaSlicer 2.9.0 on 2025-01-02 at 17:08:46 UTC


;
;
; 

; external perimeters extrusion width = 0.45mm
; perimeters extrusion width = 0.45mm
; infill extrusion width = 0.45mm
; solid infill extrusion width = 0.45mm
; top infill extrusion width = 0.40mm
; first layer extrusion width = 0.42mm

M73 P0 R48
M73 Q0 S49
M201 X1000 Y1000 Z200 E8000 ; sets maximum accelerations, mm/sec^2
M203 X200 Y200 Z12 E120 ; sets maximum feedrates, mm / sec
M204 S1250 T1250 ; sets acceleration (S) and retract acceleration (R), mm/sec^2
M205 X8.00 Y8.00 Z0.40 E4.50 ; sets the jerk limits, mm/sec
M205 S0 T0 ; sets the minimum extruding and travel feed rate, mm/sec

; printing object tweezers.STL id:0 copy 0
; stop printing object tweezers.STL id:0 copy 0

;TYPE:Custom
M862.3 P "MK3SMMU3" ; printer model check
M862.1 P0.4 ; nozzle diameter check
M115 U3.14.1 ; tell printer latest fw version
G90 ; use absolute coordinates
M83 ; extruder relative mode
M104 S215 ; set extruder temp
M140 S60 ; set bed temp
M190 S60 ; wait for bed temp
M109 S215 ; wait for extruder temp
G28 W ; home all without mesh bed level
G80 X11.6212 Y22.387 W95.0826 H65.0769 ; mesh bed levelling

; Send the filament type to the MMU unit.
; E stands for extruder number, F stands for filament type (0: default; 1:flex; 2: PVA)
M403 E0 F0
M403 E1 F0
M403 E2 F0
M403 E3 F0
M403 E4 F0


;go outside print area
G1 Y-3 F1000
G1 Z0.4 F1000
; select extruder
T0
; initial load
G1 X55 E29 F1073
G1 X5 E29 F1800
M73 Q0 S48
G1 X55 E8 F2000
G1 Z0.3 F1000
G92 E0
G1 X240 E25 F2200
G1 Y-2 F1000
G1 X55 E25 F1400
G1 Z0.2 F1000
G1 X5 E4 F1000
G92 E0


M221 S95
G92 E0

; Don't change E values below. Excessive value can damage the printer.
M907 E430 ; set extruder motor current
G21 ; set units to millimeters
G90 ; use absolute coordinates
M83 ; use relative distances for extrusion

M900 K0.05 ; Filament gcode LA 1.5
M900 K30 ; Filament gcode LA 1.0




M107
;LAYER_CHANGE
;Z:0.2
;HEIGHT:0.2
G1 E-.8 F2100
G1 Z.6 F720
G1 X14.995 Y27.859 F10800
G1 Z.2 F720
G1 E.8 F2100
M204 S800
;TYPE:Skirt/Brim
;WIDTH:0.42
G1 F1200
G1 X27.923 Y22.833 E.4349
G1 X28.549 Y22.691 E.02013
G1 X30.055 Y22.575 E.04736
G1 X30.695 Y22.62 E.02012
G1 X96.265 Y37.111 E2.10551
G1 X98.398 Y37.892 E.07122
G1 X99.291 Y38.376 E.03185
G1 X100.889 Y39.581 E.06275
G1 X101.635 Y40.299 E.03246
G1 X103.1 Y42.123 E.07335
G1 X104.095 Y43.824 E.06179
G1 X105.266 Y46.64 E.09562
G1 X105.883 Y48.874 E.07267
G1 X106.277 Y51.075 E.07011
G1 X106.504 Y53.564 E.07836
G1 X106.513 Y56.066 E.07845
G1 X106.307 Y58.547 E.07806
G1 X105.904 Y60.871 E.07395
G1 X105.09 Y63.718 E.09284
G1 X104.318 Y65.585 E.06335
G1 X103.2 Y67.571 E.07146
G1 X102.738 Y68.231 E.02526
G1 X101.472 Y69.727 E.06145
M73 P1 R48
G1 X100.889 Y70.27 E.02498
M73 Q1 S48
G1 X99.545 Y71.306 E.05321
G1 X98.398 Y71.958 E.04137
G1 X96.435 Y72.695 E.06574
G1 X30.695 Y87.231 E2.11102
G1 X30.055 Y87.276 E.02012
G1 X28.549 Y87.16 E.04736
G1 X27.923 Y87.018 E.02013
G1 X14.995 Y81.992 E.4349
G1 X13.96 Y81.156 E.04172
G1 X12.171 Y78.44 E.10197
G1 X11.81 Y77.236 E.03941
G1 X11.81 Y32.615 E1.39906
G1 X12.171 Y31.411 E.03941
G1 X13.96 Y28.695 E.10197
G1 X14.948 Y27.897 E.03982
M204 S1000
;WIPE_START
G1 F8640
G1 X14.995 Y27.859 E-.01396
G1 X18.168 Y26.625 E-.78604
;WIPE_END
G1 Z.6 F720
G1 X16.39 Y30.115 F10800
G1 Z.2 F720
G1 E.8 F2100
M204 S800
G1 F1200
G1 X16.688 Y29.927 E.01105
G1 X28.449 Y25.283 E.39646
G1 X30.482 Y25.119 E.06395
G1 X95.7 Y39.521 E2.09413
G1 X97.502 Y40.211 E.0605
G1 X99.698 Y41.853 E.08597
G1 X100.996 Y43.435 E.06416
G1 X101.968 Y45.096 E.06034
G1 X102.875 Y47.292 E.0745
G1 X103.457 Y49.371 E.06769
G1 X103.828 Y51.44 E.06591
G1 X104.04 Y53.879 E.07676
G1 X104.032 Y56.147 E.07111
G1 X103.83 Y58.396 E.0708
G1 X103.457 Y60.48 E.06638
G1 X102.89 Y62.516 E.06627
G1 X101.951 Y64.787 E.07705
G1 X100.843 Y66.632 E.06748
G1 X99.36 Y68.319 E.07043
G1 X97.647 Y69.56 E.06632
G1 X95.717 Y70.326 E.06511
G1 X30.532 Y84.732 E2.09315
G1 X28.499 Y84.577 E.06393
G1 X16.921 Y80.064 E.38962
G1 X15.69 Y79.142 E.04822
G1 X14.807 Y77.875 E.04842
G1 X14.36 Y76.325 E.05058
G1 X14.371 Y74.664 E.05208
G1 X14.749 Y73.225 E.04665
G1 X15.527 Y71.986 E.04587
G1 X16.814 Y70.935 E.0521
G1 X17.487 Y70.626 E.02322
G1 X18.17 Y70.425 E.02232
G1 X19.48 Y70.335 E.04117
G1 X29.685 Y71.764 E.32309
G1 X92.636 Y58.531 E2.01692
G1 X93.081 Y57.227 E.0432
M73 P1 R47
G1 X93.319 Y55.414 E.05733
G1 X93.236 Y53.488 E.06044
G1 X93.081 Y52.624 E.02752
G1 X92.635 Y51.32 E.04321
G1 X29.683 Y38.087 E2.01695
G1 X19.137 Y39.524 E.33372
G1 X18.025 Y39.389 E.03512
G1 X16.961 Y38.992 E.03561
G1 X15.952 Y38.284 E.03865
G1 X15.188 Y37.44 E.03569
G1 X14.473 Y35.735 E.05797
G1 X14.386 Y35.364 E.01195
G1 X14.416 Y33.149 E.06946
G1 X14.756 Y32.083 E.03508
G1 X15.289 Y31.168 E.0332
G1 X16.347 Y30.156 E.0459
M204 S1000
G1 X16.347 Y30.156 F10800
G1 X16.606 Y30.43
M204 S800
G1 F1200
G1 X16.635 Y30.402 E.00126
G1 X28.562 Y25.644 E.40262
G1 X30.429 Y25.493 E.05873
G1 X95.605 Y39.886 E2.09278
G1 X97.298 Y40.529 E.05678
M73 P2 R47
M73 Q2 S48
G1 X99.454 Y42.141 E.08441
G1 X100.678 Y43.638 E.06063
G1 X101.624 Y45.252 E.05866
G1 X102.523 Y47.426 E.07376
G1 X103.088 Y49.447 E.0658
G1 X103.454 Y51.481 E.0648
G1 X103.663 Y53.903 E.07622
G1 X103.655 Y56.138 E.07008
G1 X103.456 Y58.354 E.06976
G1 X103.087 Y60.404 E.06531
G1 X102.53 Y62.404 E.0651
G1 X101.62 Y64.605 E.07468
G1 X100.547 Y66.396 E.06546
G1 X99.12 Y68.026 E.06793
G1 X97.485 Y69.218 E.06344
G1 X95.621 Y69.961 E.06292
G1 X30.478 Y84.358 E2.0918
G1 X28.609 Y84.215 E.05877
M73 Q2 S47
G1 X17.126 Y79.747 E.38634
G1 X15.941 Y78.859 E.04643
G1 X15.135 Y77.688 E.04457
G1 X14.731 Y76.25 E.04683
G1 X14.747 Y74.691 E.04888
G1 X15.084 Y73.401 E.0418
G1 X15.83 Y72.213 E.04398
G1 X17.031 Y71.244 E.04838
G1 X18.219 Y70.8 E.03977
G1 X19.448 Y70.711 E.03864
G1 X29.698 Y72.146 E.32452
G1 X92.866 Y58.868 E2.02387
G1 X93.232 Y58.075 E.02738
G1 X93.449 Y57.312 E.02487
G1 X93.696 Y55.43 E.05951
G1 X93.61 Y53.438 E.06252
G1 X93.232 Y51.776 E.05344
G1 X92.866 Y50.983 E.02738
G1 X29.697 Y37.704 E2.02391
G1 X19.157 Y39.147 E.33356
G1 X18.135 Y39.028 E.03226
G1 X17.116 Y38.647 E.03411
G1 X16.188 Y37.99 E.03565
G1 X15.49 Y37.212 E.03277
G1 X14.758 Y35.302 E.06413
G1 X14.792 Y33.184 E.06642
G1 X15.108 Y32.221 E.03178
G1 X15.6 Y31.382 E.0305
G1 X16.562 Y30.471 E.04154
M204 S1000
G1 X16.562 Y30.471 F10800
G1 X16.83 Y30.767
M204 S800
G1 F1200
G1 X16.997 Y30.616 E.00706
G1 X28.675 Y26.005 E.39366
G1 X30.375 Y25.867 E.05348
G1 X95.511 Y40.252 E2.0915
G1 X97.093 Y40.847 E.05299
G1 X99.209 Y42.429 E.08284
G1 X100.36 Y43.841 E.05712
G1 X101.281 Y45.409 E.05702
G1 X102.17 Y47.559 E.07295
G1 X102.718 Y49.523 E.06393
G1 X103.079 Y51.522 E.06369
G1 X103.286 Y53.91 E.07515
G1 X103.279 Y56.112 E.06904
G1 X103.081 Y58.312 E.06926
G1 X102.718 Y60.329 E.06426
G1 X102.17 Y62.292 E.0639
G1 X101.289 Y64.424 E.07233
G1 X100.252 Y66.161 E.06343
G1 X98.88 Y67.735 E.06547
G1 X97.323 Y68.877 E.06054
G1 X95.525 Y69.596 E.06072
G1 X30.423 Y83.984 E2.09048
G1 X28.72 Y83.854 E.05355
G1 X17.33 Y79.428 E.38314
G1 X16.234 Y78.619 E.04271
G1 X15.464 Y77.501 E.04256
G1 X15.102 Y76.177 E.04304
G1 X15.124 Y74.721 E.04566
G1 X15.44 Y73.526 E.03876
G1 X16.131 Y72.443 E.04028
G1 X17.208 Y71.578 E.04331
G1 X18.306 Y71.167 E.03676
G1 X19.416 Y71.087 E.03489
G1 X29.711 Y72.529 E.32594
G1 X93.108 Y59.202 E2.03121
G1 X93.588 Y58.199 E.03486
M73 P3 R47
M73 Q3 S47
G1 X93.816 Y57.398 E.02611
G1 X94.073 Y55.447 E.0617
G1 X94.073 Y54.404 E.0327
G1 X93.816 Y52.453 E.0617
G1 X93.588 Y51.652 E.02611
G1 X93.108 Y50.649 E.03486
G1 X29.71 Y37.322 E2.03124
G1 X19.175 Y38.77 E.33342
G1 X18.243 Y38.666 E.0294
G1 X17.313 Y38.325 E.03106
G1 X16.424 Y37.695 E.03416
G1 X15.794 Y36.987 E.02971
G1 X15.131 Y35.244 E.05847
G1 X15.169 Y33.221 E.06344
G1 X15.458 Y32.361 E.02845
G1 X15.91 Y31.598 E.02781
G1 X16.785 Y30.807 E.03698
M204 S1000
G1 X16.785 Y30.807 F10800
G1 X17.027 Y31.067
M204 S800
G1 F1200
G1 X17.122 Y30.979 E.00406
G1 X28.787 Y26.366 E.39331
G1 X30.321 Y26.242 E.04825
G1 X95.417 Y40.617 E2.09021
G1 X96.935 Y41.19 E.05087
G1 X98.932 Y42.686 E.07824
G1 X100.042 Y44.045 E.05502
G1 X100.949 Y45.588 E.05612
G1 X101.81 Y47.672 E.0707
G1 X102.349 Y49.598 E.06271
G1 X102.706 Y51.581 E.06318
G1 X102.909 Y53.918 E.07355
G1 X102.902 Y56.086 E.06798
G1 X102.708 Y58.254 E.06825
G1 X102.352 Y60.236 E.06314
G1 X101.81 Y62.179 E.06325
G1 X100.958 Y64.243 E.07001
G1 X99.956 Y65.927 E.06144
G1 X98.639 Y67.444 E.06299
G1 X97.16 Y68.536 E.05764
G1 X95.428 Y69.231 E.05851
G1 X30.369 Y83.61 E2.08911
G1 X28.83 Y83.492 E.0484
G1 X17.531 Y79.109 E.37999
G1 X16.526 Y78.378 E.03897
G1 X15.793 Y77.314 E.04051
G1 X15.479 Y76.157 E.03759
G1 X15.501 Y74.75 E.04412
G1 X15.796 Y73.654 E.03559
G1 X16.43 Y72.674 E.0366
G1 X17.385 Y71.912 E.03831
G1 X18.394 Y71.534 E.03378
G1 X19.383 Y71.463 E.03109
G1 X29.724 Y72.911 E.3274
G1 X93.301 Y59.547 E2.03698
G1 X93.674 Y58.981 E.02125
G1 X94.184 Y57.483 E.04962
M73 P3 R46
G1 X94.45 Y55.463 E.06388
G1 X94.359 Y53.339 E.06666
G1 X93.945 Y51.528 E.05825
G1 X93.674 Y50.87 E.02231
G1 X93.301 Y50.304 E.02125
G1 X29.723 Y36.939 E2.03701
G1 X19.191 Y38.392 E.33335
G1 X18.348 Y38.303 E.02658
G1 X17.51 Y38.002 E.02792
G1 X16.66 Y37.4 E.03266
G1 X16.099 Y36.763 E.02661
G1 X15.505 Y35.187 E.05281
G1 X15.536 Y33.314 E.05873
G1 X15.809 Y32.501 E.02689
G1 X16.219 Y31.816 E.02503
G1 X16.983 Y31.108 E.03266
M204 S1000
G1 X16.983 Y31.108 F10800
G1 X17.236 Y31.385
M204 S800
G1 F1200
G1 X17.338 Y31.292 E.00433
G1 X28.9 Y26.727 E.38975
G1 X30.267 Y26.616 E.043
G1 X95.322 Y40.982 E2.0889
G1 X96.777 Y41.533 E.04878
M73 P4 R46
G1 X98.654 Y42.942 E.07359
G1 X99.741 Y44.272 E.05386
M73 Q4 S47
G1 X100.617 Y45.768 E.05436
G1 X101.45 Y47.784 E.06839
G1 X101.983 Y49.691 E.06208
G1 X102.333 Y51.639 E.06206
G1 X102.532 Y53.925 E.07195
G1 X102.526 Y56.061 E.06697
G1 X102.336 Y58.195 E.06717
G1 X101.983 Y60.16 E.0626
G1 X101.449 Y62.067 E.06209
G1 X100.627 Y64.063 E.06768
G1 X99.66 Y65.694 E.05945
G1 X98.398 Y67.154 E.06051
G1 X96.955 Y68.218 E.05621
G1 X95.332 Y68.866 E.05479
G1 X30.315 Y83.235 E2.08775
G1 X28.941 Y83.13 E.04321
M73 Q4 S46
G1 X17.691 Y78.766 E.37835
G1 X16.776 Y78.094 E.0356
G1 X16.123 Y77.129 E.03653
G1 X15.857 Y76.136 E.03223
G1 X15.877 Y74.781 E.04249
G1 X16.152 Y73.784 E.03243
G1 X16.728 Y72.907 E.0329
G1 X17.562 Y72.245 E.03339
G1 X18.481 Y71.902 E.03076
G1 X19.35 Y71.84 E.02732
G1 X29.737 Y73.294 E.32885
G1 X93.5 Y59.89 E2.04294
G1 X94.012 Y59.149 E.02824
G1 X94.302 Y58.446 E.02384
G1 X94.733 Y56.562 E.0606
G1 X94.827 Y55.479 E.03408
G1 X94.827 Y54.371 E.03474
G1 X94.552 Y52.283 E.06603
G1 X94.012 Y50.702 E.05238
G1 X93.5 Y49.96 E.02827
G1 X29.737 Y36.557 E2.04293
G1 X19.208 Y38.015 E.33328
G1 X18.411 Y37.931 E.02513
G1 X17.665 Y37.657 E.02492
G1 X16.899 Y37.107 E.02957
G1 X16.405 Y36.541 E.02356
G1 X15.878 Y35.135 E.04708
G1 X15.912 Y33.352 E.05591
G1 X16.158 Y32.644 E.0235
G1 X16.527 Y32.035 E.02233
G1 X17.192 Y31.426 E.02827
M204 S1000
G1 X17.192 Y31.426 F10800
G1 X17.444 Y31.704
M204 S800
G1 F1200
G1 X17.565 Y31.595 E.00511
G1 X29.012 Y27.088 E.38573
G1 X30.213 Y26.99 E.03778
G1 X95.227 Y41.347 E2.08758
G1 X96.618 Y41.876 E.04666
G1 X98.376 Y43.198 E.06897
G1 X99.44 Y44.499 E.0527
G1 X100.285 Y45.946 E.05254
G1 X101.089 Y47.896 E.06613
G1 X101.613 Y49.767 E.06092
G1 X101.961 Y51.697 E.06149
G1 X102.155 Y53.933 E.07037
G1 X102.15 Y56.036 E.06594
G1 X101.963 Y58.137 E.06614
G1 X101.617 Y60.067 E.06148
G1 X101.089 Y61.955 E.06147
G1 X100.295 Y63.883 E.06538
G1 X99.363 Y65.461 E.05746
G1 X98.156 Y66.864 E.05803
G1 X96.792 Y67.878 E.05329
G1 X95.235 Y68.502 E.05259
G1 X30.26 Y82.861 E2.0864
G1 X29.051 Y82.769 E.03802
G1 X17.852 Y78.424 E.37664
G1 X17.028 Y77.812 E.03218
G1 X16.455 Y76.947 E.03253
G1 X16.234 Y76.116 E.02696
G1 X16.254 Y74.811 E.04092
G1 X16.506 Y73.916 E.02915
G1 X17.024 Y73.142 E.0292
G1 X17.74 Y72.579 E.02856
G1 X18.568 Y72.269 E.02772
G1 X19.318 Y72.216 E.02357
G1 X29.75 Y73.677 E.33028
G1 X93.601 Y60.255 E2.04576
G1 X94.04 Y59.849 E.01875
G1 X94.351 Y59.316 E.01935
G1 X94.92 Y57.653 E.05511
G1 X95.204 Y55.496 E.06821
G1 X95.107 Y53.239 E.07083
G1 X94.92 Y52.198 E.03316
M73 P5 R46
G1 X94.351 Y50.535 E.05511
G1 X94.04 Y50.002 E.01935
G1 X93.601 Y49.596 E.01875
G1 X29.75 Y36.174 E2.04576
G1 X19.222 Y37.638 E.33327
M73 Q5 S46
G1 X18.514 Y37.567 E.02231
G1 X17.863 Y37.335 E.02167
G1 X17.138 Y36.814 E.02799
G1 X16.714 Y36.321 E.02039
G1 X16.253 Y35.092 E.04116
G1 X16.288 Y33.392 E.05331
G1 X16.505 Y32.792 E.02001
G1 X16.834 Y32.256 E.01972
G1 X17.4 Y31.745 E.02391
M204 S1000
G1 X17.4 Y31.745 F10800
G1 X17.649 Y32.025
M204 S800
G1 F1200
G1 X17.79 Y31.899 E.00593
G1 X29.124 Y27.449 E.38178
G1 X30.16 Y27.364 E.03259
G1 X95.132 Y41.713 E2.08624
G1 X96.458 Y42.219 E.0445
G1 X98.099 Y43.455 E.06441
G1 X99.122 Y44.703 E.0506
G1 X99.953 Y46.125 E.05164
G1 X100.729 Y48.009 E.06389
G1 X101.248 Y49.86 E.06028
G1 X101.588 Y51.755 E.06037
G1 X101.778 Y53.94 E.06877
G1 X101.773 Y56.011 E.06493
G1 X101.59 Y58.079 E.06509
G1 X101.248 Y59.992 E.06093
G1 X100.729 Y61.842 E.06024
G1 X99.964 Y63.703 E.06309
G1 X99.065 Y65.228 E.05551
G1 X97.913 Y66.575 E.05557
G1 X96.628 Y67.537 E.05033
G1 X95.139 Y68.137 E.05033
G1 X30.206 Y82.487 E2.08505
G1 X29.162 Y82.407 E.03283
G1 X18.013 Y78.082 E.37495
G1 X17.282 Y77.531 E.0287
G1 X16.81 Y76.818 E.02681
G1 X16.611 Y76.095 E.02351
G1 X16.631 Y74.841 E.03932
G1 X16.836 Y74.1 E.02411
G1 X17.32 Y73.377 E.02728
G1 X17.917 Y72.912 E.02373
G1 X18.653 Y72.637 E.02464
G1 X19.285 Y72.592 E.01987
G1 X29.763 Y74.059 E.33173
G1 X93.695 Y60.62 E2.04835
G1 X94.055 Y60.417 E.01296
G1 X94.35 Y60.067 E.01435
G1 X94.69 Y59.484 E.02116
G1 X95.016 Y58.694 E.0268
G1 X95.288 Y57.738 E.03116
G1 X95.481 Y56.662 E.03428
G1 X95.581 Y55.512 E.03619
G1 X95.581 Y54.339 E.03678
G1 X95.481 Y53.189 E.03619
G1 X95.288 Y52.113 E.03428
G1 X95.016 Y51.157 E.03116
G1 X94.69 Y50.367 E.0268
G1 X94.35 Y49.784 E.02116
G1 X94.055 Y49.434 E.01435
G1 X93.695 Y49.231 E.01296
G1 X29.763 Y35.792 E2.04835
G1 X19.234 Y37.26 E.33332
G1 X18.618 Y37.204 E.01939
M73 P5 R45
G1 X18.016 Y36.989 E.02004
G1 X17.379 Y36.524 E.02473
G1 X17.023 Y36.104 E.01726
G1 X16.631 Y35.044 E.03544
G1 X16.654 Y33.488 E.04879
G1 X16.837 Y32.972 E.01717
G1 X17.141 Y32.477 E.01821
G1 X17.604 Y32.065 E.01943
M204 S1000
G1 X17.604 Y32.065 F10800
G1 X17.851 Y32.347
M204 S800
G1 F1200
G1 X18.013 Y32.205 E.00675
G1 X29.236 Y27.81 E.37791
G1 X30.106 Y27.739 E.02737
G1 X95.037 Y42.078 E2.08492
G1 X96.298 Y42.561 E.04234
G1 X97.821 Y43.711 E.05984
G1 X98.82 Y44.93 E.04942
G1 X99.62 Y46.304 E.04985
G1 X100.369 Y48.121 E.06162
G1 X100.882 Y49.953 E.05965
G1 X101.215 Y51.813 E.05925
G1 X101.401 Y53.948 E.06719
G1 X101.397 Y55.986 E.0639
G1 X101.218 Y58.021 E.06405
G1 X100.878 Y59.917 E.0604
G1 X100.369 Y61.73 E.05904
G1 X99.632 Y63.524 E.06081
G1 X98.767 Y64.997 E.05356
G1 X97.669 Y66.287 E.05311
G1 X96.463 Y67.197 E.04737
G1 X95.042 Y67.772 E.04806
G1 X30.152 Y82.113 E2.08368
G1 X29.272 Y82.046 E.02767
M73 P6 R45
M73 Q6 S46
G1 X18.173 Y77.74 E.37327
G1 X17.575 Y77.293 E.02341
G1 X17.164 Y76.684 E.02304
G1 X16.989 Y76.072 E.01996
G1 X17.007 Y74.87 E.03769
G1 X17.169 Y74.281 E.01915
G1 X17.579 Y73.653 E.02352
G1 X18.097 Y73.244 E.02069
G1 X18.739 Y73.005 E.02148
G1 X19.252 Y72.968 E.01613
G1 X29.776 Y74.442 E.33319
G1 X93.803 Y60.983 E2.0514
G1 X94.317 Y60.691 E.01854
M73 Q6 S45
G1 X94.659 Y60.285 E.01664
G1 X95.028 Y59.652 E.02297
G1 X95.372 Y58.818 E.02829
G1 X95.655 Y57.823 E.03243
G1 X95.855 Y56.711 E.03543
G1 X95.958 Y55.529 E.0372
G1 X95.958 Y54.322 E.03784
G1 X95.855 Y53.139 E.03723
G1 X95.655 Y52.028 E.03539
G1 X95.372 Y51.033 E.03243
G1 X95.028 Y50.199 E.02829
G1 X94.659 Y49.566 E.02297
G1 X94.317 Y49.159 E.01667
G1 X93.803 Y48.868 E.01852
G1 X29.776 Y35.409 E2.0514
G1 X19.244 Y36.883 E.33344
G1 X18.716 Y36.839 E.01661
G1 X18.214 Y36.668 E.01663
G1 X17.621 Y36.234 E.02304
G1 X17.334 Y35.888 E.01409
G1 X17.008 Y35.012 E.02931
G1 X17.02 Y33.584 E.04478
G1 X17.186 Y33.118 E.01551
G1 X17.445 Y32.702 E.01536
G1 X17.806 Y32.386 E.01504
M204 S1000
G1 X17.806 Y32.386 F10800
G1 X18.049 Y32.67
