; generated by PrusaSlicer 2.9.0 on 2025-01-02 at 17:09:53 UTC


;
;
; 

; external perimeters extrusion width = 0.45mm
; perimeters extrusion width = 0.45mm
; infill extrusion width = 0.45mm
; solid infill extrusion width = 0.45mm
; top infill extrusion width = 0.40mm
; first layer extrusion width = 0.42mm

M73 P0 R48
M73 Q0 S49
M201 X1000 Y1000 Z200 E8000 ; sets maximum accelerations, mm/sec^2
M203 X200 Y200 Z12 E120 ; sets maximum feedrates, mm / sec
M204 S1250 T1250 ; sets acceleration (S) and retract acceleration (R), mm/sec^2
M205 X8.00 Y8.00 Z0.40 E4.50 ; sets the jerk limits, mm/sec
M205 S0 T0 ; sets the minimum extruding and travel feed rate, mm/sec

; printing object tweezers.STL id:0 copy 0
; stop printing object tweezers.STL id:0 copy 0

;TYPE:Custom
M862.3 P "MK3SMMU3" ; printer model check
M862.1 P0.4 ; nozzle diameter check
M115 U3.14.1 ; tell printer latest fw version
G90 ; use absolute coordinates
M83 ; extruder relative mode
M104 S215 ; set extruder temp
M140 S60 ; set bed temp
M190 S60 ; wait for bed temp
M109 S215 ; wait for extruder temp
G28 W ; home all without mesh bed level
G80 X32.7082 Y109.297 W95.0826 H65.0769 ; mesh bed levelling

; Send the filament type to the MMU unit.
; E stands for extruder number, F stands for filament type (0: default; 1:flex; 2: PVA)
M403 E0 F0
M403 E1 F0
M403 E2 F0
M403 E3 F0
M403 E4 F0


;go outside print area
G1 Y-3 F1000
G1 Z0.4 F1000
; select extruder
T0
; initial load
G1 X55 E29 F1073
G1 X5 E29 F1800
M73 Q0 S48
G1 X55 E8 F2000
G1 Z0.3 F1000
G92 E0
G1 X240 E25 F2200
G1 Y-2 F1000
G1 X55 E25 F1400
G1 Z0.2 F1000
G1 X5 E4 F1000
G92 E0


M221 S95
G92 E0

; Don't change E values below. Excessive value can damage the printer.
M907 E430 ; set extruder motor current
G21 ; set units to millimeters
G90 ; use absolute coordinates
M83 ; use relative distances for extrusion

M900 K0.05 ; Filament gcode LA 1.5
M900 K30 ; Filament gcode LA 1.0




M107
;LAYER_CHANGE
;Z:0.2
;HEIGHT:0.2
G1 E-.8 F2100
G1 Z.6 F720
G1 X43.497 Y111.886 F10800
G1 Z.2 F720
G1 E.8 F2100
M204 S800
;TYPE:Skirt/Brim
;WIDTH:0.42
G1 F1200
G1 X49.01 Y109.743 E.18546
G1 X49.636 Y109.601 E.02013
G1 X51.142 Y109.485 E.04736
G1 X51.782 Y109.53 E.02012
G1 X117.352 Y124.021 E2.10551
G1 X119.485 Y124.803 E.07123
G1 X120.378 Y125.287 E.03185
G1 X121.976 Y126.491 E.06273
G1 X122.722 Y127.209 E.03246
G1 X124.187 Y129.033 E.07335
G1 X125.182 Y130.734 E.06179
G1 X126.353 Y133.551 E.09565
G1 X126.97 Y135.784 E.07264
G1 X127.364 Y137.985 E.07011
G1 X127.591 Y140.475 E.0784
G1 X127.6 Y142.976 E.07842
G1 X127.394 Y145.457 E.07806
G1 X126.991 Y147.781 E.07395
G1 X126.177 Y150.629 E.09287
G1 X125.405 Y152.495 E.06332
M73 Q1 S48
G1 X124.287 Y154.481 E.07146
G1 X123.825 Y155.141 E.02526
M73 P1 R48
G1 X122.559 Y156.637 E.06145
G1 X121.976 Y157.18 E.02498
G1 X120.632 Y158.216 E.05321
G1 X119.485 Y158.869 E.04138
G1 X117.522 Y159.605 E.06573
G1 X51.782 Y174.141 E2.11102
G1 X51.142 Y174.186 E.02012
G1 X49.636 Y174.07 E.04736
G1 X49.01 Y173.928 E.02013
G1 X36.082 Y168.902 E.4349
G1 X35.047 Y168.066 E.04172
G1 X33.258 Y165.35 E.10197
G1 X32.897 Y164.146 E.03941
G1 X32.897 Y119.525 E1.39906
G1 X33.258 Y118.321 E.03941
G1 X35.047 Y115.605 E.10197
G1 X36.082 Y114.769 E.04172
G1 X43.441 Y111.908 E.24756
M204 S1000
;WIPE_START
G1 F8640
G1 X43.497 Y111.886 E-.01389
G1 X46.67 Y110.653 E-.78611
;WIPE_END
G1 Z.6 F720
G1 X44.361 Y114.237 F10800
G1 Z.2 F720
G1 E.8 F2100
M204 S800
G1 F1200
G1 X49.536 Y112.193 E.17446
G1 X51.569 Y112.029 E.06395
G1 X116.787 Y126.431 E2.09413
G1 X118.589 Y127.121 E.0605
G1 X120.785 Y128.764 E.08599
G1 X122.083 Y130.345 E.06414
G1 X123.055 Y132.006 E.06034
G1 X123.962 Y134.202 E.0745
G1 X124.544 Y136.282 E.06772
G1 X124.915 Y138.35 E.06588
G1 X125.127 Y140.789 E.07676
G1 X125.119 Y143.057 E.07111
G1 X124.917 Y145.307 E.07083
G1 X124.544 Y147.39 E.06635
G1 X123.977 Y149.426 E.06627
G1 X123.038 Y151.697 E.07705
G1 X121.93 Y153.542 E.06748
G1 X120.447 Y155.229 E.07043
G1 X118.734 Y156.47 E.06632
G1 X116.804 Y157.236 E.06511
G1 X51.619 Y171.642 E2.09315
G1 X49.586 Y171.487 E.06393
G1 X38.008 Y166.974 E.38962
G1 X36.777 Y166.052 E.04822
G1 X35.894 Y164.785 E.04842
G1 X35.447 Y163.235 E.05058
G1 X35.458 Y161.574 E.05208
G1 X35.836 Y160.135 E.04665
G1 X36.614 Y158.896 E.04587
G1 X37.901 Y157.845 E.0521
G1 X38.574 Y157.536 E.02322
G1 X39.257 Y157.336 E.02231
G1 X40.567 Y157.245 E.04117
G1 X50.772 Y158.674 E.32309
G1 X113.722 Y145.441 E2.01689
G1 X114.168 Y144.138 E.04318
M73 P1 R47
G1 X114.406 Y142.324 E.05736
G1 X114.323 Y140.398 E.06044
G1 X114.168 Y139.534 E.02752
G1 X113.722 Y138.23 E.04321
G1 X50.77 Y124.997 E2.01695
G1 X40.224 Y126.435 E.33372
G1 X39.112 Y126.299 E.03513
G1 X38.048 Y125.902 E.03561
G1 X37.039 Y125.195 E.03863
G1 X36.275 Y124.35 E.03572
G1 X35.56 Y122.646 E.05794
G1 X35.473 Y122.274 E.01198
G1 X35.503 Y120.059 E.06946
G1 X35.843 Y118.993 E.03508
G1 X36.376 Y118.078 E.0332
G1 X37.477 Y117.025 E.04777
G1 X37.775 Y116.838 E.01103
G1 X44.305 Y114.259 E.22013
M204 S1000
G1 X44.305 Y114.259 F10800
G1 X44.452 Y114.627
M204 S800
G1 F1200
G1 X49.649 Y112.554 E.17543
G1 X51.516 Y112.403 E.05873
G1 X116.692 Y126.797 E2.09279
G1 X118.385 Y127.439 E.05677
M73 P2 R47
M73 Q2 S48
G1 X120.541 Y129.052 E.08442
G1 X121.765 Y130.548 E.06061
G1 X122.711 Y132.163 E.05868
G1 X123.61 Y134.336 E.07373
G1 X124.175 Y136.357 E.0658
G1 X124.541 Y138.391 E.0648
G1 X124.75 Y140.813 E.07622
G1 X124.742 Y143.048 E.07008
G1 X124.543 Y145.264 E.06976
G1 X124.174 Y147.314 E.06531
G1 X123.617 Y149.314 E.0651
G1 X122.707 Y151.516 E.07471
G1 X121.634 Y153.306 E.06544
G1 X120.207 Y154.937 E.06795
G1 X118.572 Y156.128 E.06342
G1 X116.708 Y156.871 E.06292
G1 X51.565 Y171.268 E2.0918
M73 Q2 S47
G1 X49.696 Y171.125 E.05877
G1 X38.213 Y166.657 E.38634
G1 X37.028 Y165.769 E.04643
G1 X36.222 Y164.598 E.04457
G1 X35.818 Y163.16 E.04683
G1 X35.834 Y161.601 E.04888
G1 X36.171 Y160.311 E.0418
G1 X36.917 Y159.124 E.04396
G1 X38.118 Y158.155 E.04838
G1 X39.306 Y157.71 E.03978
G1 X40.535 Y157.621 E.03864
G1 X50.785 Y159.057 E.32452
G1 X113.953 Y145.778 E2.02388
G1 X114.319 Y144.985 E.02738
G1 X114.536 Y144.223 E.02484
G1 X114.783 Y142.34 E.05955
G1 X114.697 Y140.348 E.06252
G1 X114.319 Y138.687 E.05341
G1 X113.953 Y137.893 E.02741
G1 X50.784 Y124.615 E2.0239
G1 X40.244 Y126.057 E.33355
G1 X39.222 Y125.938 E.03226
G1 X38.203 Y125.558 E.0341
G1 X37.275 Y124.9 E.03567
G1 X36.577 Y124.123 E.03275
G1 X35.845 Y122.213 E.06413
G1 X35.879 Y120.095 E.06642
G1 X36.195 Y119.131 E.03181
G1 X36.687 Y118.293 E.03047
G1 X37.722 Y117.312 E.04471
G1 X44.396 Y114.65 E.22529
M204 S1000
G1 X44.396 Y114.65 F10800
G1 X44.527 Y114.982
M204 S800
G1 F1200
G1 X49.762 Y112.915 E.17647
G1 X51.462 Y112.778 E.05348
G1 X116.598 Y127.162 E2.0915
G1 X118.18 Y127.757 E.05299
G1 X120.296 Y129.34 E.08286
G1 X121.447 Y130.752 E.05712
G1 X122.368 Y132.319 E.05699
G1 X123.257 Y134.469 E.07295
G1 X123.805 Y136.433 E.06393
G1 X124.166 Y138.432 E.06369
G1 X124.373 Y140.821 E.07519
G1 X124.366 Y143.022 E.06901
G1 X124.168 Y145.222 E.06926
G1 X123.805 Y147.239 E.06426
G1 X123.257 Y149.202 E.0639
G1 X122.376 Y151.334 E.07233
G1 X121.339 Y153.072 E.06346
G1 X119.967 Y154.645 E.06545
G1 X118.41 Y155.787 E.06054
G1 X116.612 Y156.506 E.06072
G1 X51.51 Y170.894 E2.09048
G1 X49.807 Y170.764 E.05355
G1 X38.417 Y166.339 E.38313
G1 X37.321 Y165.529 E.04273
G1 X36.551 Y164.411 E.04256
G1 X36.189 Y163.087 E.04304
G1 X36.211 Y161.631 E.04566
G1 X36.527 Y160.437 E.03873
G1 X37.218 Y159.353 E.04031
G1 X38.295 Y158.488 E.04331
G1 X39.393 Y158.077 E.03676
G1 X40.503 Y157.997 E.03489
G1 X50.798 Y159.439 E.32594
G1 X114.195 Y146.112 E2.03121
G1 X114.675 Y145.109 E.03486
M73 P3 R47
M73 Q3 S47
G1 X114.903 Y144.308 E.02611
G1 X115.16 Y142.357 E.0617
G1 X115.16 Y141.314 E.0327
G1 X114.903 Y139.364 E.06167
G1 X114.675 Y138.563 E.02611
G1 X114.195 Y137.559 E.03489
G1 X50.797 Y124.232 E2.03124
G1 X40.262 Y125.68 E.33342
G1 X39.33 Y125.576 E.0294
G1 X38.4 Y125.235 E.03106
G1 X37.511 Y124.605 E.03416
G1 X36.881 Y123.897 E.02971
G1 X36.218 Y122.154 E.05847
G1 X36.256 Y120.132 E.06341
G1 X36.545 Y119.271 E.02848
G1 X36.997 Y118.509 E.02778
G1 X38.084 Y117.526 E.04595
G1 X44.471 Y115.004 E.21531
M204 S1000
G1 X44.471 Y115.004 F10800
G1 X44.611 Y115.357
M204 S800
G1 F1200
G1 X49.874 Y113.276 E.17745
G1 X51.408 Y113.152 E.04825
G1 X116.504 Y127.527 E2.09021
G1 X118.022 Y128.1 E.05087
G1 X120.019 Y129.596 E.07824
G1 X121.129 Y130.955 E.05502
G1 X122.036 Y132.499 E.05615
G1 X122.897 Y134.582 E.07067
G1 X123.436 Y136.508 E.06271
G1 X123.793 Y138.491 E.06318
G1 X123.996 Y140.828 E.07355
G1 X123.989 Y142.997 E.06801
G1 X123.795 Y145.164 E.06822
G1 X123.439 Y147.146 E.06314
G1 X122.897 Y149.09 E.06328
G1 X122.045 Y151.153 E.06998
G1 X121.043 Y152.837 E.06144
G1 X119.726 Y154.355 E.06301
G1 X118.247 Y155.447 E.05764
G1 X116.515 Y156.142 E.05851
G1 X51.456 Y170.52 E2.0891
G1 X49.917 Y170.402 E.0484
G1 X38.618 Y166.019 E.37999
G1 X37.613 Y165.288 E.03897
G1 X36.88 Y164.224 E.04051
G1 X36.566 Y163.067 E.03759
G1 X36.588 Y161.661 E.04409
G1 X36.883 Y160.564 E.03562
G1 X37.517 Y159.584 E.0366
G1 X38.472 Y158.822 E.03831
G1 X39.481 Y158.445 E.03377
G1 X40.47 Y158.374 E.03109
G1 X50.811 Y159.822 E.3274
G1 X114.388 Y146.457 E2.03698
G1 X114.761 Y145.891 E.02125
M73 P3 R46
G1 X115.271 Y144.393 E.04962
G1 X115.537 Y142.373 E.06388
G1 X115.446 Y140.249 E.06666
G1 X115.032 Y138.439 E.05822
G1 X114.761 Y137.78 E.02234
G1 X114.388 Y137.214 E.02125
G1 X50.81 Y123.85 E2.03701
G1 X40.278 Y125.303 E.33335
G1 X39.435 Y125.213 E.02658
G1 X38.597 Y124.912 E.02792
G1 X37.747 Y124.31 E.03266
G1 X37.186 Y123.673 E.02661
G1 X36.592 Y122.097 E.05281
G1 X36.623 Y120.224 E.05873
G1 X36.896 Y119.411 E.02689
G1 X37.306 Y118.726 E.02503
G1 X38.209 Y117.889 E.0386
G1 X44.555 Y115.379 E.21397
M204 S1000
G1 X44.555 Y115.379 F10800
G1 X44.693 Y115.727
M204 S800
G1 F1200
G1 X49.987 Y113.637 E.17846
G1 X51.354 Y113.526 E.043
G1 X116.409 Y127.892 E2.0889
G1 X117.864 Y128.443 E.04878
M73 P4 R46
M73 Q4 S47
G1 X119.741 Y129.852 E.07359
G1 X120.828 Y131.183 E.05388
G1 X121.704 Y132.678 E.05433
G1 X122.537 Y134.694 E.06839
G1 X123.07 Y136.601 E.06208
G1 X123.42 Y138.549 E.06206
G1 X123.619 Y140.835 E.07195
G1 X123.613 Y142.971 E.06697
G1 X123.423 Y145.106 E.06721
G1 X123.07 Y147.071 E.0626
G1 X122.536 Y148.977 E.06206
G1 X121.714 Y150.973 E.06768
G1 X120.747 Y152.604 E.05945
G1 X119.485 Y154.064 E.06051
G1 X118.042 Y155.129 E.05623
G1 X116.419 Y155.777 E.05479
G1 X51.402 Y170.146 E2.08775
G1 X50.028 Y170.041 E.04321
M73 Q4 S46
G1 X38.778 Y165.677 E.37835
G1 X37.863 Y165.004 E.03561
G1 X37.21 Y164.039 E.03653
G1 X36.944 Y163.047 E.0322
G1 X36.964 Y161.691 E.04252
G1 X37.239 Y160.694 E.03243
G1 X37.815 Y159.817 E.0329
G1 X38.649 Y159.156 E.03337
G1 X39.568 Y158.812 E.03077
G1 X40.437 Y158.75 E.02732
G1 X50.824 Y160.204 E.32885
G1 X114.587 Y146.801 E2.04293
G1 X115.099 Y146.059 E.02827
G1 X115.389 Y145.357 E.02381
G1 X115.82 Y143.472 E.06063
G1 X115.914 Y142.39 E.03405
G1 X115.914 Y141.282 E.03474
G1 X115.639 Y139.193 E.06606
G1 X115.099 Y137.612 E.05238
G1 X114.587 Y136.871 E.02824
G1 X50.824 Y123.467 E2.04294
G1 X40.295 Y124.925 E.33328
G1 X39.498 Y124.841 E.02513
G1 X38.752 Y124.568 E.02491
G1 X37.986 Y124.017 E.02959
G1 X37.492 Y123.451 E.02356
G1 X36.965 Y122.046 E.04705
G1 X36.999 Y120.262 E.05595
G1 X37.245 Y119.555 E.02347
G1 X37.614 Y118.945 E.02235
G1 X38.425 Y118.202 E.03449
G1 X44.637 Y115.75 E.2094
M204 S1000
G1 X44.637 Y115.75 F10800
G1 X44.773 Y116.095
M204 S800
G1 F1200
G1 X50.099 Y113.998 E.17947
G1 X51.3 Y113.9 E.03778
G1 X116.314 Y128.258 E2.08759
G1 X117.705 Y128.786 E.04665
G1 X119.463 Y130.108 E.06897
G1 X120.527 Y131.41 E.05272
G1 X121.372 Y132.857 E.05254
G1 X122.176 Y134.807 E.06613
G1 X122.7 Y136.677 E.06089
G1 X123.048 Y138.607 E.06149
G1 X123.242 Y140.843 E.07037
G1 X123.237 Y142.946 E.06594
G1 X123.05 Y145.047 E.06614
G1 X122.704 Y146.978 E.06151
G1 X122.176 Y148.865 E.06144
G1 X121.382 Y150.793 E.06538
G1 X120.45 Y152.371 E.05746
G1 X119.243 Y153.774 E.05803
G1 X117.879 Y154.788 E.05329
G1 X116.322 Y155.412 E.05259
G1 X51.347 Y169.771 E2.0864
G1 X50.138 Y169.679 E.03802
G1 X38.939 Y165.335 E.37663
G1 X38.115 Y164.722 E.0322
G1 X37.542 Y163.858 E.03251
G1 X37.321 Y163.027 E.02696
G1 X37.341 Y161.722 E.04092
G1 X37.593 Y160.826 E.02918
G1 X38.111 Y160.052 E.0292
G1 X38.827 Y159.489 E.02856
G1 X39.655 Y159.18 E.02771
G1 X40.405 Y159.126 E.02358
G1 X50.837 Y160.587 E.33028
G1 X114.688 Y147.165 E2.04576
G1 X115.127 Y146.759 E.01875
G1 X115.438 Y146.227 E.01932
G1 X116.007 Y144.563 E.05514
G1 X116.291 Y142.406 E.06821
G1 X116.194 Y140.149 E.07083
M73 P5 R46
G1 X116.007 Y139.108 E.03316
G1 X115.438 Y137.445 E.05511
G1 X115.127 Y136.912 E.01935
M73 Q5 S46
G1 X114.688 Y136.506 E.01875
G1 X50.837 Y123.084 E2.04576
G1 X40.309 Y124.548 E.33327
G1 X39.601 Y124.478 E.02231
G1 X38.95 Y124.245 E.02168
G1 X38.225 Y123.725 E.02797
G1 X37.801 Y123.231 E.02041
G1 X37.34 Y122.002 E.04116
G1 X37.375 Y120.302 E.05331
G1 X37.592 Y119.702 E.02001
G1 X37.921 Y119.166 E.01972
G1 X38.652 Y118.505 E.0309
G1 X44.717 Y116.117 E.20437
M204 S1000
G1 X44.717 Y116.117 F10800
G1 X44.853 Y116.463
M204 S800
G1 F1200
G1 X50.211 Y114.359 E.18048
G1 X51.247 Y114.275 E.03259
G1 X116.219 Y128.623 E2.08623
G1 X117.545 Y129.129 E.0445
G1 X119.186 Y130.365 E.06441
G1 X120.209 Y131.613 E.0506
G1 X121.04 Y133.036 E.05167
G1 X121.816 Y134.919 E.06386
G1 X122.335 Y136.77 E.06028
G1 X122.675 Y138.665 E.06037
G1 X122.865 Y140.85 E.06877
G1 X122.86 Y142.921 E.06493
G1 X122.677 Y144.989 E.06509
G1 X122.335 Y146.902 E.06093
G1 X121.816 Y148.753 E.06028
G1 X121.051 Y150.613 E.06306
G1 X120.152 Y152.139 E.05553
G1 X119 Y153.485 E.05555
G1 X117.715 Y154.448 E.05035
G1 X116.226 Y155.047 E.05032
G1 X51.293 Y169.397 E2.08505
G1 X50.249 Y169.317 E.03283
G1 X39.1 Y164.993 E.37494
G1 X38.369 Y164.441 E.02872
G1 X37.897 Y163.728 E.02681
G1 X37.698 Y163.005 E.02351
G1 X37.718 Y161.751 E.03932
G1 X37.923 Y161.01 E.02411
G1 X38.407 Y160.287 E.02728
G1 X39.004 Y159.822 E.02373
G1 X39.74 Y159.547 E.02464
G1 X40.372 Y159.502 E.01987
G1 X50.85 Y160.969 E.33173
G1 X114.782 Y147.53 E2.04835
G1 X115.142 Y147.327 E.01296
G1 X115.437 Y146.977 E.01435
G1 X115.777 Y146.394 E.02116
G1 X116.103 Y145.604 E.0268
G1 X116.375 Y144.648 E.03116
G1 X116.568 Y143.572 E.03428
G1 X116.668 Y142.422 E.03619
G1 X116.668 Y141.249 E.03678
G1 X116.568 Y140.099 E.03619
G1 X116.375 Y139.023 E.03428
G1 X116.103 Y138.067 E.03116
G1 X115.777 Y137.277 E.0268
G1 X115.437 Y136.694 E.02116
G1 X115.142 Y136.344 E.01435
G1 X114.782 Y136.141 E.01296
G1 X50.85 Y122.702 E2.04835
G1 X40.321 Y124.17 E.33332
G1 X39.705 Y124.114 E.01939
M73 P5 R45
G1 X39.103 Y123.9 E.02003
G1 X38.466 Y123.434 E.02475
G1 X38.11 Y123.014 E.01726
G1 X37.718 Y121.954 E.03544
G1 X37.741 Y120.398 E.04879
G1 X37.924 Y119.882 E.01717
G1 X38.228 Y119.388 E.01819
G1 X38.877 Y118.809 E.02727
G1 X44.797 Y116.485 E.19941
M204 S1000
G1 X44.797 Y116.485 F10800
G1 X44.933 Y116.831
M204 S800
G1 F1200
G1 X50.323 Y114.72 E.1815
G1 X51.193 Y114.649 E.02737
G1 X116.124 Y128.988 E2.08492
G1 X117.385 Y129.471 E.04234
G1 X118.908 Y130.621 E.05984
G1 X119.907 Y131.84 E.04942
G1 X120.707 Y133.214 E.04985
G1 X121.456 Y135.031 E.06162
G1 X121.969 Y136.863 E.05965
G1 X122.302 Y138.723 E.05925
G1 X122.488 Y140.858 E.06719
G1 X122.484 Y142.896 E.0639
G1 X122.305 Y144.931 E.06405
G1 X121.965 Y146.827 E.0604
G1 X121.456 Y148.64 E.05904
G1 X120.719 Y150.434 E.06081
G1 X119.854 Y151.907 E.05356
G1 X118.756 Y153.197 E.05311
G1 X117.55 Y154.107 E.04737
G1 X116.129 Y154.682 E.04806
G1 X51.239 Y169.023 E2.08368
G1 X50.359 Y168.956 E.02767
M73 P6 R45
M73 Q6 S46
G1 X39.26 Y164.65 E.37327
G1 X38.662 Y164.203 E.02341
G1 X38.251 Y163.594 E.02304
G1 X38.076 Y162.982 E.01996
G1 X38.094 Y161.78 E.03769
G1 X38.256 Y161.191 E.01915
G1 X38.666 Y160.563 E.02352
G1 X39.184 Y160.154 E.02069
G1 X39.826 Y159.915 E.02148
G1 X40.339 Y159.878 E.01613
G1 X50.863 Y161.352 E.33319
G1 X114.89 Y147.893 E2.0514
G1 X115.404 Y147.602 E.01852
M73 Q6 S45
G1 X115.746 Y147.195 E.01667
G1 X116.115 Y146.562 E.02297
