; generated by PrusaSlicer 2.9.0 on 2025-01-02 at 17:09:14 UTC


;
;
; 

; external perimeters extrusion width = 0.45mm
; perimeters extrusion width = 0.45mm
; infill extrusion width = 0.45mm
; solid infill extrusion width = 0.45mm
; top infill extrusion width = 0.40mm
; first layer extrusion width = 0.42mm

M73 P0 R48
M73 Q0 S49
M201 X1000 Y1000 Z200 E8000 ; sets maximum accelerations, mm/sec^2
M203 X200 Y200 Z12 E120 ; sets maximum feedrates, mm / sec
M204 S1250 T1250 ; sets acceleration (S) and retract acceleration (R), mm/sec^2
M205 X8.00 Y8.00 Z0.40 E4.50 ; sets the jerk limits, mm/sec
M205 S0 T0 ; sets the minimum extruding and travel feed rate, mm/sec

; printing object tweezers.STL id:0 copy 0
; stop printing object tweezers.STL id:0 copy 0

;TYPE:Custom
M862.3 P "MK3SMMU3" ; printer model check
M862.1 P0.4 ; nozzle diameter check
M115 U3.14.1 ; tell printer latest fw version
G90 ; use absolute coordinates
M83 ; extruder relative mode
M104 S215 ; set extruder temp
M140 S60 ; set bed temp
M190 S60 ; wait for bed temp
M109 S215 ; wait for extruder temp
G28 W ; home all without mesh bed level
G80 X126.412 Y21.8747 W95.0826 H65.0769 ; mesh bed levelling

; Send the filament type to the MMU unit.
; E stands for extruder number, F stands for filament type (0: default; 1:flex; 2: PVA)
M403 E0 F0
M403 E1 F0
M403 E2 F0
M403 E3 F0
M403 E4 F0


;go outside print area
G1 Y-3 F1000
G1 Z0.4 F1000
; select extruder
T0
; initial load
G1 X55 E29 F1073
G1 X5 E29 F1800
G1 X55 E8 F2000
M73 Q0 S48
G1 Z0.3 F1000
G92 E0
G1 X240 E25 F2200
G1 Y-2 F1000
G1 X55 E25 F1400
G1 Z0.2 F1000
G1 X5 E4 F1000
G92 E0


M221 S95
G92 E0

; Don't change E values below. Excessive value can damage the printer.
M907 E430 ; set extruder motor current
G21 ; set units to millimeters
G90 ; use absolute coordinates
M83 ; use relative distances for extrusion

M900 K0.05 ; Filament gcode LA 1.5
M900 K30 ; Filament gcode LA 1.0




M107
;LAYER_CHANGE
;Z:0.2
;HEIGHT:0.2
G1 E-.8 F2100
G1 Z.6 F720
G1 X126.601 Y32.103 F10800
G1 Z.2 F720
G1 E.8 F2100
M204 S800
;TYPE:Skirt/Brim
;WIDTH:0.42
G1 F1200
G1 X126.962 Y30.899 E.03941
G1 X128.752 Y28.182 E.10202
G1 X129.786 Y27.347 E.04167
G1 X142.714 Y22.321 E.4349
G1 X143.34 Y22.178 E.02013
G1 X144.846 Y22.063 E.04736
G1 X145.486 Y22.108 E.02012
G1 X211.056 Y36.599 E2.10551
G1 X213.189 Y37.38 E.07122
G1 X214.082 Y37.864 E.03185
G1 X215.68 Y39.069 E.06275
G1 X216.426 Y39.786 E.03244
G1 X217.891 Y41.611 E.07338
G1 X218.886 Y43.312 E.06179
G1 X220.057 Y46.128 E.09562
G1 X220.674 Y48.362 E.07267
M73 Q1 S48
G1 X221.068 Y50.563 E.07011
G1 X221.295 Y53.052 E.07836
G1 X221.304 Y55.554 E.07845
M73 P1 R48
G1 X221.098 Y58.035 E.07806
G1 X220.696 Y60.358 E.07392
G1 X219.881 Y63.206 E.09288
G1 X219.11 Y65.072 E.0633
G1 X217.991 Y67.059 E.0715
G1 X217.529 Y67.719 E.02526
G1 X216.263 Y69.215 E.06145
G1 X215.68 Y69.758 E.02498
G1 X214.336 Y70.793 E.05319
G1 X213.189 Y71.446 E.04138
G1 X211.226 Y72.183 E.06574
G1 X145.486 Y86.718 E2.11101
G1 X144.846 Y86.764 E.02012
G1 X143.34 Y86.648 E.04736
G1 X142.714 Y86.506 E.02013
G1 X129.786 Y81.48 E.4349
G1 X128.752 Y80.644 E.04169
G1 X126.962 Y77.927 E.10202
G1 X126.601 Y76.723 E.03941
G1 X126.601 Y32.163 E1.39715
M204 S1000
;WIPE_START
G1 F8640
G1 X126.601 Y32.103 E-.01385
G1 X126.962 Y30.899 E-.29023
G1 X128.143 Y29.106 E-.49592
;WIPE_END
G1 Z.6 F720
G1 X129.207 Y32.637 F10800
G1 Z.2 F720
G1 E.8 F2100
M204 S800
G1 F1200
G1 X129.547 Y31.571 E.03508
G1 X130.08 Y30.655 E.03323
G1 X131.181 Y29.603 E.04775
G1 X131.479 Y29.415 E.01105
G1 X143.241 Y24.771 E.39649
G1 X145.273 Y24.606 E.06392
G1 X210.491 Y39.009 E2.09414
G1 X212.293 Y39.698 E.06049
G1 X214.489 Y41.341 E.08599
G1 X215.787 Y42.923 E.06416
G1 X216.759 Y44.584 E.06034
G1 X217.666 Y46.78 E.0745
G1 X218.248 Y48.859 E.06769
G1 X218.62 Y50.927 E.06588
G1 X218.831 Y53.367 E.07679
G1 X218.823 Y55.635 E.07111
G1 X218.621 Y57.884 E.0708
G1 X218.248 Y59.967 E.06635
G1 X217.681 Y62.004 E.0663
G1 X216.742 Y64.275 E.07705
G1 X215.634 Y66.119 E.06745
G1 X214.151 Y67.806 E.07043
G1 X212.438 Y69.047 E.06632
G1 X210.509 Y69.814 E.06509
G1 X145.323 Y84.22 E2.09318
G1 X143.29 Y84.064 E.06393
G1 X131.712 Y79.552 E.38961
G1 X130.481 Y78.629 E.04824
G1 X129.598 Y77.363 E.0484
G1 X129.152 Y75.813 E.05057
G1 X129.162 Y74.152 E.05208
G1 X129.54 Y72.713 E.04665
G1 X130.319 Y71.473 E.04591
G1 X131.605 Y70.423 E.05205
G1 X132.278 Y70.114 E.02322
G1 X132.961 Y69.913 E.02232
G1 X134.272 Y69.822 E.0412
G1 X144.476 Y71.251 E.32306
G1 X207.427 Y58.019 E2.01692
G1 X207.872 Y56.715 E.0432
M73 P1 R47
G1 X208.11 Y54.902 E.05733
G1 X208.027 Y52.976 E.06044
G1 X207.872 Y52.111 E.02755
G1 X207.427 Y50.808 E.04317
G1 X144.474 Y37.574 E2.01699
G1 X133.928 Y39.012 E.33372
G1 X132.816 Y38.877 E.03512
G1 X131.752 Y38.48 E.03561
G1 X130.743 Y37.772 E.03865
G1 X129.979 Y36.927 E.03572
G1 X129.264 Y35.223 E.05794
G1 X129.177 Y34.851 E.01198
G1 X129.206 Y32.697 E.06754
M204 S1000
G1 X129.206 Y32.697 F10800
G1 X129.583 Y32.703
M204 S800
G1 F1200
G1 X129.583 Y32.672 E.00097
G1 X129.899 Y31.708 E.03181
G1 X130.391 Y30.87 E.03047
G1 X131.427 Y29.889 E.04474
G1 X143.353 Y25.132 E.40258
G1 X145.22 Y24.981 E.05873
G1 X210.397 Y39.374 E2.09281
G1 X212.089 Y40.016 E.05674
M73 P2 R47
M73 Q2 S48
G1 X214.245 Y41.629 E.08442
G1 X215.469 Y43.126 E.06063
G1 X216.415 Y44.74 E.05866
G1 X217.314 Y46.913 E.07373
G1 X217.879 Y48.935 E.06583
G1 X218.245 Y50.969 E.0648
G1 X218.454 Y53.391 E.07622
G1 X218.446 Y55.625 E.07005
G1 X218.247 Y57.842 E.06979
G1 X217.879 Y59.892 E.0653
G1 X217.321 Y61.891 E.06507
G1 X216.411 Y64.093 E.07471
G1 X215.339 Y65.884 E.06545
G1 X213.911 Y67.514 E.06795
G1 X212.276 Y68.706 E.06344
G1 X210.412 Y69.449 E.06292
G1 X145.269 Y83.846 E2.0918
G1 X143.4 Y83.703 E.05877
M73 Q2 S47
G1 X131.917 Y79.235 E.38634
G1 X130.732 Y78.346 E.04645
G1 X129.927 Y77.176 E.04453
G1 X129.522 Y75.738 E.04684
G1 X129.539 Y74.179 E.04888
G1 X129.875 Y72.889 E.0418
G1 X130.621 Y71.701 E.04398
G1 X131.822 Y70.732 E.04838
G1 X133.01 Y70.287 E.03978
G1 X134.239 Y70.199 E.03863
G1 X144.489 Y71.634 E.32452
G1 X207.658 Y58.355 E2.02391
G1 X208.023 Y57.562 E.02737
G1 X208.24 Y56.8 E.02484
G1 X208.487 Y54.918 E.05951
G1 X208.401 Y52.926 E.06252
G1 X208.023 Y51.264 E.05344
G1 X207.658 Y50.471 E.02737
G1 X144.488 Y37.192 E2.02394
G1 X133.948 Y38.635 E.33356
G1 X132.926 Y38.516 E.03226
G1 X131.907 Y38.135 E.03411
G1 X130.979 Y37.477 E.03567
G1 X130.281 Y36.7 E.03275
G1 X129.549 Y34.79 E.06413
G1 X129.582 Y32.763 E.06356
M204 S1000
G1 X129.582 Y32.763 F10800
G1 X129.959 Y32.77
M204 S800
G1 F1200
G1 X129.96 Y32.709 E.00191
G1 X130.249 Y31.848 E.02848
G1 X130.701 Y31.086 E.02778
G1 X131.788 Y30.104 E.04593
G1 X143.466 Y25.493 E.39366
G1 X145.166 Y25.355 E.05348
G1 X210.302 Y39.739 E2.0915
G1 X211.885 Y40.334 E.05302
G1 X214 Y41.917 E.08283
G1 X215.151 Y43.329 E.05712
G1 X216.072 Y44.896 E.05699
G1 X216.961 Y47.047 E.07298
G1 X217.509 Y49.01 E.0639
G1 X217.87 Y51.01 E.06372
G1 X218.077 Y53.398 E.07515
G1 X218.07 Y55.6 E.06904
G1 X217.872 Y57.8 E.06926
G1 X217.509 Y59.816 E.06423
G1 X216.961 Y61.779 E.0639
G1 X216.081 Y63.912 E.07235
G1 X215.043 Y65.649 E.06345
G1 X213.671 Y67.223 E.06547
G1 X212.114 Y68.365 E.06054
G1 X210.316 Y69.084 E.06072
G1 X145.214 Y83.471 E2.09048
G1 X143.511 Y83.341 E.05355
G1 X132.121 Y78.916 E.38313
G1 X131.025 Y78.106 E.04273
G1 X130.255 Y76.989 E.04254
G1 X129.893 Y75.665 E.04304
G1 X129.915 Y74.208 E.04569
G1 X130.232 Y73.014 E.03873
G1 X130.922 Y71.93 E.04029
G1 X131.999 Y71.066 E.04329
G1 X133.098 Y70.655 E.03679
G1 X134.207 Y70.575 E.03486
G1 X144.502 Y72.017 E.32594
G1 X207.899 Y58.69 E2.03121
G1 X208.38 Y57.686 E.03491
M73 P3 R47
M73 Q3 S47
G1 X208.607 Y56.885 E.0261
G1 X208.864 Y54.934 E.0617
G1 X208.864 Y53.892 E.03267
G1 X208.607 Y51.941 E.0617
G1 X208.38 Y51.14 E.0261
G1 X207.899 Y50.136 E.03491
G1 X144.501 Y36.81 E2.03124
G1 X133.966 Y38.257 E.33342
G1 X133.034 Y38.153 E.0294
G1 X132.105 Y37.813 E.03102
G1 X131.215 Y37.182 E.03421
G1 X130.585 Y36.474 E.02971
G1 X129.922 Y34.731 E.05847
G1 X129.958 Y32.83 E.05962
M204 S1000
G1 X129.958 Y32.83 F10800
G1 X130.326 Y32.836
M204 S800
G1 F1200
G1 X130.327 Y32.801 E.0011
G1 X130.6 Y31.988 E.02689
G1 X131.01 Y31.304 E.025
G1 X131.914 Y30.466 E.03865
G1 X143.578 Y25.854 E.39327
G1 X145.112 Y25.729 E.04826
G1 X210.208 Y40.105 E2.09022
G1 X211.726 Y40.678 E.05087
G1 X213.723 Y42.173 E.07822
G1 X214.833 Y43.533 E.05504
G1 X215.74 Y45.076 E.05612
G1 X216.601 Y47.159 E.07067
G1 X217.14 Y49.086 E.06274
G1 X217.497 Y51.068 E.06314
G1 X217.7 Y53.405 E.07355
G1 X217.694 Y55.574 E.06801
G1 X217.499 Y57.741 E.06822
G1 X217.143 Y59.723 E.06314
G1 X216.601 Y61.667 E.06328
G1 X215.749 Y63.731 E.07001
G1 X214.747 Y65.415 E.06144
G1 X213.43 Y66.932 E.06299
G1 X211.951 Y68.024 E.05764
G1 X210.219 Y68.719 E.05851
G1 X145.16 Y83.097 E2.0891
G1 X143.621 Y82.98 E.04839
G1 X132.322 Y78.596 E.38
G1 X131.317 Y77.865 E.03897
G1 X130.584 Y76.801 E.04051
G1 X130.27 Y75.644 E.03759
G1 X130.292 Y74.238 E.04409
G1 X130.588 Y73.142 E.0356
G1 X131.221 Y72.161 E.03661
G1 X132.176 Y71.399 E.03831
G1 X133.185 Y71.022 E.03377
G1 X134.174 Y70.951 E.03109
G1 X144.515 Y72.399 E.3274
G1 X208.092 Y59.035 E2.03698
G1 X208.465 Y58.469 E.02125
G1 X208.975 Y56.97 E.04965
G1 X209.241 Y54.951 E.06385
G1 X209.15 Y52.826 E.06669
G1 X208.736 Y51.016 E.05822
G1 X208.465 Y50.358 E.02231
G1 X208.092 Y49.792 E.02125
G1 X144.514 Y36.427 E2.03701
G1 X133.982 Y37.88 E.33335
M73 P3 R46
G1 X133.139 Y37.791 E.02658
G1 X132.301 Y37.49 E.02792
G1 X131.451 Y36.888 E.03266
G1 X130.89 Y36.25 E.02664
G1 X130.296 Y34.675 E.05278
G1 X130.325 Y32.896 E.05579
M204 S1000
G1 X130.702 Y32.903 F10800
M204 S800
G1 F1200
G1 X130.703 Y32.84 E.00198
G1 X130.949 Y32.132 E.0235
G1 X131.318 Y31.523 E.02233
G1 X132.129 Y30.78 E.03449
G1 X143.691 Y26.215 E.38975
G1 X145.058 Y26.104 E.043
G1 X210.113 Y40.47 E2.0889
G1 X211.568 Y41.021 E.04878
M73 P4 R46
M73 Q4 S47
G1 X213.445 Y42.43 E.07359
G1 X214.532 Y43.76 E.05386
G1 X215.408 Y45.255 E.05433
G1 X216.241 Y47.272 E.06842
G1 X216.774 Y49.179 E.06208
G1 X217.124 Y51.126 E.06203
G1 X217.323 Y53.413 E.07198
G1 X217.317 Y55.549 E.06697
G1 X217.127 Y57.683 E.06717
G1 X216.774 Y59.648 E.0626
G1 X216.241 Y61.555 E.06208
G1 X215.418 Y63.55 E.06767
G1 X214.451 Y65.181 E.05945
G1 X213.189 Y66.641 E.06051
G1 X211.747 Y67.706 E.05621
G1 X210.123 Y68.354 E.05482
G1 X145.106 Y82.723 E2.08775
G1 X143.732 Y82.618 E.04321
G1 X132.482 Y78.254 E.37835
G1 X131.567 Y77.582 E.0356
M73 Q4 S46
G1 X130.915 Y76.617 E.03652
G1 X130.648 Y75.624 E.03224
G1 X130.668 Y74.268 E.04252
G1 X130.943 Y73.271 E.03243
G1 X131.519 Y72.394 E.0329
G1 X132.353 Y71.733 E.03337
G1 X133.272 Y71.389 E.03077
G1 X134.141 Y71.327 E.02732
G1 X144.528 Y72.782 E.32886
G1 X208.291 Y59.378 E2.04294
G1 X208.803 Y58.636 E.02827
G1 X209.093 Y57.934 E.02381
G1 X209.524 Y56.05 E.0606
G1 X209.618 Y54.967 E.03408
G1 X209.618 Y53.859 E.03474
G1 X209.343 Y51.771 E.06603
G1 X208.803 Y50.19 E.05238
G1 X208.291 Y49.448 E.02827
G1 X144.528 Y36.044 E2.04294
G1 X133.999 Y37.503 E.33328
G1 X133.202 Y37.418 E.02513
G1 X132.456 Y37.145 E.02491
G1 X131.69 Y36.595 E.02957
G1 X131.197 Y36.028 E.02356
G1 X130.669 Y34.623 E.04706
G1 X130.701 Y32.963 E.05206
M204 S1000
G1 X130.701 Y32.963 F10800
G1 X131.077 Y32.971
M204 S800
G1 F1200
G1 X131.079 Y32.88 E.00285
G1 X131.296 Y32.28 E.02001
G1 X131.625 Y31.744 E.01972
G1 X132.356 Y31.083 E.0309
G1 X143.803 Y26.576 E.38573
G1 X145.004 Y26.478 E.03778
G1 X210.018 Y40.835 E2.08758
G1 X211.409 Y41.364 E.04666
G1 X213.167 Y42.686 E.06897
G1 X214.231 Y43.987 E.0527
G1 X215.076 Y45.434 E.05254
G1 X215.881 Y47.384 E.06615
G1 X216.405 Y49.254 E.06089
G1 X216.752 Y51.185 E.06151
G1 X216.946 Y53.42 E.07034
G1 X216.941 Y55.524 E.06597
G1 X216.754 Y57.625 E.06614
G1 X216.408 Y59.555 E.06148
G1 X215.88 Y61.442 E.06144
G1 X215.087 Y63.37 E.06536
G1 X214.154 Y64.948 E.05748
G1 X212.947 Y66.351 E.05803
G1 X211.583 Y67.365 E.05329
G1 X210.026 Y67.989 E.05259
G1 X145.052 Y82.349 E2.08638
G1 X143.842 Y82.256 E.03805
G1 X132.643 Y77.912 E.37663
G1 X131.82 Y77.3 E.03216
G1 X131.246 Y76.435 E.03255
G1 X131.025 Y75.604 E.02696
G1 X131.045 Y74.299 E.04092
G1 X131.297 Y73.403 E.02918
G1 X131.815 Y72.629 E.0292
G1 X132.531 Y72.066 E.02856
G1 X133.359 Y71.757 E.02771
G1 X134.109 Y71.703 E.02358
G1 X144.541 Y73.164 E.33028
G1 X208.392 Y59.742 E2.04576
G1 X208.831 Y59.336 E.01875
M73 P5 R46
G1 X209.142 Y58.804 E.01932
M73 Q5 S46
G1 X209.711 Y57.141 E.05511
G1 X209.995 Y54.984 E.06821
G1 X209.898 Y52.727 E.07083
G1 X209.711 Y51.686 E.03316
G1 X209.142 Y50.022 E.05514
G1 X208.831 Y49.49 E.01932
G1 X208.392 Y49.084 E.01875
G1 X144.541 Y35.662 E2.04576
G1 X134.013 Y37.125 E.33327
G1 X133.306 Y37.055 E.02228
G1 X132.654 Y36.823 E.0217
G1 X131.929 Y36.302 E.02799
G1 X131.505 Y35.809 E.02039
G1 X131.044 Y34.58 E.04116
G1 X131.076 Y33.031 E.04858
M204 S1000
G1 X131.076 Y33.031 F10800
G1 X131.444 Y33.036
M204 S800
G1 F1200
G1 X131.445 Y32.976 E.00188
G1 X131.628 Y32.46 E.01717
G1 X131.932 Y31.965 E.01821
G1 X132.581 Y31.387 E.02725
G1 X143.915 Y26.937 E.38178
G1 X144.951 Y26.852 E.03259
G1 X209.923 Y41.2 E2.08623
G1 X211.249 Y41.706 E.0445
G1 X212.89 Y42.942 E.06441
G1 X213.913 Y44.19 E.0506
G1 X214.744 Y45.613 E.05167
G1 X215.52 Y47.496 E.06386
G1 X216.039 Y49.347 E.06028
G1 X216.379 Y51.243 E.0604
G1 X216.569 Y53.428 E.06877
G1 X216.565 Y55.498 E.0649
G1 X216.381 Y57.567 E.06513
G1 X216.039 Y59.48 E.06093
G1 X215.52 Y61.33 E.06024
G1 X214.755 Y63.191 E.06309
G1 X213.856 Y64.716 E.05551
G1 X212.704 Y66.063 E.05557
G1 X211.419 Y67.025 E.05033
G1 X209.93 Y67.624 E.05032
G1 X144.997 Y81.975 E2.08506
G1 X143.953 Y81.895 E.03283
G1 X132.804 Y77.57 E.37495
G1 X132.073 Y77.019 E.0287
G1 X131.601 Y76.306 E.02681
G1 X131.403 Y75.582 E.02353
G1 X131.422 Y74.329 E.03929
G1 X131.628 Y73.588 E.02411
G1 X132.111 Y72.865 E.02726
G1 X132.708 Y72.4 E.02373
G1 X133.444 Y72.125 E.02464
G1 X134.076 Y72.08 E.01987
G1 X144.554 Y73.547 E.33173
G1 X208.486 Y60.108 E2.04835
G1 X208.846 Y59.904 E.01297
G1 X209.141 Y59.555 E.01433
G1 X209.481 Y58.972 E.02116
G1 X209.807 Y58.182 E.0268
G1 X210.079 Y57.226 E.03116
G1 X210.272 Y56.149 E.03431
G1 X210.372 Y55 E.03616
G1 X210.372 Y53.826 E.03681
G1 X210.272 Y52.677 E.03616
G1 X210.079 Y51.6 E.03431
G1 X209.807 Y50.644 E.03116
G1 X209.481 Y49.855 E.02677
G1 X209.141 Y49.272 E.02116
G1 X208.846 Y48.922 E.01435
G1 X208.486 Y48.718 E.01297
G1 X144.554 Y35.279 E2.04835
G1 X134.025 Y36.748 E.33333
G1 X133.409 Y36.692 E.01939
G1 X132.807 Y36.477 E.02004
G1 X132.17 Y36.012 E.02473
G1 X131.814 Y35.591 E.01729
G1 X131.422 Y34.532 E.03541
G1 X131.443 Y33.096 E.04503
M204 S1000
G1 X131.443 Y33.096 F10800
M73 P5 R45
G1 X131.811 Y33.099
M204 S800
G1 F1200
G1 X131.811 Y33.072 E.00085
G1 X131.977 Y32.606 E.01551
G1 X132.236 Y32.189 E.01539
G1 X132.804 Y31.692 E.02366
G1 X144.027 Y27.298 E.3779
G1 X144.897 Y27.226 E.02737
G1 X209.828 Y41.565 E2.08492
G1 X211.089 Y42.049 E.04235
G1 X212.613 Y43.199 E.05986
G1 X213.611 Y44.417 E.04937
G1 X214.411 Y45.792 E.04988
G1 X215.16 Y47.609 E.06162
G1 X215.673 Y49.44 E.05962
G1 X216.006 Y51.301 E.05928
G1 X216.192 Y53.436 E.06719
G1 X216.188 Y55.473 E.06387
G1 X216.009 Y57.508 E.06405
G1 X215.669 Y59.404 E.0604
G1 X215.16 Y61.218 E.05907
G1 X214.423 Y63.011 E.06078
G1 X213.558 Y64.484 E.05356
G1 X212.46 Y65.774 E.05311
G1 X211.254 Y66.685 E.04739
G1 X209.833 Y67.26 E.04806
G1 X144.943 Y81.6 E2.08367
G1 X144.063 Y81.533 E.02767
M73 P6 R45
M73 Q6 S46
G1 X132.964 Y77.228 E.37326
G1 X132.366 Y76.78 E.02343
G1 X131.955 Y76.172 E.02301
G1 X131.78 Y75.559 E.01999
G1 X131.798 Y74.358 E.03766
G1 X131.96 Y73.768 E.01918
G1 X132.37 Y73.14 E.02352
G1 X132.888 Y72.732 E.02067
G1 X133.53 Y72.492 E.02149
G1 X134.044 Y72.456 E.01616
G1 X144.567 Y73.929 E.33316
G1 X208.594 Y60.47 E2.0514
G1 X209.108 Y60.179 E.01852
M73 Q6 S45
G1 X209.45 Y59.773 E.01664
G1 X209.82 Y59.139 E.02302
G1 X210.163 Y58.306 E.02825
G1 X210.447 Y57.311 E.03244
G1 X210.646 Y56.199 E.03542
G1 X210.749 Y55.016 E.03723
G1 X210.749 Y53.81 E.03781
G1 X210.646 Y52.627 E.03723
G1 X210.447 Y51.515 E.03542
