; generated by PrusaSlicer 2.9.0 on 2025-01-24 at 21:42:06 UTC


;
;
; 

; external perimeters extrusion width = 0.60mm
; perimeters extrusion width = 0.50mm
; infill extrusion width = 0.50mm
; solid infill extrusion width = 0.50mm
; top infill extrusion width = 0.45mm
; first layer extrusion width = 0.42mm

M73 P0 R50
M73 Q0 S50
M201 X1000 Y1000 Z200 E5000 ; sets maximum accelerations, mm/sec^2
M203 X200 Y200 Z12 E120 ; sets maximum feedrates, mm / sec
M204 S1250 T1250 ; sets acceleration (S) and retract acceleration (R), mm/sec^2
M205 X8.00 Y8.00 Z0.40 E4.50 ; sets the jerk limits, mm/sec
M205 S0 T0 ; sets the minimum extruding and travel feed rate, mm/sec

; printing object Articulated Modern Keychain.stl id:0 copy 0
; stop printing object Articulated Modern Keychain.stl id:0 copy 0

;TYPE:Custom
M862.3 P "MK3S" ; printer model check
M862.1 P0.4 ; nozzle diameter check
M115 U3.14.1 ; tell printer latest fw version
G90 ; use absolute coordinates
M83 ; extruder relative mode
M104 S215 ; set extruder temp
M140 S60 ; set bed temp
M190 S60 ; wait for bed temp
M109 S215 ; wait for extruder temp
G28 W ; home all without mesh bed level
G80 X105.223 Y47.7229 W39.5542 H114.554 ; mesh bed levelling

G1 Z0.2 F720
G1 Y-3 F1000 ; go outside print area
G92 E0
G1 X60 E9 F1000 ; intro line
G1 X100 E12.5 F1000 ; intro line

G92 E0
M221 S95

; Don't change E values below. Excessive value can damage the printer.

M907 E538 ; set extruder motor current
G21 ; set units to millimeters
G90 ; use absolute coordinates
M83 ; use relative distances for extrusion

M900 K0.05 ; Filament gcode LA 1.5
M900 K30 ; Filament gcode LA 1.0




M107
;LAYER_CHANGE
;Z:0.2
;HEIGHT:0.2
G1 E-.8 F2100
G1 Z.6 F720
G1 X106.465 Y54.281 F10800
G1 Z.2 F720
G1 E.8 F2100
M204 S800
;TYPE:Skirt/Brim
;WIDTH:0.42
G1 F1200
G1 X107.251 Y52.884 E.05026
G1 X108.094 Y51.769 E.04383
G1 X109.224 Y50.633 E.05024
G1 X110.335 Y49.783 E.04386
G1 X111.728 Y48.991 E.05024
G1 X113.025 Y48.47 E.04382
G1 X114.58 Y48.079 E.05027
G1 X116.028 Y47.922 E.04567
G1 X133.534 Y47.912 E.54889
G1 X135.42 Y48.079 E.05937
G1 X136.533 Y48.334 E.0358
G1 X137.54 Y48.674 E.03332
G1 X139.326 Y49.566 E.06259
G1 X140.265 Y50.214 E.03577
G1 X141.032 Y50.862 E.03148
G1 X142.369 Y52.344 E.06258
G1 X143.356 Y53.92 E.05831
G1 X143.775 Y54.832 E.03147
G1 X144.149 Y55.91 E.03578
G1 X144.531 Y57.87 E.06261
G1 X144.589 Y58.968 E.03448
G1 X144.589 Y151.032 E2.8866
G1 X144.431 Y152.862 E.05759
M73 P0 R49
G1 X144.048 Y154.419 E.05027
G1 X143.535 Y155.719 E.04382
G1 X142.749 Y157.116 E.05026
G1 X141.867 Y158.276 E.04569
G1 X140.776 Y159.368 E.0484
G1 X139.616 Y160.249 E.04567
G1 X138.219 Y161.035 E.05026
G1 X136.59 Y161.649 E.05458
G1 X135.167 Y161.962 E.04568
G1 X133.561 Y162.088 E.05051
G1 X116.439 Y162.088 E.53685
G1 X114.638 Y161.931 E.05668
G1 X112.894 Y161.486 E.05643
G1 X111.245 Y160.764 E.05644
G1 X109.734 Y159.786 E.05643
G1 X108.402 Y158.575 E.05644
G1 X107.283 Y157.166 E.05642
G1 X106.407 Y155.593 E.05645
G1 X105.797 Y153.9 E.05642
G1 X105.463 Y152.071 E.0583
G1 X105.411 Y151.032 E.03262
G1 X105.411 Y58.968 E2.8866
G1 X105.569 Y57.138 E.05759
G1 X105.952 Y55.581 E.05027
G1 X106.443 Y54.337 E.04193
M204 S1000
;WIPE_START
G1 F8640
G1 X106.465 Y54.281 E-.01389
G1 X107.251 Y52.884 E-.37012
G1 X108.094 Y51.769 E-.32276
G1 X108.379 Y51.483 E-.09323
;WIPE_END
G1 Z.6 F720
G1 X108.757 Y55.26 F10800
G1 Z.2 F720
G1 E.8 F2100
M204 S800
G1 F1200
G1 X108.828 Y55.082 E.00601
G1 X109.527 Y53.944 E.04187
G1 X110.385 Y52.934 E.04155
G1 X111.422 Y52.045 E.04283
G1 X112.352 Y51.451 E.0346
G1 X113.44 Y50.95 E.03756
G1 X114.608 Y50.597 E.03826
G1 X116.142 Y50.392 E.04853
G1 X133.736 Y50.392 E.55165
G1 X135.039 Y50.524 E.04106
G1 X136.762 Y51.028 E.05629
G1 X138.317 Y51.86 E.0553
G1 X139.083 Y52.441 E.03014
G1 X139.753 Y53.076 E.02894
G1 X140.627 Y54.164 E.04376
G1 X141.364 Y55.487 E.04748
G1 X141.824 Y56.787 E.04324
G1 X142.044 Y57.918 E.03613
G1 X142.11 Y58.819 E.02833
G1 X142.113 Y79.701 E.65474
G1 X142.062 Y80 E.00951
M73 Q0 S49
G1 X142.113 Y80.299 E.00951
G1 X142.113 Y92.201 E.37318
G1 X142.062 Y92.5 E.00951
G1 X142.113 Y92.799 E.00951
G1 X142.113 Y104.701 E.37318
G1 X142.062 Y105 E.00951
G1 X142.113 Y105.299 E.00951
G1 X142.113 Y117.201 E.37318
G1 X142.062 Y117.5 E.00951
G1 X142.113 Y117.799 E.00951
G1 X142.113 Y129.701 E.37318
G1 X142.062 Y130 E.00951
G1 X142.113 Y130.299 E.00951
G1 X142.113 Y142.201 E.37318
G1 X142.062 Y142.5 E.00951
G1 X142.114 Y142.802 E.00961
G1 X142.108 Y151.335 E.26755
G1 X141.99 Y152.454 E.03528
G1 X141.711 Y153.593 E.03677
G1 X141.206 Y154.849 E.04244
G1 X140.557 Y155.941 E.03983
G1 X139.52 Y157.163 E.05025
G1 X138.566 Y157.965 E.03908
G1 X137.643 Y158.551 E.03428
G1 X136.569 Y159.047 E.03709
G1 X135.423 Y159.396 E.03756
G1 X134.497 Y159.555 E.02946
G1 X133.563 Y159.613 E.02934
G1 X116.439 Y159.613 E.53691
G1 X114.804 Y159.445 E.05153
G1 X113.635 Y159.123 E.03802
G1 X112.758 Y158.758 E.02978
G1 X111.968 Y158.324 E.02826
M73 Q1 S49
G1 X111.159 Y157.756 E.03099
M73 P1 R49
G1 X110.372 Y157.052 E.03311
G1 X109.711 Y156.301 E.03137
G1 X109.081 Y155.375 E.03512
G1 X108.696 Y154.645 E.02588
G1 X108.365 Y153.83 E.02758
G1 X108.072 Y152.776 E.0343
G1 X107.939 Y151.951 E.0262
G1 X107.887 Y58.927 E2.9167
G1 X107.974 Y57.785 E.03591
G1 X108.237 Y56.564 E.03916
G1 X108.735 Y55.315 E.04216
M204 S1000
G1 X108.735 Y55.315 F10800
G1 X109.068 Y55.466
M204 S800
G1 F1200
G1 X109.166 Y55.248 E.00749
G1 X109.824 Y54.177 E.03941
G1 X110.662 Y53.19 E.0406
G1 X111.657 Y52.34 E.04103
G1 X112.543 Y51.776 E.03293
G1 X113.585 Y51.298 E.03594
G1 X114.702 Y50.962 E.03657
G1 X116.155 Y50.769 E.04596
G1 X133.727 Y50.77 E.55096
G1 X134.964 Y50.894 E.03898
G1 X135.81 Y51.095 E.02726
G1 X136.628 Y51.381 E.02717
G1 X138.113 Y52.177 E.05283
G1 X139.467 Y53.322 E.0556
G1 X140.323 Y54.388 E.04287
G1 X141.026 Y55.655 E.04543
G1 X141.464 Y56.899 E.04135
G1 X141.669 Y57.957 E.03379
G1 X141.733 Y58.826 E.02732
G1 X141.736 Y67.182 E.262
G1 X141.678 Y67.5 E.01014
G1 X141.736 Y67.817 E.0101
G1 X141.736 Y79.683 E.37205
G1 X141.678 Y80 E.0101
G1 X141.736 Y80.317 E.0101
G1 X141.736 Y92.183 E.37205
G1 X141.678 Y92.5 E.0101
G1 X141.736 Y92.817 E.0101
G1 X141.736 Y104.683 E.37205
G1 X141.678 Y105 E.0101
G1 X141.736 Y105.317 E.0101
G1 X141.736 Y117.183 E.37205
G1 X141.678 Y117.5 E.0101
G1 X141.736 Y117.817 E.0101
G1 X141.736 Y129.683 E.37205
G1 X141.678 Y130 E.0101
G1 X141.736 Y130.317 E.0101
G1 X141.736 Y142.183 E.37205
G1 X141.678 Y142.5 E.0101
G1 X141.737 Y142.82 E.0102
G1 X141.731 Y151.325 E.26667
G1 X141.616 Y152.402 E.03396
G1 X141.356 Y153.466 E.03434
G1 X140.874 Y154.67 E.04066
G1 X140.252 Y155.719 E.03824
G1 X139.778 Y156.331 E.02427
G1 X139.252 Y156.897 E.02423
G1 X138.333 Y157.667 E.03759
G1 X137.452 Y158.226 E.03271
G1 X136.424 Y158.699 E.03548
G1 X135.325 Y159.031 E.036
G1 X133.558 Y159.236 E.05577
G1 X116.444 Y159.236 E.5366
G1 X114.872 Y159.074 E.04955
G1 X113.748 Y158.763 E.03657
G1 X112.93 Y158.422 E.02779
G1 X112.176 Y158.009 E.02696
G1 X111.384 Y157.454 E.03032
G1 X110.647 Y156.794 E.03102
G1 X110.016 Y156.079 E.0299
G1 X109.398 Y155.172 E.03441
G1 X108.725 Y153.719 E.05021
G1 X108.438 Y152.685 E.03365
G1 X108.267 Y151.174 E.04768
G1 X108.264 Y142.818 E.262
G1 X108.322 Y142.5 E.01014
G1 X108.264 Y142.183 E.0101
G1 X108.264 Y130.317 E.37205
G1 X108.322 Y130 E.0101
G1 X108.264 Y129.683 E.0101
G1 X108.264 Y117.817 E.37205
G1 X108.322 Y117.5 E.0101
G1 X108.264 Y117.183 E.0101
G1 X108.264 Y105.317 E.37205
G1 X108.322 Y105 E.0101
G1 X108.264 Y104.683 E.0101
G1 X108.264 Y92.817 E.37205
G1 X108.322 Y92.5 E.0101
G1 X108.264 Y92.183 E.0101
G1 X108.264 Y80.317 E.37205
G1 X108.322 Y80 E.0101
G1 X108.264 Y79.683 E.0101
G1 X108.264 Y67.817 E.37205
G1 X108.322 Y67.5 E.0101
G1 X108.264 Y67.183 E.0101
G1 X108.264 Y58.934 E.25864
G1 X108.346 Y57.851 E.03405
G1 X108.597 Y56.677 E.03764
G1 X108.849 Y55.95 E.02413
G1 X109.043 Y55.521 E.01476
M204 S1000
G1 X109.043 Y55.521 F10800
G1 X109.405 Y55.665
M204 S800
G1 F1200
G1 X109.505 Y55.415 E.00844
G1 X110.137 Y54.387 E.03784
G1 X110.939 Y53.447 E.03874
G1 X111.891 Y52.636 E.03921
G1 X112.734 Y52.102 E.03129
G1 X113.729 Y51.647 E.0343
G1 X114.795 Y51.328 E.03489
G1 X116.167 Y51.146 E.04339
G1 X133.717 Y51.147 E.55027
G1 X134.89 Y51.264 E.03696
G1 X136.494 Y51.734 E.05241
G1 X137.91 Y52.495 E.0504
G1 X138.581 Y53.004 E.02641
G1 X139.182 Y53.569 E.02586
G1 X140.019 Y54.611 E.04191
G1 X140.688 Y55.823 E.04341
G1 X141.103 Y57.01 E.03943
G1 X141.294 Y57.996 E.03149
G1 X141.356 Y58.833 E.02632
G1 X141.359 Y67.163 E.26118
G1 X141.293 Y67.5 E.01077
G1 X141.359 Y67.837 E.01077
G1 X141.359 Y79.663 E.3708
G1 X141.293 Y80 E.01077
G1 X141.359 Y80.337 E.01077
G1 X141.359 Y92.163 E.3708
G1 X141.293 Y92.5 E.01077
G1 X141.359 Y92.837 E.01077
G1 X141.359 Y104.663 E.3708
G1 X141.293 Y105 E.01077
G1 X141.359 Y105.337 E.01077
G1 X141.359 Y117.163 E.3708
G1 X141.293 Y117.5 E.01077
G1 X141.359 Y117.837 E.01077
G1 X141.359 Y129.663 E.3708
G1 X141.293 Y130 E.01077
G1 X141.359 Y130.337 E.01077
G1 X141.359 Y142.163 E.3708
G1 X141.293 Y142.5 E.01077
G1 X141.36 Y142.839 E.01083
G1 X141.354 Y151.315 E.26576
G1 X141.242 Y152.349 E.03261
G1 X141.001 Y153.338 E.03192
G1 X140.542 Y154.491 E.03891
G1 X139.946 Y155.498 E.03669
G1 X138.984 Y156.632 E.04663
G1 X138.101 Y157.37 E.03608
G1 X137.262 Y157.9 E.03112
G1 X136.279 Y158.351 E.03391
G1 X135.228 Y158.667 E.03441
G1 X133.552 Y158.859 E.05289
G1 X116.449 Y158.859 E.53625
G1 X114.94 Y158.703 E.04757
G1 X113.86 Y158.403 E.03514
G1 X112.383 Y157.695 E.05136
G1 X111.61 Y157.152 E.02962
G1 X110.922 Y156.536 E.02895
G1 X110.321 Y155.856 E.02845
G1 X109.716 Y154.969 E.03366
G1 X109.086 Y153.607 E.04705
G1 X108.804 Y152.595 E.03294
G1 X108.644 Y151.167 E.04505
G1 X108.641 Y142.837 E.26118
G1 X108.707 Y142.5 E.01077
G1 X108.641 Y142.163 E.01077
G1 X108.641 Y130.337 E.3708
G1 X108.707 Y130 E.01077
G1 X108.641 Y129.663 E.01077
G1 X108.641 Y117.837 E.3708
G1 X108.707 Y117.5 E.01077
G1 X108.641 Y117.163 E.01077
G1 X108.641 Y105.337 E.3708
G1 X108.707 Y105 E.01077
G1 X108.641 Y104.663 E.01077
G1 X108.641 Y92.837 E.3708
G1 X108.707 Y92.5 E.01077
M73 P2 R49
M73 Q2 S49
G1 X108.641 Y92.163 E.01077
G1 X108.641 Y80.337 E.3708
G1 X108.707 Y80 E.01077
G1 X108.641 Y79.663 E.01077
G1 X108.641 Y67.837 E.3708
G1 X108.707 Y67.5 E.01077
G1 X108.641 Y67.163 E.01077
G1 X108.641 Y58.941 E.2578
G1 X108.717 Y57.917 E.0322
G1 X108.957 Y56.789 E.03616
G1 X109.383 Y55.721 E.03605
M204 S1000
G1 X109.383 Y55.721 F10800
G1 X109.713 Y55.87
M204 S800
G1 F1200
G1 X109.843 Y55.581 E.00994
G1 X110.45 Y54.598 E.03622
G1 X111.216 Y53.703 E.03694
G1 X112.124 Y52.933 E.03733
G1 X112.924 Y52.428 E.02966
G1 X113.874 Y51.995 E.03273
G1 X114.888 Y51.694 E.03316
G1 X116.18 Y51.523 E.04086
G1 X133.708 Y51.524 E.54958
G1 X134.815 Y51.633 E.03488
G1 X135.599 Y51.818 E.02526
G1 X137.049 Y52.413 E.04914
G1 X137.705 Y52.812 E.02407
G1 X138.896 Y53.816 E.04884
G1 X139.715 Y54.834 E.04097
G1 X140.35 Y55.991 E.04138
G1 X140.743 Y57.121 E.03751
G1 X140.919 Y58.035 E.02918
G1 X140.979 Y58.84 E.02531
G1 X140.982 Y67.142 E.2603
G1 X140.907 Y67.5 E.01147
G1 X140.982 Y67.857 E.01144
G1 X140.982 Y79.643 E.36954
G1 X140.907 Y80 E.01144
G1 X140.982 Y80.357 E.01144
G1 X140.982 Y92.143 E.36954
G1 X140.907 Y92.5 E.01144
G1 X140.982 Y92.857 E.01144
G1 X140.982 Y104.643 E.36954
G1 X140.907 Y105 E.01144
G1 X140.982 Y105.357 E.01144
G1 X140.982 Y117.143 E.36954
G1 X140.907 Y117.5 E.01144
G1 X140.982 Y117.857 E.01144
G1 X140.982 Y129.643 E.36954
G1 X140.907 Y130 E.01144
G1 X140.982 Y130.357 E.01144
G1 X140.982 Y142.143 E.36954
G1 X140.907 Y142.5 E.01144
G1 X140.982 Y142.859 E.0115
G1 X140.976 Y151.304 E.26479
G1 X140.869 Y152.296 E.03128
G1 X140.646 Y153.212 E.02956
G1 X140.209 Y154.312 E.03711
G1 X139.64 Y155.277 E.03513
G1 X139.203 Y155.843 E.02242
G1 X138.716 Y156.366 E.02241
G1 X137.869 Y157.072 E.03457
G1 X137.072 Y157.574 E.02953
G1 X136.134 Y158.002 E.03233
G1 X135.131 Y158.302 E.03282
G1 X133.546 Y158.482 E.05002
G1 X116.454 Y158.482 E.53591
G1 X115.008 Y158.332 E.04558
M73 P2 R48
G1 X113.994 Y158.05 E.033
G1 X113.274 Y157.751 E.02444
G1 X111.853 Y156.863 E.05254
G1 X111.197 Y156.277 E.02758
G1 X110.611 Y155.615 E.02772
G1 X110.045 Y154.785 E.0315
G1 X109.439 Y153.475 E.04526
G1 X109.175 Y152.525 E.03092
G1 X109.021 Y151.149 E.04341
G1 X109.018 Y142.858 E.25996
G1 X109.093 Y142.5 E.01147
G1 X109.018 Y142.143 E.01144
G1 X109.018 Y130.357 E.36954
G1 X109.093 Y130 E.01144
G1 X109.018 Y129.643 E.01144
G1 X109.018 Y117.857 E.36954
G1 X109.093 Y117.5 E.01144
G1 X109.018 Y117.143 E.01144
G1 X109.018 Y105.357 E.36954
G1 X109.093 Y105 E.01144
G1 X109.018 Y104.643 E.01144
G1 X109.018 Y92.857 E.36954
G1 X109.093 Y92.5 E.01144
G1 X109.018 Y92.143 E.01144
G1 X109.018 Y80.357 E.36954
G1 X109.093 Y80 E.01144
G1 X109.018 Y79.643 E.01144
G1 X109.018 Y67.857 E.36954
G1 X109.093 Y67.5 E.01144
G1 X109.018 Y67.143 E.01144
G1 X109.018 Y58.948 E.25695
G1 X109.089 Y57.982 E.03037
G1 X109.317 Y56.901 E.03464
G1 X109.55 Y56.23 E.02227
G1 X109.688 Y55.925 E.0105
M204 S1000
G1 X109.688 Y55.925 F10800
G1 X110.053 Y56.07
M204 S800
G1 F1200
G1 X110.182 Y55.748 E.01088
G1 X110.763 Y54.809 E.03462
G1 X111.492 Y53.961 E.03506
G1 X112.357 Y53.23 E.03551
G1 X113.114 Y52.754 E.02804
G1 X114.017 Y52.344 E.03109
G1 X114.981 Y52.059 E.03152
G1 X116.192 Y51.901 E.03829
G1 X133.699 Y51.901 E.54892
G1 X134.741 Y52.003 E.03283
G1 X136.207 Y52.431 E.04788
G1 X137.501 Y53.129 E.0461
G1 X138.628 Y54.081 E.04626
G1 X139.41 Y55.057 E.03921
G1 X139.999 Y56.13 E.03838
G1 X140.375 Y57.206 E.03574
G1 X140.602 Y58.861 E.05238
G1 X140.605 Y67.12 E.25896
G1 X140.52 Y67.5 E.01221
G1 X140.605 Y67.879 E.01218
G1 X140.605 Y79.621 E.36816
G1 X140.52 Y80 E.01218
G1 X140.605 Y80.379 E.01218
G1 X140.605 Y92.121 E.36816
G1 X140.52 Y92.5 E.01218
G1 X140.605 Y92.879 E.01218
G1 X140.605 Y104.621 E.36816
G1 X140.52 Y105 E.01218
G1 X140.605 Y105.379 E.01218
G1 X140.605 Y117.121 E.36816
G1 X140.52 Y117.5 E.01218
G1 X140.605 Y117.879 E.01218
G1 X140.605 Y129.621 E.36816
G1 X140.52 Y130 E.01218
G1 X140.605 Y130.379 E.01218
G1 X140.605 Y142.121 E.36816
G1 X140.52 Y142.5 E.01218
G1 X140.605 Y142.881 E.01224
G1 X140.599 Y151.294 E.26378
G1 X140.495 Y152.243 E.02993
G1 X140.29 Y153.086 E.0272
G1 X139.876 Y154.134 E.03533
G1 X139.334 Y155.057 E.03356
G1 X138.448 Y156.1 E.04291
G1 X137.638 Y156.774 E.03304
G1 X136.882 Y157.248 E.02798
G1 X135.99 Y157.653 E.03072
G1 X135.035 Y157.937 E.03124
G1 X133.541 Y158.105 E.04714
G1 X116.46 Y158.105 E.53556
G1 X115.077 Y157.961 E.0436
G1 X114.128 Y157.698 E.03088
G1 X112.764 Y157.043 E.04744
G1 X111.457 Y156.004 E.05235
G1 X110.902 Y155.375 E.0263
G1 X110.374 Y154.6 E.0294
G1 X109.792 Y153.343 E.04343
G1 X109.545 Y152.455 E.0289
G1 X109.397 Y151.131 E.04177
G1 X109.395 Y142.88 E.2587
G1 X109.48 Y142.5 E.01221
G1 X109.395 Y142.121 E.01218
G1 X109.395 Y130.379 E.36816
G1 X109.48 Y130 E.01218
M73 Q2 S48
G1 X109.395 Y129.621 E.01218
G1 X109.395 Y117.879 E.36816
G1 X109.48 Y117.5 E.01218
G1 X109.395 Y117.121 E.01218
G1 X109.395 Y105.379 E.36816
G1 X109.48 Y105 E.01218
G1 X109.395 Y104.621 E.01218
G1 X109.395 Y92.879 E.36816
G1 X109.48 Y92.5 E.01218
G1 X109.395 Y92.121 E.01218
G1 X109.395 Y80.379 E.36816
G1 X109.48 Y80 E.01218
G1 X109.395 Y79.621 E.01218
G1 X109.395 Y67.879 E.36816
G1 X109.48 Y67.5 E.01218
G1 X109.395 Y67.121 E.01218
G1 X109.395 Y58.955 E.25604
G1 X109.461 Y58.047 E.02854
G1 X109.677 Y57.013 E.03312
G1 X110.031 Y56.126 E.02994
M204 S1000
G1 X110.031 Y56.126 F10800
G1 X110.357 Y56.274
M204 S800
G1 F1200
G1 X110.52 Y55.916 E.01233
G1 X111.075 Y55.021 E.03302
G1 X111.767 Y54.219 E.03321
G1 X112.59 Y53.527 E.03371
G1 X113.303 Y53.081 E.02637
G1 X114.16 Y52.693 E.0295
G1 X115.073 Y52.425 E.02983
G1 X116.204 Y52.278 E.03576
G1 X133.69 Y52.278 E.54826
G1 X134.668 Y52.373 E.03081
G1 X135.369 Y52.537 E.02257
G1 X136.691 Y53.077 E.04478
G1 X137.296 Y53.445 E.0222
G1 X138.36 Y54.347 E.04374
G1 X139.088 Y55.254 E.03647
M73 P3 R48
G1 X139.649 Y56.27 E.03639
G1 X140.007 Y57.291 E.03392
G1 X140.174 Y58.155 E.02759
G1 X140.228 Y67.097 E.28038
G1 X140.132 Y67.5 E.01299
